!!!!SEGMENT: pl-cz--iii-692--001-006_volckmer-augustin--miserere-cor-mundum.krn
!!!cenid: 17xx:1153
!!!COM: Volckmer, Augustin
!!!COM-rismID: pe30020656
!!!CDT: 1755-~1820
!!!CNT:
!!!OPR: Miserere
!!!OTL: Cor mundum
!!!OMV: 006
!!!PDT:
!!!AGN: Sacred
!!!SMS-siglum: PL-CZ
!!!SMS-shelfmark: III-692
!!!SMS-shelfwork: 001-006 M
!!!SMS-variant:
!!!SMS-altvar:
!!!NIFC-rismSourceID: 300001392
!!!NIFC-rismChildID: 300001392
!!!NIFC-islandoraID: pl-cz:40420
!!!URL-pdf-islandora: https://repozytorium.nifc.pl/islandora/object/pl-cz%3A40420/datastream/PDF/view
!!!URL-scan: https://polish.musicsources.pl/pl/lokalizacje/galeria/rekopisy/6989/1 @EN{Scan on Polish Music Sources Website} @PL{Skany w portalu Dziedzictwo Muzyki Polskiej w otwartym dostępie}
!!!IIIF:
!!!ONB-nifc: UWAGA: części Miserere: 1. Miserere, 2. Recitativo – Amplius lava me, 3. Aria – Quoniam, 4. Aria – Asperges me, 5. Averte faciem tuam, 6. Cor mundum, 7. Duetto – Docebo iniquos, 8. Arietta – Domine labia mea, 9. Recitativo – Quoniam si voluisses, 10. Aria – Sacrificium Deo, 11. Gloria Patri, 12. Sicut erat
!!!AIN: 1 alto 1 bass 2 cor 2 oboe 1 organ 1 soprn 1 tenor 1 viola 2 violn
!!!key: E-
**kern	**dynam	**kern	**dynam	**kern	**dynam	**kern	**dynam	**kern	**text	**dynam	**kern	**text	**dynam	**kern	**text	**dynam	**kern	**text	**dynam	**kern	**dynam	**kern	**dynam	**kern	**dynam	**kern	**dynam
*	*	*group4	*	*group4	*	*group4	*	*group3	*	*	*group3	*	*	*group3	*	*	*group3	*	*	*group2	*	*group2	*	*group1	*	*group1	*
*part12	*part12	*part11	*part11	*part10	*part10	*part9	*part9	*part8	*part8	*part8	*part7	*part7	*part7	*part6	*part6	*part6	*part5	*part5	*part5	*part4	*part4	*part3	*part3	*part2	*part2	*part1	*part1
*staff12	*	*staff11	*	*staff10	*	*staff9	*	*staff8	*staff8	*	*staff7	*staff7	*	*staff6	*staff6	*	*staff5	*staff5	*	*staff4	*	*staff3	*	*staff2	*	*staff1	*
*I"Organo.	*	*I"Viola obl=	*	*I"Violino Secondo.	*	*I"Violino Primo	*	*I"Basſo	*	*	*I"Tenore	*	*	*I"Alto .	*	*	*I"Canto	*	*	*I"Cornu Secondo in Dis	*	*I"Cornu Primo. in Dis	*	*I"Oboa Seconda	*	*I"Oboa Prima .	*
*I'org	*	*I'vla obl	*	*I'vl 2	*	*I'vl 1	*	*I'B	*	*	*I'T	*	*	*I'A	*	*	*I'S	*	*	*I'cor 2	*	*I'cor 1	*	*I'ob 2	*	*I'ob 1	*
*Iorgan	*	*Iviola	*	*Ivioln	*	*Ivioln	*	*Ibass	*	*	*Itenor	*	*	*Ialto	*	*	*Isoprn	*	*	*Icor	*	*Icor	*	*Ioboe	*	*Ioboe	*
*ICklav	*	*ICstr	*	*ICstr	*	*ICstr	*	*ICvox	*	*	*ICvox	*	*	*ICvox	*	*	*ICvox	*	*	*ICbras	*	*ICbras	*	*ICww	*	*ICww	*
*IGcont	*	*	*	*	*	*	*	*IGcoro	*	*	*IGcoro	*	*	*IGcoro	*	*	*IGcoro	*	*	*	*	*	*	*	*	*	*
*>[A,B,B,C]	*>[A,B,B,C]	*>[A,B,B,C]	*>[A,B,B,C]	*>[A,B,B,C]	*>[A,B,B,C]	*>[A,B,B,C]	*>[A,B,B,C]	*>[A,B,B,C]	*>[A,B,B,C]	*>[A,B,B,C]	*>[A,B,B,C]	*>[A,B,B,C]	*>[A,B,B,C]	*>[A,B,B,C]	*>[A,B,B,C]	*>[A,B,B,C]	*>[A,B,B,C]	*>[A,B,B,C]	*>[A,B,B,C]	*>[A,B,B,C]	*>[A,B,B,C]	*>[A,B,B,C]	*>[A,B,B,C]	*>[A,B,B,C]	*>[A,B,B,C]	*>[A,B,B,C]	*>[A,B,B,C]
*>A	*>A	*>A	*>A	*>A	*>A	*>A	*>A	*>A	*>A	*>A	*>A	*>A	*>A	*>A	*>A	*>A	*>A	*>A	*>A	*>A	*>A	*>A	*>A	*>A	*>A	*>A	*>A
*clefF4	*	*clefC3	*	*clefG2	*	*clefG2	*	*clefF4	*	*	*clefC4	*	*	*clefC3	*	*	*clefC1	*	*	*clefG2	*	*clefG2	*	*clefG2	*	*clefG2	*
*	*	*	*	*	*	*	*	*	*	*	*	*	*	*	*	*	*	*	*	*ITrd5c9	*	*ITrd5c9	*	*	*	*	*
*k[e-b-a-]	*	*k[b-e-a-]	*	*k[b-a-e-]	*	*k[a-b-e-]	*	*k[e-a-b-]	*	*	*k[b-a-e-]	*	*	*k[b-e-a-]	*	*	*k[b-e-a-]	*	*	*k[b-e-a-]	*	*k[b-e-a-]	*	*k[b-e-a-]	*	*k[b-e-a-]	*
*E-:	*	*E-:	*	*E-:	*	*E-:	*	*E-:	*	*	*E-:	*	*	*E-:	*	*	*E-:	*	*	*E-:	*	*E-:	*	*E-:	*	*E-:	*
*M3/4	*	*M3/4	*	*M3/4	*	*M3/4	*	*M3/4	*	*	*M3/4	*	*	*M3/4	*	*	*M3/4	*	*	*M3/4	*	*M3/4	*	*M3/4	*	*M3/4	*
=1	=1	=1	=1	=1	=1	=1	=1	=1	=1	=1	=1	=1	=1	=1	=1	=1	=1	=1	=1	=1	=1	=1	=1	=1	=1	=1	=1
*	*	*	*	*	*below	*	*	*	*	*	*	*	*	*	*	*	*	*	*	*	*	*	*	*	*	*	*
!	!	!LO:TX:b:rj:t=Chorus	!	!LO:TX:b:rj:t=Chorus	!	!LO:TX:a:rj:t=allegro moderato.	!	!LO:TX:a:rj:t=Allegro moderato	!	!	!LO:TX:a:t=8	!	!	!	!	!	!	!	!	!	!	!LO:TX:a:t=allegro mod&colon;	!	!	!	!	!
!LO:TX:a:t=Allegro moderato	!LO:DY:a:t=pia	!LO:TX:a:rj:t=allegro moderato	!	!LO:TX:a:rj:t=allegro mod	!LO:DY:rj	!	!LO:DY:a:t=p&colon;	! 	!	!	! 	!	!	!LO:TX:a:i:t=Allo&colon; moderato	!	!	!LO:TX:b:rj:t=Tutti	!	!	!LO:TX:a:t=Allegro moderato	!	!LO:TX:b:t=in Dis	!	!LO:TX:a:t=allegro moderata	!	!LO:TX:a:rj:t=allegro moderato	!
!LO:TX:t=P:problem:kolejność znaków E- BB- A-	!	!	!	!	!	!	!	!LO:TX:t=P:problem:kolejność znaków E- A- BB-	!	!	!	!	!	!LO:TX:t=P:problem:kolejność znaków B- e- a-	!	!	!	!	!	!	!	!	!	!	!	!	!
8E-\L	p	8b-\L	p	4G/	p	4e-/	p	0.r	.	.	0.r	.	.	0.r	.	.	0.r	.	.	4G/	p	4e-\	.	4g/	p	4ee-\	p
8E-\	.	8b-\	.	.	.	.	.	.	.	.	.	.	.	.	.	.	.	.	.	.	.	.	.	.	.	.	.
8E-\	.	8b-\	.	8.G/L	.	8.e-/L	.	.	.	.	.	.	.	.	.	.	.	.	.	4G/	.	4e-\	.	4g/	.	8.ee-\L	.
8E-\	.	8b-\	.	.	.	.	.	.	.	.	.	.	.	.	.	.	.	.	.	.	.	.	.	.	.	.	.
.	.	.	.	16B-/K	.	16f/K	.	.	.	.	.	.	.	.	.	.	.	.	.	.	.	.	.	.	.	16ff\K	.
8E-\	.	8b-\	.	8e-/	.	8g/	.	.	.	.	.	.	.	.	.	.	.	.	.	8B-/L	.	8g\L	.	4g/	.	8gg\	.
8E-\J	.	8b-\J	.	8G/J	.	8e-/J	.	.	.	.	.	.	.	.	.	.	.	.	.	8G/J	.	8e-\J	p	.	.	8ee-\J	.
=2	=2	=2	=2	=2	=2	=2	=2	=2	=2	=2	=2	=2	=2	=2	=2	=2	=2	=2	=2	=2	=2	=2	=2	=2	=2	=2	=2
*	*	*2\right	*	*	*	*	*	*	*	*	*	*	*	*	*	*	*	*	*	*	*	*	*	*	*	*	*
*tremolo	*	*tremolo	*	*	*	*	*	*	*	*	*	*	*	*	*	*	*	*	*	*	*	*	*	*	*	*	*
8BB-/L	.	8fn\L	.	4d/	.	8f/L	.	.	.	.	.	.	.	.	.	.	.	.	.	4B-/	.	4f\	.	4b-\	.	4ff\	.
8BB-/	.	8f\	.	.	.	8B-/	.	.	.	.	.	.	.	.	.	.	.	.	.	.	.	.	.	.	.	.	.
8BB-/	.	8f\	.	8.d/L	.	8.f/	.	.	.	.	.	.	.	.	.	.	.	.	.	4B-/	.	4f\	.	8.dd\L	.	8.ff\L	.
8BB-/	.	8f\	.	.	.	.	.	.	.	.	.	.	.	.	.	.	.	.	.	.	.	.	.	.	.	.	.
.	.	.	.	16e-/K	.	16g/K	.	.	.	.	.	.	.	.	.	.	.	.	.	.	.	.	.	16ee-\K	.	16gg\K	.
!	!	!	!	!	!	!	!	!	!	!	!	!	!	!	!	!	!	!	!	!LO:TX:t=P:problem:mixed beam	!	!	!	!	!	!	!
8BB-/	.	8f\	.	8f/	.	8a-/	.	.	.	.	.	.	.	.	.	.	.	.	.	8f\L	.	8a-\L	.	8ff\	.	8aa-\	.
8BB-/J	.	8f\J	.	8d/J	.	8f/J	.	.	.	.	.	.	.	.	.	.	.	.	.	8B-/J	.	8f\J	.	8dd\J	.	8ff\J	.
*Xtremolo	*	*Xtremolo	*	*	*	*	*	*	*	*	*	*	*	*	*	*	*	*	*	*	*	*	*	*	*	*	*
=3	=3	=3	=3	=3	=3	=3	=3	=3	=3	=3	=3	=3	=3	=3	=3	=3	=3	=3	=3	=3	=3	=3	=3	=3	=3	=3	=3
4E-\	.	4g\	.	4e-/	.	12g/L	.	.	.	.	.	.	.	.	.	.	.	.	.	4e-\	.	4g\	.	4ee-\	.	4gg\	.
.	.	.	.	.	.	12f/	.	.	.	.	.	.	.	.	.	.	.	.	.	.	.	.	.	.	.	.	.
.	.	.	.	.	.	12e-/J	.	.	.	.	.	.	.	.	.	.	.	.	.	.	.	.	.	.	.	.	.
4r	.	4r	.	4g/	.	4ee-\	.	.	.	.	.	.	.	.	.	.	.	.	.	4r	.	4r	.	4r	.	4r	.
4A-\	.	4e-\	.	4a-/	.	4cc\	.	.	.	.	.	.	.	.	.	.	.	.	.	4E-/	.	4e-\	.	4aa-\	.	4ccc\	.
=4	=4	=4	=4	=4	=4	=4	=4	=4	=4	=4	=4	=4	=4	=4	=4	=4	=4	=4	=4	=4	=4	=4	=4	=4	=4	=4	=4
.	.	.	.	.	.	8qqdd/	.	.	.	.	.	.	.	.	.	.	.	.	.	.	.	.	.	.	.	8qqddd/	.
4A-\	.	4e-\	.	4a-/	.	4cc\	.	.	.	.	.	.	.	.	.	.	.	.	.	4E-/	.	4e-\	.	4aa-\	.	4ccc\	.
4E-\	.	4e-\	.	4g/	.	4b-\	.	.	.	.	.	.	.	.	.	.	.	.	.	4E-/	.	4e-\	.	4gg\	.	4bb-\	.
4EE-/	.	4r	.	4r	f	4r	.	.	.	.	.	.	.	.	.	.	.	.	.	4r	.	4r	f	4r	.	4r	.
=5	=5	=5	=5	=5	=5	=5	=5	=5	=5	=5	=5	=5	=5	=5	=5	=5	=5	=5	=5	=5	=5	=5	=5	=5	=5	=5	=5
!	!	!	!	!	!	!	!LO:DY:a:t=f&colon;	!	!	!	!	!	!	!	!	!	!	!	!	!	!	!	!	!	!	!	!
4BB-/	.	8.a-\L	f	4f 4B-/	.	8.a-/L	f	0.r	.	.	0.r	.	.	0.r	.	.	0.r	.	.	4B-/	f	4f\	.	4dd\	f	4aa-\	f
.	.	16g\K	.	.	.	16g/K	.	.	.	.	.	.	.	.	.	.	.	.	.	.	.	.	.	.	.	.	.
4r	.	8.f\	.	4r	.	8.f/	.	.	.	.	.	.	.	.	.	.	.	.	.	4r	.	4r	.	4r	.	4r	.
.	.	16e-\K	.	.	.	16e-/K	.	.	.	.	.	.	.	.	.	.	.	.	.	.	.	.	.	.	.	.	.
4r	.	8.d\	.	4f/	.	8.d/	.	.	.	.	.	.	.	.	.	.	.	.	.	4B-/	.	4f\	.	4ff\	.	4aa-\	.
.	.	16c\Jk	.	.	.	16c/Jk	.	.	.	.	.	.	.	.	.	.	.	.	.	.	.	.	.	.	.	.	.
=6	=6	=6	=6	=6	=6	=6	=6	=6	=6	=6	=6	=6	=6	=6	=6	=6	=6	=6	=6	=6	=6	=6	=6	=6	=6	=6	=6
4BB-/	p	4B-/	.	4f/	.	4B-/	.	.	.	.	.	.	.	.	.	.	.	.	.	4B-/	.	4f\	.	4ff\	.	4bb-\	p
!	!	!	!	!	!	!	!LO:DY:a:t=p&colon;	!	!	!	!	!	!	!	!	!	!	!	!	!	!	!	!	!	!	!	!
4D\	.	4b-\	p	4d/	p	4a-/	p	.	.	.	.	.	.	.	.	.	.	.	.	4f\	p	4a-\	p	4ff\	p	4aa-\	.
4E-\	.	4b-\	.	4e-/	.	4g/	.	.	.	.	.	.	.	.	.	.	.	.	.	4e-\	.	4g\	.	4ee-\	.	4gg\	.
=7	=7	=7	=7	=7	=7	=7	=7	=7	=7	=7	=7	=7	=7	=7	=7	=7	=7	=7	=7	=7	=7	=7	=7	=7	=7	=7	=7
.	.	.	.	.	.	8qqg/	.	.	.	.	.	.	.	.	.	.	.	.	.	.	.	.	.	.	.	.	.
4A-\	.	4cc\	.	4A-/	.	8f/L	.	.	.	.	.	.	.	.	.	.	.	.	.	4B-/	.	4f\	.	4a-/	.	8ff\L	f
.	.	.	.	.	.	8g/	.	.	.	.	.	.	.	.	.	.	.	.	.	.	.	.	.	.	.	8gg\	.
!	!	!	!	!	!	!	!	!	!	!	!	!	!	!	!	!	!	!	!	!LO:TX:t=P:problem:mixed beam	!	!	!	!	!	!	!
4B-\	.	8cc\L	.	8c/L	.	8a-/	.	.	.	.	.	.	.	.	.	.	.	.	.	8f\L	.	8a-\L	.	8cc/L	.	8aa-\	.
.	.	8b-\	.	8A-/	.	8f/	.	.	.	.	.	.	.	.	.	.	.	.	.	8B-/	.	8f\	.	8a-/	.	8ff\	.
4BB-/	.	8b-\	.	8G/	.	8e-/	.	.	.	.	.	.	.	.	.	.	.	.	.	8G/	.	8e-\	.	8g/	.	8ee-\	.
.	.	8b-\J	.	8A-/J	.	8d/J	.	.	.	.	.	.	.	.	.	.	.	.	.	8B-/J	.	8f\J	.	8f/J	.	8dd\J	.
=8	=8	=8	=8	=8	=8	=8	=8	=8	=8	=8	=8	=8	=8	=8	=8	=8	=8	=8	=8	=8	=8	=8	=8	=8	=8	=8	=8
4E-\	.	4b-\	.	4A-/	.	4d/	.	.	.	.	.	.	.	.	.	.	.	.	.	4B-/	.	4f\	.	4f/	.	4dd\	.
.	.	.	.	.	.	8qqf/	.	.	.	.	.	.	.	.	.	.	.	.	.	.	.	.	.	.	.	.	.
4BB-/	.	4b-\	.	4G/	.	4e-/	.	.	.	.	.	.	.	.	.	.	.	.	.	4G/	.	4e-\	.	4g/	.	4ee-\	.
4EE-/	.	4r	.	4r	.	4r	.	.	.	.	.	.	.	.	.	.	.	.	.	4r	.	4r	.	4r	.	4r	.
!	!	!	!	!	!	!LO:LB:g=original	!	!	!	!	!	!	!	!	!	!	!	!	!	!	!	!	!	!	!	!	!
=9!|:	=9!|:	=9!|:	=9!|:	=9!|:	=9!|:	=9!|:	=9!|:	=9!|:	=9!|:	=9!|:	=9!|:	=9!|:	=9!|:	=9!|:	=9!|:	=9!|:	=9!|:	=9!|:	=9!|:	=9!|:	=9!|:	=9!|:	=9!|:	=9!|:	=9!|:	=9!|:	=9!|:
*>B	*>B	*>B	*>B	*>B	*>B	*>B	*>B	*>B	*>B	*>B	*>B	*>B	*>B	*>B	*>B	*>B	*>B	*>B	*>B	*>B	*>B	*>B	*>B	*>B	*>B	*>B	*>B
*2\right	*	*	*	*	*	*	*	*	*	*	*	*	*	*	*	*	*	*	*	*	*	*	*	*	*	*	*
*tremolo	*	*tremolo	*	*	*	*	*	*	*	*	*	*	*	*	*	*	*	*	*	*	*	*	*	*	*	*	*
!LO:TX:a:t=Tutti	!	!	!	!	!LO:DY:rj:t=fort	!	!LO:DY:a:t=for	!	!	!	!LO:TX:a:t=Tutti	!	!	!	!	!	!LO:TX:a:t=Allegro Moderato	!	!	!	!LO:DY:rj	!	!	!	!	!	!
8E-\L	.	8b-\L	f	8G/L	f	4e-/	f	4E-\	Cor	.	4B-\	Cor	.	4g\	Cor	.	4ee-\	cor	.	4G/	f	4e-\	.	4g/	f	4ee-\	f
8E-\	.	8b-\	.	8G/	.	.	.	.	.	.	.	.	.	.	.	.	.	.	.	.	.	.	.	.	.	.	.
8E-\	.	8b-\	.	8G/	.	8.e-/L	.	4E-\	mun-	.	4B-\	mun-	.	4g\	mun-	.	4ee-\	mun-	.	4G/	.	4e-\	.	4g/	.	8.ee-\L	.
8E-\	.	8b-\	.	8G/	.	.	.	.	.	.	.	.	.	.	.	.	.	.	.	.	.	.	.	.	.	.	.
.	.	.	.	.	.	16f/K	.	.	.	.	.	.	.	.	.	.	.	.	.	.	.	.	.	.	.	16ff\K	.
!	!	!	!	!	!	!	!	!LO:TX:a:t=Tutti	!	!	!LO:TX:a:t=Allegro Moderato	!	!	!	!	!	!	!	!	!LO:TX:t=P:problem:mixed beam	!	!	!	!	!	!	!
8E-\	.	8b-\	.	8G/	.	8g/	.	8E-\L	-dum	.	4B-\	-du(m)	.	4g\	-dum	.	8gg\L	-dum	.	8e-\L	.	8g\L	.	4g/	.	8gg\	.
8E-\J	.	8b-\J	.	8G/J	.	8e-/J	.	8G\J	.	.	.	.	.	.	.	.	8ee-\J	.	.	8G/J	.	8e-\J	.	.	.	8ee-\J	.
=10	=10	=10	=10	=10	=10	=10	=10	=10	=10	=10	=10	=10	=10	=10	=10	=10	=10	=10	=10	=10	=10	=10	=10	=10	=10	=10	=10
*	*	*	*	*	*	*	*	*2\right	*	*	*2\right	*	*	*2\right	*	*	*2\right	*	*	*	*	*	*	*	*	*	*
8BB-/L	.	8f\L	.	4d/	.	8.f/L	.	2B-\	Cre-	.	2B-\	Cre-	.	2d\	cre-	.	2ff\	cre-	.	4B-/	.	4f\	.	4b-\	.	4ff\	.
8BB-/	.	8f\	.	.	.	.	.	.	.	.	.	.	.	.	.	.	.	.	.	.	.	.	.	.	.	.	.
.	.	.	.	.	.	16B-/K	.	.	.	.	.	.	.	.	.	.	.	.	.	.	.	.	.	.	.	.	.
8BB-/	.	8f\	.	8.d/L	.	8.f/	.	.	.	.	.	.	.	.	.	.	.	.	.	4B-/	.	4f\	.	8.dd\L	.	8.ff\L	.
8BB-/	.	8f\	.	.	.	.	.	.	.	.	.	.	.	.	.	.	.	.	.	.	.	.	.	.	.	.	.
.	.	.	.	16e-/K	.	16g/K	.	.	.	.	.	.	.	.	.	.	.	.	.	.	.	.	.	16ee-\K	.	16gg\K	.
!	!	!	!	!	!	!	!	!	!	!	!	!	!	!	!	!	!	!	!	!LO:TX:t=P:problem:mixed beam	!	!	!	!	!	!	!
8BB-/	.	8f\	.	8f/	.	8a-/	.	4BB-/	.	.	4B-\	-a	.	4f\	-a	.	4a-\	-a	.	8f\L	.	8a-\L	.	8ff\	.	8aa-\	.
8BB-/J	.	8f\J	.	8d/J	.	8f/J	.	.	.	.	.	.	.	.	.	.	.	.	.	8B-/J	.	8f\J	.	8dd\J	.	8ff\J	.
*Xtremolo	*	*Xtremolo	*	*	*	*	*	*	*	*	*	*	*	*	*	*	*	*	*	*	*	*	*	*	*	*	*
!	!	!LO:LB:g=original	!	!LO:LB:g=original	!	!	!	!	!	!	!	!	!	!	!	!	!	!	!	!LO:LB:g=original	!	!	!	!	!	!LO:LB:g=original	!
=11	=11	=11	=11	=11	=11	=11	=11	=11	=11	=11	=11	=11	=11	=11	=11	=11	=11	=11	=11	=11	=11	=11	=11	=11	=11	=11	=11
.	.	.	.	.	.	8qqa-/	.	.	.	.	.	.	.	.	.	.	.	.	.	.	.	.	.	.	.	.	.
*	*	*	*	*	*	*Xtuplet	*	*	*	*	*	*	*	*	*	*	*	*	*	*	*	*	*	*	*	*	*
4E-\	.	4b-\	.	4e-/	.	12g/L	.	4G\	-a	.	2B-\	in	.	(4e-\	in	.	(4g\	in	.	4e-\	.	4g\	.	4ee-\	.	4gg\	.
.	.	.	.	.	.	12f/	.	.	.	.	.	.	.	.	.	.	.	.	.	.	.	.	.	.	.	.	.
.	.	.	.	.	.	12e-/J	.	.	.	.	.	.	.	.	.	.	.	.	.	.	.	.	.	.	.	.	.
4r	.	4e-\	.	4g/	.	4ee-\	.	4r	.	.	.	.	.	4g\)	.	.	4ee-\)	.	.	4r	.	4r	.	4r	.	4r	.
4A-\	.	4e-\	.	4a-/	.	4cc\	.	4A-\	me	.	4e-\	me	.	4a-\	me	.	4cc\	me	.	4E-/	.	4e-\	.	4aa-\	.	4ccc\	.
!	!	!	!	!	!	!	!	!	!	!	!	!	!	!	!	!	!	!	!	!	!	!	!	!LO:LB:g=original	!	!	!
=12	=12	=12	=12	=12	=12	=12	=12	=12	=12	=12	=12	=12	=12	=12	=12	=12	=12	=12	=12	=12	=12	=12	=12	=12	=12	=12	=12
4A-\	.	4e-\	.	4a-/	.	4cc\	.	4A-\	De-	.	4e-\	De-	.	4a-\	De-	.	4cc\	De-	.	4E-/	.	4e-\	.	4aa-\	.	4ccc\	.
4E-\	.	4b-\	.	4g/	.	4b-\	.	4E-\	-us	.	4e-\	-us	.	4g\	-us	.	4b-\	-us	.	4E-/	.	4e-\	.	4gg\	.	4bb-\	.
4r	.	4r	.	4r	.	4r	.	4r	.	.	4r	.	.	4r	.	.	4r	.	.	4r	.	4r	.	4r	.	4r	.
!LO:LB:g=original	!	!	!	!	!	!	!	!	!	!	!	!	!	!	!	!	!	!	!	!	!	!	!	!	!	!	!
=13	=13	=13	=13	=13	=13	=13	=13	=13	=13	=13	=13	=13	=13	=13	=13	=13	=13	=13	=13	=13	=13	=13	=13	=13	=13	=13	=13
4BB-/	.	8.a-\L	.	4f 4B-/	.	8.a-/L	.	4BB-/	Cor	.	4d\	Cor	.	4f\	cor	.	4b-\	Cor	.	4B-/	.	4f\	.	4dd\	.	4aa-\	.
.	.	16g\K	.	.	.	16g/K	.	.	.	.	.	.	.	.	.	.	.	.	.	.	.	.	.	.	.	.	.
4r	.	8.f\	.	4r	.	8.f/	.	4r	.	.	4r	.	.	4r	.	.	4r	.	.	4r	.	4r	.	4r	.	4r	.
.	.	16e-\K	.	.	.	16e-/K	.	.	.	.	.	.	.	.	.	.	.	.	.	.	.	.	.	.	.	.	.
4r	.	8.d\	.	4f/	.	8.d/	.	4r	.	.	4r	.	.	4r	.	.	4r	.	.	4B-/	.	4f\	.	4ff\	.	4aa-\	.
.	.	16c\Jk	.	.	.	16c/Jk	.	.	.	.	.	.	.	.	.	.	.	.	.	.	.	.	.	.	.	.	.
!	!	!	!	!	!	!	!	!	!	!	!	!	!	!	!	!	!	!	!	!	!	!LO:LB:g=original	!	!	!	!	!
=14	=14	=14	=14	=14	=14	=14	=14	=14	=14	=14	=14	=14	=14	=14	=14	=14	=14	=14	=14	=14	=14	=14	=14	=14	=14	=14	=14
4BB-/	.	4d\	.	4f/	.	4B-/	.	4r	.	.	4r	.	.	4r	.	.	4r	.	.	4B-/	.	4f\	.	4ff\	.	4bb-\	.
4D/	.	4f\	.	4d/	.	4a-/	.	(4BB-/	Cor	.	(4d\	Cor	.	(4f\	cor	.	(4a-\	cor	.	4f\	.	4a-\	.	4ff\	.	4aa-\	.
4E-\	.	4e-\	.	4e-/	.	4g/	.	4E-\)	.	.	4B-\)	.	.	4e-\)	.	.	4g\)	.	.	4e-\	.	4g\	.	4ee-\	.	4gg\	.
=15	=15	=15	=15	=15	=15	=15	=15	=15	=15	=15	=15	=15	=15	=15	=15	=15	=15	=15	=15	=15	=15	=15	=15	=15	=15	=15	=15
2A-\	.	4a-\	.	4A-/	.	4f/	.	2F\	mun-	.	2A-\	mun-	.	2c\	mun-	.	4f/	mun-	.	4f\	.	4a-\	.	4cc\	.	4ff\	.
.	.	4a-\	.	4c/	.	8cc\L|	.	.	.	.	.	.	.	.	.	.	8cc\L	.	.	4r	.	4r	.	4a-\	.	8ccc\L	.
.	.	.	.	.	.	(8a-\	.	.	.	.	.	.	.	.	.	.	8a-\J	.	.	.	.	.	.	.	.	(8aa-\	.
4An\	.	4an\	.	4c/	.	8g\	.	4An\	-dum	.	4An\	-dum	.	4c\	-dum	.	8g\L	-dum	.	4f\	.	4aX\	.	4cc\	.	8gg\	.
.	.	.	.	.	.	8f\J)	.	.	.	.	.	.	.	.	.	.	8f\J	.	.	.	.	.	.	.	.	8ff\J)	.
=16	=16	=16	=16	=16	=16	=16	=16	=16	=16	=16	=16	=16	=16	=16	=16	=16	=16	=16	=16	=16	=16	=16	=16	=16	=16	=16	=16
4B-\	.	4b-\	.	4c/	.	4e-/	.	4B-\	mun-	.	4B-\	mun-	.	4c/	cre-	.	4e-/	cre-	.	4B-/	.	4b-\	.	4cc\	.	4ee-\	.
4F\	.	4b-\	.	4B-/	.	4d/	.	4BB-/	-dum	.	4B-\	-du(m)	.	4B-/	-a	.	4d/	-a	.	4B-/	.	4b-\	.	4b-\	.	4dd\	.
4BB-/	.	4r	.	4r	.	4r	.	4r	.	.	4r	.	.	4r	.	.	4r	.	.	4r	.	4r	.	4r	.	4r	.
!	!	!	!	!	!	!	!	!LO:LB:g=original	!	!	!	!	!	!	!	!	!LO:LB:g=original	!	!	!	!	!	!	!	!	!	!
=17	=17	=17	=17	=17	=17	=17	=17	=17	=17	=17	=17	=17	=17	=17	=17	=17	=17	=17	=17	=17	=17	=17	=17	=17	=17	=17	=17
*	*	*tremolo	*	*	*	*	*	*	*	*	*	*	*	*	*	*	*	*	*	*	*	*	*	*2\right	*	*2\right	*
8E-\L	.	8b-\L	.	4e-/	.	4g/	.	2E-\	Cre-	.	2B-\	Cre-	.	2e-\	cre-	.	2g\	cre-	.	4e-\	.	4g\	.	2ee-\	.	2gg\	.
8E-\	.	8b-\	.	.	.	.	.	.	.	.	.	.	.	.	.	.	.	.	.	.	.	.	.	.	.	.	.
8E-\	.	8b-\	.	4e-/	.	8g/L	.	.	.	.	.	.	.	.	.	.	.	.	.	4r	.	4r	.	.	.	.	.
8E-\	.	8b-\J	.	.	.	8b-/	.	.	.	.	.	.	.	.	.	.	.	.	.	.	.	.	.	.	.	.	.
*	*	*Xtremolo	*	*	*	*	*	*	*	*	*	*	*	*	*	*	*	*	*	*	*	*	*	*	*	*	*
8C\	.	8f\L	.	4c/	.	8an/	.	4C/	-a	.	4f\	-a	.	4e-\	-a	.	4an\	-a	.	4r	.	4r	.	4ee-\	.	4aan\	.
8C\J	.	8f\J	.	.	.	8cc/J	.	.	.	.	.	.	.	.	.	.	.	.	.	.	.	.	.	.	.	.	.
!	!	!	!	!	!	!	!	!	!	!	!	!	!	!LO:LB:g=original	!	!	!	!	!	!	!	!	!	!	!	!	!
=18	=18	=18	=18	=18	=18	=18	=18	=18	=18	=18	=18	=18	=18	=18	=18	=18	=18	=18	=18	=18	=18	=18	=18	=18	=18	=18	=18
*	*	*tremolo	*	*	*	*	*	*	*ij	*	*	*ij	*	*	*	*	*	*	*	*	*	*	*	*	*	*	*
!	!	!	!	!LO:TX:t=P:problem:mixed beam	!	!	!	!	!	!	!	!	!	!	!	!	!	!	!	!LO:TX:a:t=2	!	!LO:TX:a:t=2	!	!	!	!	!
8D\L	.	8f\L	.	8d/L	.	8b-\L	.	(4D/	Cre-	.	2f\	Cre-	.	(4d\	in	.	(4b-\	cre-	.	1.r	.	1.r	.	4dd\	.	4bb-\	.
8D\	.	8f\	.	8b-\	.	8dd\	.	.	.	.	.	.	.	.	.	.	.	.	.	.	.	.	.	.	.	.	.
8An\	.	8f\	.	8an\	.	8cc\	.	4AAn/)	.	.	.	.	.	4cc\)	.	.	4ee-\)	.	.	.	.	.	.	4aan\	.	4ccc\	.
8A\	.	8f\J	.	8cc\J	.	8ee-\J	.	.	.	.	.	.	.	.	.	.	.	.	.	.	.	.	.	.	.	.	.
*	*	*Xtremolo	*	*	*	*	*	*	*	*	*	*	*	*	*	*	*	*	*	*	*	*	*	*	*	*	*
8B-\	.	4f\	.	4b-\	.	4dd\	.	4BB-/	-a	.	4f\	-a	.	4b-\	me	.	4dd\	-a	.	.	.	.	.	4bb-\	.	4ddd\	.
*	*	*	*	*	*	*	*	*	*Xij	*	*	*Xij	*	*	*	*	*	*	*	*	*	*	*	*	*	*	*
8B-\J	.	.	.	.	.	.	.	.	.	.	.	.	.	.	.	.	.	.	.	.	.	.	.	.	.	.	.
!	!	!	!	!	!	!LO:LB:g=original	!	!	!	!	!	!	!	!	!	!	!	!	!	!	!	!	!	!	!	!	!
=19	=19	=19	=19	=19	=19	=19	=19	=19	=19	=19	=19	=19	=19	=19	=19	=19	=19	=19	=19	=19	=19	=19	=19	=19	=19	=19	=19
8B-\L	.	4f\	.	4b-\	.	4dd\	.	(4BB-/	in	.	2f\	in	.	(4b-\	De-	.	(4dd\	in	.	.	.	.	.	4bb-\	.	4ddd\	.
8B-\	.	.	.	.	.	.	.	.	.	.	.	.	.	.	.	.	.	.	.	.	.	.	.	.	.	.	.
8E-\	.	4f\	.	4g/	.	4cc\	.	4E-\)	.	.	.	.	.	4an\)	.	.	4cc\)	.	.	.	.	.	.	4aa-\	.	4ccc\	.
8E-\	.	.	.	.	.	.	.	.	.	.	.	.	.	.	.	.	.	.	.	.	.	.	.	.	.	.	.
8En\	.	4en\	.	4g/	.	4b-\	.	4En\	me	.	4en\	me	.	4g\	-us	.	4b-\	me	.	.	.	.	.	4gg\	.	4bb-\	.
8E\J	.	.	.	.	.	.	.	.	.	.	.	.	.	.	.	.	.	.	.	.	.	.	.	.	.	.	.
=20	=20	=20	=20	=20	=20	=20	=20	=20	=20	=20	=20	=20	=20	=20	=20	=20	=20	=20	=20	=20	=20	=20	=20	=20	=20	=20	=20
*	*	*tremolo	*	*	*	*	*	*	*	*	*	*	*	*	*	*	*	*	*	*2\right	*	*2\right	*	*	*	*	*
!	!	!	!	!	!	!LO:SIC:v:s=an/L	!	!	!	!	!	!	!	!	!	!	!	!	!	!	!	!	!	!	!	!	!
!	!	!	!	!	!	!LO:TX:t=P:problem:mixed beam	!	!	!	!	!	!	!	!	!	!	!	!	!	!	!	!	!	!	!	!	!
4F\	.	8f\L	.	8f/L	.	8a-/L	.	2F\	De-	.	(4f\	in-	.	8f\L	De-	.	8a-\L	De-	.	2.f\	.	2.f\	.	4ff\	.	4aa-\	.
.	.	8f\	.	8a-/J	.	8ff\J	.	.	.	.	.	.	.	8a-\J	.	.	8ff\J	.	.	.	.	.	.	.	.	.	.
4FF/	.	8f\	.	4a-/	.	4ff\	.	.	.	.	4d\)	.	.	4a-\	-us	.	4ff\	-us	.	.	.	.	.	4b-\	.	4ff\	.
.	.	8f\	.	.	.	.	.	.	.	.	.	.	.	.	.	.	.	.	.	.	.	.	.	.	.	.	.
!	!	!	!	!	!	!	!	!	!	!	!LO:LB:g=original	!	!	!	!	!	!	!	!	!	!	!	!	!	!	!	!
4r	.	8f\	.	4r	.	4r	.	4G\	-us	.	4B-\	-me	.	4r	.	.	4r	.	.	.	.	.	.	4g/	.	4dd\	.
.	.	8f\J	.	.	.	.	.	.	.	.	.	.	.	.	.	.	.	.	.	.	.	.	.	.	.	.	.
=21	=21	=21	=21	=21	=21	=21	=21	=21	=21	=21	=21	=21	=21	=21	=21	=21	=21	=21	=21	=21	=21	=21	=21	=21	=21	=21	=21
*	*	*	*	*	*	*	*	*	*ij	*	*	*	*	*	*	*	*	*	*	*	*	*	*	*	*	*	*
!	!	!	!	!	!	!	!	!	!	!	!	!	!	!	!	!	!	!	!	!	!	!	!	!	!	!LO:TX:t=P:problem:mixed beam	!
4F\	.	8f\L	.	4a-/	.	4cc\	.	8F\L	De-	.	8A-\L	De-	.	(4a-\|	cor-	.	4cc\	cor	.	2.f\	.	2.fTT\	.	8f/L	.	8a-/L	.
.	.	8f\	.	.	.	.	.	8An\J	.	.	8f\J	.	.	.	.	.	.	.	.	.	.	.	.	8a-/J	.	8ff\J	.
4BB-/	.	8f\	.	4b-/	.	4dd\	.	4A\	-us	.	4f\	-us	.	4b-\)|	-mun-	.	4dd\	mun-	.	.	.	.	.	4a-/	.	4ff\	.
*	*	*	*	*	*	*	*	*	*Xij	*	*	*	*	*	*	*	*	*	*	*	*	*	*	*	*	*	*
.	.	8f\	.	.	.	.	.	.	.	.	.	.	.	.	.	.	.	.	.	.	.	.	.	.	.	.	.
4C/	.	8f\	.	4g/	.	4b-\	.	4r	.	.	4r	.	.	4g\	-dum	.	4b-\	-dum	.	.	.	.	.	4r	.	4r	.
.	.	8f\J	.	.	.	.	.	.	.	.	.	.	.	.	.	.	.	.	.	.	.	.	.	.	.	.	.
=22	=22	=22	=22	=22	=22	=22	=22	=22	=22	=22	=22	=22	=22	=22	=22	=22	=22	=22	=22	=22	=22	=22	=22	=22	=22	=22	=22
!	!	!	!	!	!	!LO:SIC:v:s=an/L	!	!	!	!	!	!	!	!	!	!	!	!	!	!	!	!	!	!	!	!	!
!	!	!	!	!	!	!LO:TX:t=P:problem:mixed beam	!LO:DY:a:t=p&colon;	!	!	!	!	!	!	!	!	!	!	!	!	!	!	!	!	!	!	!	!
4F\	p	8f\L	.	8f/L	p	8a-/L	p	4A-\	Cor	.	4c\	Cor-	.	8f\L	cre-	.	8a-\L	cre-	.	2.f\	.	2.fTTT\	.	4a-/	p	4cc\	p
.	.	8f\	.	8a-/J	.	8ff\J	.	.	.	.	.	.	.	8a-\J	.	.	8ff\J	.	.	.	.	.	.	.	.	.	.
4FF/	.	8f\	.	4a-/	.	4ff\	.	4B-\	mun-	.	4d\	-mun-	.	4a-\	-a	.	4ff\	-a	.	.	.	.	.	4b-/	.	4dd\	.
.	.	8f\	.	.	.	.	.	.	.	.	.	.	.	.	.	.	.	.	.	.	.	.	.	.	.	.	.
4r	.	8f\	.	4r	.	4r	.	4G\	-dum	.	4B-\	-dum	.	4r	.	.	4r	.	.	.	.	.	.	4g/	.	4b-\	.
.	.	8f\J	.	.	.	.	.	.	.	.	.	.	.	.	.	.	.	.	.	.	.	.	.	.	.	.	.
=23	=23	=23	=23	=23	=23	=23	=23	=23	=23	=23	=23	=23	=23	=23	=23	=23	=23	=23	=23	=23	=23	=23	=23	=23	=23	=23	=23
!	!	!	!	!	!	!	!	!	!	!	!	!	!	!	!	!	!	!	!	!	!	!	!	!	!	!LO:TX:t=P:problem:mixed beam	!
4F\	.	8f\L	.	4a-/	.	4cc\	.	8F\L	Cre-	.	8A-\L	cre-	.	(4a-\	in	.	(4cc\	in	.	2.f\	.	2.fTTT\	.	8f/L	.	8a-/L	.
.	.	8f\	.	.	.	.	.	8A-\J	.	.	8f\J	.	.	.	.	.	.	.	.	.	.	.	.	8a-/J	.	8ff\J	.
4BB-/	.	8f\	.	4b-/	.	4dd\	.	4A-\	-a	.	4f\	-a	.	4b-\)	.	.	4dd\)	.	.	.	.	.	.	4a-/	.	4ff\	.
.	.	8f\	.	.	.	.	.	.	.	.	.	.	.	.	.	.	.	.	.	.	.	.	.	.	.	.	.
4C/	.	8f\	.	4g/	.	4b-\	.	4r	.	.	4r	.	.	4g\	me	.	4b-\	me	.	.	.	.	.	4r	.	4r	.
.	.	8f\J	.	.	.	.	.	.	.	.	.	.	.	.	.	.	.	.	.	.	.	.	.	.	.	.	.
*	*	*Xtremolo	*	*	*	*	*	*	*	*	*	*	*	*	*	*	*	*	*	*	*	*	*	*	*	*	*
!	!	!LO:LB:g=original	!	!	!	!	!	!	!	!	!	!	!	!	!	!	!	!	!	!	!	!	!	!	!	!LO:LB:g=original	!
=24	=24	=24	=24	=24	=24	=24	=24	=24	=24	=24	=24	=24	=24	=24	=24	=24	=24	=24	=24	=24	=24	=24	=24	=24	=24	=24	=24
!	!	!	!	!	!	!LO:SIC:v:s=an/L	!	!	!	!	!	!	!	!	!	!	!	!	!	!	!	!	!	!	!	!	!
!	!	!	!	!LO:TX:t=P:problem:mixed beam	!	!LO:TX:t=P:problem:mixed beam	!	!	!	!	!	!	!	!	!	!	!	!	!	!	!	!	!	!	!	!	!
4F\	.	8f\L	.	8f/L	.	8a-/L	.	4F\	De-	.	8c\L	De-	.	8f\L	De-	.	8a-\L	De-	.	4f\|	.	4f\|	.	8a-\L	.	8cc\L	.
.	.	8f\J	.	8cc\J	.	8ee-\J	.	.	.	.	8d\J	.	.	8cc\J	.	.	8ee-\J	.	.	.	.	.	.	8b-\J	.	8dd\J	.
4FF/	.	4f\	.	4cc\	.	4ee-\	.	4FF/	-us	.	4e-X\	-us	.	4cc\	-us	.	4ee-\	-us	.	4f\|	.	4f\|	.	4cc\	.	4ee-\	.
4r	.	4r	.	4r	.	8r	.	4r	.	.	4r	.	.	4r	.	.	4r	.	.	4r	.	4r	.	4r	.	4r	.
!	!	!	!	!	!	!	!LO:DY:a:t=f&colon;	!	!	!	!	!	!	!	!	!	!	!	!	!	!	!	!	!	!	!	!
.	.	.	.	.	.	16cc\LL	f	.	.	.	.	.	.	.	.	.	.	.	.	.	.	.	.	.	.	.	.
.	.	.	.	.	.	16dd\JJ	.	.	.	.	.	.	.	.	.	.	.	.	.	.	.	.	.	.	.	.	.
!LO:LB:g=original	!	!	!	!LO:LB:g=original	!	!	!	!	!	!	!	!	!	!	!	!	!	!	!	!	!	!	!	!LO:LB:g=original	!	!	!
=25	=25	=25	=25	=25	=25	=25	=25	=25	=25	=25	=25	=25	=25	=25	=25	=25	=25	=25	=25	=25	=25	=25	=25	=25	=25	=25	=25
.	.	.	.	.	.	.	.	.	.	.	.	.	.	.	.	.	.	.	.	.	.	.	.	.	.	16qqff/	.
8F\L	f	8An/L	.	(8e-/L	f	8ee-\L	.	2.F\	Et	.	2.c\	Et	.	2.a-\	et	.	2.ee-\	et	.	4f\	.	4f\	.	4cc\	f	4ee-\	f
8F\	.	8c/	.	8f/)	.	(8cc\	.	.	.	.	.	.	.	.	.	.	.	.	.	.	.	.	.	.	.	.	.
8F\	.	8A/	.	(8e-/	.	8a-\	.	.	.	.	.	.	.	.	.	.	.	.	.	4r	.	4r	.	8r	.	8r	.
8F\	.	8c/	.	8f/)	.	8f\J)	.	.	.	.	.	.	.	.	.	.	.	.	.	.	.	.	.	8cc\L	.	8ee-\L	.
8F\	.	8A/	.	(8e-/	.	(8e-/L	.	.	.	.	.	.	.	.	.	.	.	.	.	4r	.	4r	.	8a-\	.	8cc\	.
8F\J	.	8c/J	.	8f/J)	.	8c/J)	.	.	.	.	.	.	.	.	.	.	.	.	.	.	.	.	.	8cc\J	.	8ee-\J	.
!	!	!	!	!	!	!	!	!	!	!	!	!	!	!	!	!	!LO:LB:g=original	!	!	!	!	!	!	!	!	!	!
=26	=26	=26	=26	=26	=26	=26	=26	=26	=26	=26	=26	=26	=26	=26	=26	=26	=26	=26	=26	=26	=26	=26	=26	=26	=26	=26	=26
!	!	!	!	!	!	!	!LO:DY:a:t=p&colon;	!	!	!	!	!	!	!	!	!	!	!	!	!	!	!	!LO:DY:rj	!	!	!	!
8B-\L	.	(8B-/L	p	(8d/L	p	8B-/L	p	4.BB-/	Spi-	.	4.B-\	Spi-	.	4.f\	Spi-	.	4.dd\	Spi-	.	4B-/	p	4f\	p	4b-\	p	4dd\	p
8B-\	.	8d/)	.	8f/)	.	8d/	.	.	.	.	.	.	.	.	.	.	.	.	.	.	.	.	.	.	.	.	.
8F\	.	(8B-/	.	(8d/	.	8f/	.	.	.	.	.	.	.	.	.	.	.	.	.	4r	.	4r	.	8r	.	8r	.
8F\	.	8d/)	.	8f/)	.	8b-/J	.	8BB-/	-ri-	.	8B-\	-ri-	.	8f\	-ri-	.	8dd\	-ri-	.	.	.	.	.	8dd\L	.	8ff\L	.
8BB-\	.	(8B-/	.	(8d/	.	8dd\L|	.	4BB-/	-tum	.	4B-\	-tum	.	4f\	-tum	.	4dd\	-tum	.	4r	.	4r	.	8cc\	.	8ee-\	.
8BB-\J	.	8d/J)	.	8f/J)	.	(16ff\L	.	.	.	.	.	.	.	.	.	.	.	.	.	.	.	.	.	8b-\J	.	8dd\J	.
.	.	.	.	.	.	16dd\JJ)	.	.	.	.	.	.	.	.	.	.	.	.	.	.	.	.	.	.	.	.	.
!	!	!	!	!	!	!	!	!	!	!	!	!	!	!LO:PB:g=original	!	!	!	!	!	!	!	!	!	!	!	!	!
=27	=27	=27	=27	=27	=27	=27	=27	=27	=27	=27	=27	=27	=27	=27	=27	=27	=27	=27	=27	=27	=27	=27	=27	=27	=27	=27	=27
!	!	!	!	!	!LO:DY:rj	!	!LO:DY:a:t=f&colon;	!	!	!	!	!	!	!	!	!	!	!	!	!	!LO:DY:rj	!	!LO:DY:rj	!	!	!	!
8F\L	.	(8An/L	f	(8e-/L	f	8ee-\L	f	2.F\	rec-	.	2.c\	rec-	.	2.a-\	rec-	.	2.ee-\	rec-	.	2.f\	f	2.f\	f	4cc\	f	4ee-\	f
8F\	.	8c/)	.	8g/)	.	(8cc\	.	.	.	.	.	.	.	.	.	.	.	.	.	.	.	.	.	.	.	.	.
8A-\	.	(8A/	.	(8e-/	.	8a-\	.	.	.	.	.	.	.	.	.	.	.	.	.	.	.	.	.	8r	.	8r	.
8A-\	.	8c/)	.	8g/)	.	8f\J)	.	.	.	.	.	.	.	.	.	.	.	.	.	.	.	.	.	8cc\L	.	8ee-\L	.
8F\	.	(8A/	.	(8e-/	.	(8e-/L	.	.	.	.	.	.	.	.	.	.	.	.	.	.	.	.	.	8a-\	.	8cc\	.
8F\J	.	8c/J)	.	8g/J)	.	8c/J)	.	.	.	.	.	.	.	.	.	.	.	.	.	.	.	.	.	8cc\J	.	8ee-\J	.
!	!	!	!	!	!	!	!	!	!	!	!	!	!	!	!	!	!	!	!	!LO:LB:g=original	!	!	!	!	!	!	!
=28	=28	=28	=28	=28	=28	=28	=28	=28	=28	=28	=28	=28	=28	=28	=28	=28	=28	=28	=28	=28	=28	=28	=28	=28	=28	=28	=28
!	!	!	!	!	!LO:DY:rj	!	!LO:DY:a:t=p&colon;	!	!	!	!	!	!	!	!	!	!	!	!	!	!	!	!	!	!	!	!
8B-\L	.	(8B-/L	p	(8d/L	p	8B-/L	p	2.BB-/	-tum	.	2.B-\	-tum	.	2.f\	-tum	.	2.dd\	-tum	.	2.B-/	p	2.f\	p	4b-\	p	4dd\	p
8B-\	.	8d/)	.	8f/)	.	(8d/	.	.	.	.	.	.	.	.	.	.	.	.	.	.	.	.	.	.	.	.	.
8F\	.	(8B-/	.	(8d/	.	8f/	.	.	.	.	.	.	.	.	.	.	.	.	.	.	.	.	.	8r	.	8r	.
8F\	.	8d/)	.	8f/)	.	8b-/J)	.	.	.	.	.	.	.	.	.	.	.	.	.	.	.	.	.	8b-\L	.	8dd\L	.
8BB-\	.	(8B-/	.	(8d/	.	(8dd\L	.	.	.	.	.	.	.	.	.	.	.	.	.	.	.	.	.	8cc\	.	8ee-\	.
8BB-\J	.	8d/J)	.	8f/J)	.	8ff\J)	.	.	.	.	.	.	.	.	.	.	.	.	.	.	.	.	.	8dd\J	.	8ff\J	.
!	!	!	!	!	!	!LO:LB:g=original	!	!LO:LB:g=original	!	!	!	!	!	!	!	!	!	!	!	!	!	!	!	!	!	!	!
=29	=29	=29	=29	=29	=29	=29	=29	=29	=29	=29	=29	=29	=29	=29	=29	=29	=29	=29	=29	=29	=29	=29	=29	=29	=29	=29	=29
!	!	!	!	!	!LO:DY:rj	!	!LO:DY:b:rj:t=f&colon;	!	!	!	!	!	!	!	!	!	!	!	!	!	!	!	!	!	!	!	!
8E-\L	.	(8B-/L	f	(8e-/L	f	(8gg\L	f	4E-\	in-	.	4e-\	in-	.	2b-\	in-	.	4gg\|	in-	.	4e-\	f	4g\	f	4ee-\	f	4gg\	f
8E-\	.	8e-/)	.	8g/)	.	8b-\)	.	.	.	.	.	.	.	.	.	.	.	.	.	.	.	.	.	.	.	.	.
8G\	.	(8B-/	.	(8e-/	.	(8ee-\	.	(4G\	-no-	.	(4c\	-no-	.	.	.	.	(4ee-\	-no-	.	4G/	.	4e-\	.	4gg\	.	4bb-\	.
8G\	.	8e-/)	.	8g/)	.	8b-\)	.	.	.	.	.	.	.	.	.	.	.	.	.	.	.	.	.	.	.	.	.
8E-\	.	(8B-/	.	(8e-/	.	(8gg\	.	4E-\)	.	.	4f\)	.	.	4b-\	-no-	.	4gg\)	.	.	4e-\	.	4g\	.	4ee-\	.	4gg\	.
8E-\J	.	8e-/J)	.	8g/J)	.	8b-\J)	.	.	.	.	.	.	.	.	.	.	.	.	.	.	.	.	.	.	.	.	.
=30	=30	=30	=30	=30	=30	=30	=30	=30	=30	=30	=30	=30	=30	=30	=30	=30	=30	=30	=30	=30	=30	=30	=30	=30	=30	=30	=30
!	!	!	!	!	!LO:DY:rj	!	!LO:DY:b:rj:t=p&colon;	!	!	!	!	!	!	!	!	!	!	!	!	!	!	!	!	!	!	!	!
4BB-/	.	(8B-/L	p	(8d/L	p	8ff\L	p	4BB-/	-va	.	4d\	-va	.	4b-\	-va	.	4ff\	-va	.	4B-/	p	4f\	p	4dd\	p	4ff\	p
.	.	8d/)	.	8f/)	.	(8b-\	.	.	.	.	.	.	.	.	.	.	.	.	.	.	.	.	.	.	.	.	.
8r	.	(8B-/	.	(8c/	.	8a-\)	.	4r	.	.	4r	.	.	4r	.	.	4r	.	.	4r	.	4r	.	8r	.	8r	.
8BB-/L	.	8d/)	.	8e-/)	.	(8ee-\	.	.	.	.	.	.	.	.	.	.	.	.	.	.	.	.	.	8cc\L	.	8ee-\L	.
8C/	.	(8B-/	.	(8B-/	.	(8dd\)	.	8BB-/	in	.	8B-\	in	.	8b-\	in	.	8dd'\	in	.	4B-/	.	4f\	f	8b-\	.	8dd\	.
8D/J	.	8d/J)	.	8d/J)	.	8bb-\J)	.	8BB-/	Viſ-	.	8d\	vis-	.	8b-\	vis-	.	8ff'\	vi-	.	.	.	.	.	8dd\J	.	8ff\J	.
=31	=31	=31	=31	=31	=31	=31	=31	=31	=31	=31	=31	=31	=31	=31	=31	=31	=31	=31	=31	=31	=31	=31	=31	=31	=31	=31	=31
!	!	!	!	!	!	!	!LO:DY:b:rj:t=f&colon;	!	!	!	!	!	!	!	!	!	!	!	!	!	!LO:DY:rj	!	!	!	!	!	!
8E-\L	.	(8B-/L	f	(8e-/L	f	(8gg\L	f	(4E-\	-se-	.	(4e-\	-ce-	.	2b-\	-ce-	.	(4gg\	-sce-	.	4e-\	f	4g\	.	4ee-\	f	4gg\	f
8E-\	.	8e-/)	.	8g/)	.	8b-\)	.	.	.	.	.	.	.	.	.	.	.	.	.	.	.	.	.	.	.	.	.
8G\	.	(8B-/	.	(8e-/	.	(8ee-\	.	4G\)	.	.	4B-\)	.	.	.	.	.	4ee-\)	.	.	4G/	.	4e-\	.	4gg\	.	4bb-\	.
8G\	.	8e-/)	.	8g/)	.	8b-\)	.	.	.	.	.	.	.	.	.	.	.	.	.	.	.	.	.	.	.	.	.
8E-\	.	(8B-/	.	(8e-/	.	(8gg\	.	4E-\	-ri-	.	4e-\	-ri-	.	4b-\	-ri-	.	4gg\	-ri-	.	4e-\	.	4g\	.	4ee-\	.	4gg\	.
8E-\J	.	8e-/J)	.	8g/J)	.	8b-\J)	.	.	.	.	.	.	.	.	.	.	.	.	.	.	.	.	.	.	.	.	.
!	!	!	!	!	!	!	!	!	!	!	!	!	!	!	!	!	!	!	!	!	!	!LO:LB:g=original	!	!	!	!	!
=32	=32	=32	=32	=32	=32	=32	=32	=32	=32	=32	=32	=32	=32	=32	=32	=32	=32	=32	=32	=32	=32	=32	=32	=32	=32	=32	=32
!	!	!	!	!	!LO:DY:rj	!	!LO:DY:b:rj:t=p&colon;	!	!	!	!	!	!	!	!	!	!	!	!	!	!	!	!	!	!	!	!
4BB-/	.	(8B-/L	p	(8d/L	p	(8ff\L	p	4BB-/	-bus	.	4d\	-bus	.	4b-\	-bus	.	4ff\	-bus	.	4B-/	p	4f\	p	4dd\	p	4ff\	p
.	.	8d/)	.	8f/)	.	8b-\)	.	.	.	.	.	.	.	.	.	.	.	.	.	.	.	.	.	.	.	.	.
8r	.	(8A-/	.	(8c/	.	8a-\	.	4r	.	.	4r	.	.	4r	.	.	4r	.	.	4r	.	4r	.	8r	.	8r	.
8C/L	.	8c/	.	8e-/)	.	(8ee-\	.	.	.	.	.	.	.	.	.	.	.	.	.	.	.	.	.	8cc\L	.	8ee-\L	.
!	!	!	!	!	!	!	!	!	!	!	!LO:LB:g=original	!	!	!	!	!	!	!	!	!	!	!	!	!	!	!	!
8D/	.	8d/	.	(8B-/	.	8dd\)	.	4BB-/	in-	.	4B-\	in	.	4dd\	in-	.	4ff\	i-	.	4B-/	.	4f\	.	8b-\	.	8dd\	.
8BB-/J	.	8B-/J)	.	8d/J)	.	8ff\J	.	.	.	.	.	.	.	.	.	.	.	.	.	.	.	.	.	8dd\J	.	8ff\J	.
!	!	!LO:LB:g=original	!	!	!	!	!	!	!	!	!	!	!	!	!	!	!	!	!	!	!	!	!	!	!	!	!
=33	=33	=33	=33	=33	=33	=33	=33	=33	=33	=33	=33	=33	=33	=33	=33	=33	=33	=33	=33	=33	=33	=33	=33	=33	=33	=33	=33
!	!	!	!	!LO:TX:t=P:problem:mixed beam	!LO:DY:rj	!LO:TX:t=P:problem:mixed beam	!LO:DY:b:rj:t=f&colon;	!	!	!	!	!	!	!	!	!	!	!	!	!	!LO:DY:rj	!	!	!	!	!	!
8C/L	.	(8A-/L	f	8f/L	f	(8ee-\L	f	(2AA-/	-no-	.	2.f\	no-	.	4cc\	-no-	.	4ee-\	-no-	.	4f\	f	2.fTT\	f	(8cc/L	f	(8ee-\L	f
8C/	.	8c/)	.	8cc\	.	8f/)	.	.	.	.	.	.	.	.	.	.	.	.	.	.	.	.	.	8a-/)	.	8ff\)	.
*	*	*	*	*	*	*	*	*	*	*	*	*	*	*	*	*	*Xtuplet	*	*	*	*	*	*	*	*	*	*
8AA-/	.	(8A-/	.	8a-\	.	(8cc\	.	.	.	.	.	.	.	4a-\	.	.	12cc\L	.	.	4r	.	.	.	(8cc/	.	(8ee-\	.
.	.	.	.	.	.	.	.	.	.	.	.	.	.	.	.	.	12bn\	.	.	.	.	.	.	.	.	.	.
8AA-/	.	8c/)	.	8cc\	.	8f/)	.	.	.	.	.	.	.	.	.	.	.	.	.	.	.	.	.	8a-/)	.	8ff\)	.
.	.	.	.	.	.	.	.	.	.	.	.	.	.	.	.	.	12cc\J	.	.	.	.	.	.	.	.	.	.
*	*	*	*	*	*	*	*	*	*	*	*	*	*	*Xtuplet	*	*	*	*	*	*	*	*	*	*	*	*	*
8FF/	.	(8A-/	.	8f/	.	(8ee-\	.	4C/)	.	.	.	.	.	12cc\L	.	.	12ee-\L	.	.	4f\	.	.	.	(8cc/	.	(8ee-\	.
.	.	.	.	.	.	.	.	.	.	.	.	.	.	12dd\	.	.	12ff\	.	.	.	.	.	.	.	.	.	.
8FF/J	.	8c/J)	.	8cc\J	.	8f/J)	.	.	.	.	.	.	.	.	.	.	.	.	.	.	.	.	.	8a-/J)	.	8ff\J)	.
.	.	.	.	.	.	.	.	.	.	.	.	.	.	12cc\J	.	.	12ee-\J	.	.	.	.	.	.	.	.	.	.
!LO:LB:g=original	!	!	!	!	!	!	!	!	!	!	!	!	!	!	!	!	!	!	!	!	!	!	!	!	!	!	!
=34	=34	=34	=34	=34	=34	=34	=34	=34	=34	=34	=34	=34	=34	=34	=34	=34	=34	=34	=34	=34	=34	=34	=34	=34	=34	=34	=34
!	!	!	!LO:DY:rj:t=p&colon;	!LO:TX:t=P:problem:mixed beam	!	!	!LO:DY:b:rj:t=p&colon;	!	!	!	!	!	!	!	!	!	!	!	!	!	!	!	!	!	!	!	!
4BB-/	.	8B-\L	p	8f/L	p	8dd\L|	p	4BB-/	-va	.	4f\	-va	.	4b-\	-va	.	4dd\	-va	.	4B-/	p	2.fTTT\	p	(8b-\L	p	(8dd\L	p
.	.	8f\	.	8dd\	.	(16ff\L	.	.	.	.	.	.	.	.	.	.	.	.	.	.	.	.	.	8dd\)	.	8ff\)	.
.	.	.	.	.	.	16aa-\JJ)	.	.	.	.	.	.	.	.	.	.	.	.	.	.	.	.	.	.	.	.	.
4r	.	8B-\	.	8b-\	.	8bb-\L	.	4r	.	.	4r	.	.	4r	.	.	4r	.	.	4f\	.	.	.	(8b-\	.	(8dd\	.
.	.	8f\	.	8dd\J	.	(8ff\	.	.	.	.	.	.	.	.	.	.	.	.	.	.	.	.	.	8dd\)	.	8ff\)	.
!	!	!	!	!LO:PB:g=original	!	!	!	!	!	!	!	!	!	!	!	!	!	!	!	!	!	!	!	!	!	!	!
*	*	*	*	*	*	*	*	*	*	*	*	*ij	*	*	*	*	*	*	*	*	*	*	*	*	*	*	*
!	!	!	!	!LO:TX:t=P:problem:mixed beam	!	!	!	!	!	!	!	!	!	!	!	!	!	!	!	!	!	!	!	!	!	!	!
4BB-/	.	8B-\	.	8f/L	.	8dd\	.	4BB-/	in-	.	4f\	in-	.	8dd\L	in-	.	8ff\L	in-	.	4B-/	.	.	.	(8b-\	.	(8dd\	.
.	.	8f\J	.	8dd\J	.	8b-\J)	.	.	.	.	.	.	.	8b-\J	.	.	8dd\J	.	.	.	.	.	.	8dd\J)	.	8ff\J)	.
!	!	!	!	!	!	!	!	!	!	!	!	!	!	!	!	!	!LO:LB:g=original	!	!	!	!	!	!	!LO:LB:g=original	!	!LO:LB:g=original	!
=35	=35	=35	=35	=35	=35	=35	=35	=35	=35	=35	=35	=35	=35	=35	=35	=35	=35	=35	=35	=35	=35	=35	=35	=35	=35	=35	=35
!	!	!	!	!LO:TX:t=P:problem:mixed beam	!	!LO:TX:t=P:problem:mixed beam	!LO:DY:b:rj:t=f&colon;	!	!	!	!	!	!	!	!	!	!	!	!	!	!LO:DY:rj	!	!	!	!	!	!
8C/L	.	8A-/L	f	8f/L	f	(8ee-\L	f	(2AA-/	-no-	.	2.f\	-no-	.	4cc\	-no-	.	4ee-\	-no-	.	4f\	f	2.fTTT\	f	(8cc\L	f	(8ee-\L	f
8C/	.	8c/	.	8cc\	.	8f/)	.	.	.	.	.	.	.	.	.	.	.	.	.	.	.	.	.	8a-\)	.	8ff\)	.
8AA-/	.	8A-/	.	8a-\	.	(8cc\	.	.	.	.	.	.	.	4a-\	.	.	12cc\L	.	.	4r	.	.	.	(8cc\	.	(8ee-\	.
.	.	.	.	.	.	.	.	.	.	.	.	.	.	.	.	.	12bn\	.	.	.	.	.	.	.	.	.	.
8AA-/	.	8c/	.	8cc\	.	8f/)	.	.	.	.	.	.	.	.	.	.	.	.	.	.	.	.	.	8a-\)	.	8ff\)	.
.	.	.	.	.	.	.	.	.	.	.	.	.	.	.	.	.	12cc\J	.	.	.	.	.	.	.	.	.	.
8FF/	.	8A-/	.	8f\	.	(8ee-\	.	4C/)	.	.	.	.	.	12cc\L	.	.	12ee-\L	.	.	4f\	.	.	.	(8cc\	.	(8ee-\	.
.	.	.	.	.	.	.	.	.	.	.	.	.	.	12dd\	.	.	12ff\	.	.	.	.	.	.	.	.	.	.
8FF/J	.	8c/J	.	8cc\J	.	8f/J)	.	.	.	.	.	.	.	.	.	.	.	.	.	.	.	.	.	8a-\J)	.	8ff\J)	.
.	.	.	.	.	.	.	.	.	.	.	.	.	.	12cc\J	.	.	12ee-\J	.	.	.	.	.	.	.	.	.	.
=36	=36	=36	=36	=36	=36	=36	=36	=36	=36	=36	=36	=36	=36	=36	=36	=36	=36	=36	=36	=36	=36	=36	=36	=36	=36	=36	=36
!	!	!	!	!LO:TX:t=P:problem:mixed beam	!	!	!LO:DY:b:rj:t=p&colon;	!	!	!	!	!	!	!	!	!	!	!	!	!	!	!	!	!	!	!	!
4BB-/	.	8B-\L	p	8f/L	p	8dd\L	p	4BB-/	-va	.	4f\	-va	.	4b-\	-va	.	4dd\	-va	.	4B-/	p	2.fTTT\	p	(8b-\L	p	(8dd\L	p
*	*	*	*	*	*	*	*	*	*	*	*	*Xij	*	*	*	*	*	*	*	*	*	*	*	*	*	*	*
.	.	8f\	.	8dd\	.	16ff\L	.	.	.	.	.	.	.	.	.	.	.	.	.	.	.	.	.	8dd\)	.	8ff\)	.
.	.	.	.	.	.	16aa-\JJ	.	.	.	.	.	.	.	.	.	.	.	.	.	.	.	.	.	.	.	.	.
4r	.	8B-\	.	8b-\	.	8bb-\L	.	4r	.	.	4r	.	.	4r	.	.	4r	.	.	4f\	.	.	.	(8b-\	.	(8dd\	.
.	.	8f\	.	8dd\	.	8ff\	.	.	.	.	.	.	.	.	.	.	.	.	.	.	.	.	.	8dd\)	.	8ff\)	.
!	!	!	!	!	!	!	!	!	!	!	!	!	!	!LO:LB:g=original	!	!	!	!	!	!	!	!	!	!	!	!	!
4BB-/	.	8B-\	.	8f\	.	8dd\	.	(4BB-/	in	.	4B-\	in	.	8dd\L	in	.	8ff\L	in	.	4B-/	.	.	.	(8b-\	.	(8dd\	.
.	.	8f\J	.	8dd\J	.	8b-\J	.	.	.	.	.	.	.	8b-\J	.	.	8dd\J	.	.	.	.	.	.	8dd\J)	.	8ff\J)	.
!	!	!	!	!	!	!LO:LB:g=original	!	!	!	!	!	!	!	!	!	!	!	!	!	!	!	!	!	!	!	!	!
=37	=37	=37	=37	=37	=37	=37	=37	=37	=37	=37	=37	=37	=37	=37	=37	=37	=37	=37	=37	=37	=37	=37	=37	=37	=37	=37	=37
*tremolo	*	*tremolo	*	*	*	*	*	*	*	*	*	*	*	*	*	*	*	*	*	*	*	*	*	*	*	*	*
!	!	!	!	!	!	!	!LO:DY:a:t=for	!	!	!	!	!	!	!	!	!	!	!	!	!	!	!	!	!	!	!	!
8E-\L	.	8c/L	f	8e-/	f	8g/	f	2.E-\)	.	.	2.c\	vis-	.	2.g\	.	.	2.ee-\	.	.	2.e-\	f	2.g\	f	8ee-\	.	8gg\	.
8E-\	.	8c/	.	4e-/	.	4g/	.	.	.	.	.	.	.	.	.	.	.	.	.	.	.	.	.	4ee-\	.	4gg\	.
8E-\	.	8c/	.	.	.	.	.	.	.	.	.	.	.	.	.	.	.	.	.	.	.	.	.	.	.	.	.
8E-\	.	8c/	.	4e-/	.	4g/	.	.	.	.	.	.	.	.	.	.	.	.	.	.	.	.	.	4ee-\	.	4gg\	.
8E-\	.	8c/	.	.	.	.	.	.	.	.	.	.	.	.	.	.	.	.	.	.	.	.	.	.	.	.	.
8E-\J	.	8c/J	.	8e-/L	.	8g/	.	.	.	.	.	.	.	.	.	.	.	.	.	.	.	.	.	8ee-\	.	8gg\	.
=38	=38	=38	=38	=38	=38	=38	=38	=38	=38	=38	=38	=38	=38	=38	=38	=38	=38	=38	=38	=38	=38	=38	=38	=38	=38	=38	=38
8C/L	.	8f\L	.	8e-/J	.	8a-/	.	2.C/	Viſ-	.	2.f\	-cer-	.	2.a-\	vis-	.	2.ee-\	vi-	.	2.e-\	.	2.aX\	.	8ee-\	.	8aa-\	.
8C/	.	8f\	.	4e-/	.	4a-/	.	.	.	.	.	.	.	.	.	.	.	.	.	.	.	.	.	4ee-\	.	4aa-\	.
8C/	.	8f\	.	.	.	.	.	.	.	.	.	.	.	.	.	.	.	.	.	.	.	.	.	.	.	.	.
8C/	.	8f\	.	4e-/	.	4a-/	.	.	.	.	.	.	.	.	.	.	.	.	.	.	.	.	.	4ee-\	.	4aa-\	.
8C/	.	8f\	.	.	.	.	.	.	.	.	.	.	.	.	.	.	.	.	.	.	.	.	.	.	.	.	.
8C/J	.	8f\J	.	8e-/	.	8a-/	.	.	.	.	.	.	.	.	.	.	.	.	.	.	.	.	.	8ee-\	.	8aa-\	.
*Xtremolo	*	*Xtremolo	*	*	*	*	*	*	*	*	*	*	*	*	*	*	*	*	*	*	*	*	*	*	*	*	*
=39	=39	=39	=39	=39	=39	=39	=39	=39	=39	=39	=39	=39	=39	=39	=39	=39	=39	=39	=39	=39	=39	=39	=39	=39	=39	=39	=39
4D/	.	4f\	.	4d/	.	4b-\	.	4D\	se-	.	4f\	-i-	.	4b-\	-ce-	.	4dd\	-scen-	.	4f\	.	4b-\	.	4dd\	.	4bb-\	.
4AA-/	.	4f\	.	4cc\	.	4ee-\	.	4r	.	.	4r	.	.	4g\	-ri-	.	4ee-\	-ci-	.	4r	.	4r	.	4r	.	4r	.
4BB-/	.	4f\	.	4b-\	.	4dd\	.	4BB-/	-ri-	.	4f\	-bus	.	4f\	-bus	.	4dd\	-bus	.	4r	.	4r	.	4r	.	4r	.
=40	=40	=40	=40	=40	=40	=40	=40	=40	=40	=40	=40	=40	=40	=40	=40	=40	=40	=40	=40	=40	=40	=40	=40	=40	=40	=40	=40
!LO:TX:t=P:problem:mixed beam	!	!	!	!	!	!	!	!	!	!	!	!	!	!	!	!	!	!	!	!	!	!	!	!	!	!	!
8E-\L	.	8g\L	.	16e-/LL	.	16cc\LL	.	4E-\	-bus	.	(4g\	me-	.	(4e-\	me-	.	(4cc\	me-	.	4f\	.	4f\	.	4ee-\	.	4ccc\	.
.	.	.	.	16e-/	.	16cc\	.	.	.	.	.	.	.	.	.	.	.	.	.	.	.	.	.	.	.	.	.
8E-\	.	8g\J	.	16e-/	.	16cc\	.	.	.	.	.	.	.	.	.	.	.	.	.	.	.	.	.	.	.	.	.
.	.	.	.	16e-/JJ	.	16cc\JJ	.	.	.	.	.	.	.	.	.	.	.	.	.	.	.	.	.	.	.	.	.
*	*	*tremolo	*	*tremolo	*	*tremolo	*	*	*	*	*	*	*	*	*	*	*	*	*	*	*	*tremolo	*	*	*	*	*
8F\	.	8f\L	.	16d/LL	.	16b-\LL	.	4F\	.	.	4f\	.	.	4d\)	.	.	4b-\)	.	.	8f\L	.	8f\L	.	4dd\	.	4bb-\	.
.	.	.	.	16d/	.	16b-\	.	.	.	.	.	.	.	.	.	.	.	.	.	.	.	.	.	.	.	.	.
8F\	.	8f\	.	16d/	.	16b-\	.	.	.	.	.	.	.	.	.	.	.	.	.	8f\	.	8f\	.	.	.	.	.
.	.	.	.	16d/JJ	.	16b-\JJ	.	.	.	.	.	.	.	.	.	.	.	.	.	.	.	.	.	.	.	.	.
8FF/	.	8f\	.	16c/LL	.	16a-\LL	.	4FF/	me-	.	4f\)	.	.	4c\	.	.	4a-\	.	.	8f\	.	8f\	.	4cc\	.	4aa-\	.
.	.	.	.	16c/	.	16a-\	.	.	.	.	.	.	.	.	.	.	.	.	.	.	.	.	.	.	.	.	.
8FF/J	.	8f\J	.	16c/	.	16a-\	.	.	.	.	.	.	.	.	.	.	.	.	.	8f\J	.	8f\J	.	.	.	.	.
.	.	.	.	16c/JJ	.	16a-\JJ	.	.	.	.	.	.	.	.	.	.	.	.	.	.	.	.	.	.	.	.	.
*	*	*Xtremolo	*	*Xtremolo	*	*Xtremolo	*	*	*	*	*	*	*	*	*	*	*	*	*	*	*	*Xtremolo	*	*	*	*	*
=41	=41	=41	=41	=41	=41	=41	=41	=41	=41	=41	=41	=41	=41	=41	=41	=41	=41	=41	=41	=41	=41	=41	=41	=41	=41	=41	=41
!	!	!	!	!LO:TX:a:t=Dulce	!LO:DY:rj	!LO:TX:a:t=dulce	!LO:DY:b:t=pp&colon;	!	!	!	!	!	!	!	!	!	!	!	!	!	!	!	!	!LO:TX:a:t=Dolce	!LO:DY:t=p&colon;	!	!
4BB-/	p	4f\	p	8.d/L	pp	8.f/L	pp	4BB-/	-is	.	4f\	-is	.	4d\	-is	.	4b-\	-is	.	4B-/	.	4f\	.	8.dd\L	p	8.ff\L	p
.	.	.	.	16B-/Jk	.	16d/K	.	.	.	.	.	.	.	.	.	.	.	.	.	.	.	.	.	16b-\Jk	.	16dd\Jk	.
*	*	*	*	*tremolo	*	*	*	*	*	*	*	*	*	*	*	*	*	*	*	*	*	*	*	*tremolo	*	*	*
!	!	!	!	!	!	!	!	!	!	!	!	!	!	!	!	!	!	!	!	!	!	!	!	!	!	!LO:TX:b:i:t=Dolce	!
4r	.	4r	.	8d/L	.	8f/	.	4r	.	.	4r	.	.	4r	.	.	4r	.	.	4r	.	4r	.	8dd\L	.	8ff\L	.
.	.	.	.	8d/	.	8f/	.	.	.	.	.	.	.	.	.	.	.	.	.	.	.	.	.	8dd\	.	8ff\	.
4r	.	4r	.	8d/	.	8f/	.	4r	.	.	4r	.	.	4r	.	.	4r	.	.	4r	.	4r	.	8dd\	.	8ff\	.
.	.	.	.	8d/J	.	8f/J	.	.	.	.	.	.	.	.	.	.	.	.	.	.	.	.	.	8dd\J	.	8ff\J	.
*	*	*	*	*Xtremolo	*	*	*	*	*	*	*	*	*	*	*	*	*	*	*	*	*	*	*	*Xtremolo	*	*	*
=42	=42	=42	=42	=42	=42	=42	=42	=42	=42	=42	=42	=42	=42	=42	=42	=42	=42	=42	=42	=42	=42	=42	=42	=42	=42	=42	=42
!	!	!	!	!	!	!	!	!LO:TX:a:t=1	!	!	!	!	!	!	!	!	!	!	!	!	!	!	!	!	!	!	!
4BB-/	.	4e-\	.	8.e-/L	.	8.g/L	.	2.r	.	.	2.r	.	.	2.r	.	.	2.r	.	.	4e-\	.	4g\	.	8.ee-\L	.	8.gg\L	.
.	.	.	.	16f/Jk	.	16a-/K	.	.	.	.	.	.	.	.	.	.	.	.	.	.	.	.	.	16ff\Jk	.	16aa-\Jk	.
*	*	*	*	*tremolo	*	*	*	*	*	*	*	*	*	*	*	*	*	*	*	*	*	*	*	*tremolo	*	*tremolo	*
4r	.	4r	.	8g/L	.	8b-/	.	.	.	.	.	.	.	.	.	.	.	.	.	4r	.	4r	.	8gg\L	.	8bb-\L	.
.	.	.	.	8g/	.	8b-/	.	.	.	.	.	.	.	.	.	.	.	.	.	.	.	.	.	8gg\	.	8bb-\	.
4r	.	4r	.	8g/	.	8b-/	.	.	.	.	.	.	.	.	.	.	.	.	.	4r	.	4r	.	8gg\	.	8bb-\	.
.	.	.	.	8g/J	.	8b-/J	.	.	.	.	.	.	.	.	.	.	.	.	.	.	.	.	.	8gg\J	.	8bb-\J	.
*	*	*	*	*Xtremolo	*	*	*	*	*	*	*	*	*	*	*	*	*	*	*	*	*	*	*	*Xtremolo	*	*Xtremolo	*
!	!	!	!	!	!	!	!	!LO:LB:g=original	!	!	!	!	!	!	!	!	!	!	!	!LO:LB:g=original	!	!	!	!	!	!	!
=43	=43	=43	=43	=43	=43	=43	=43	=43	=43	=43	=43	=43	=43	=43	=43	=43	=43	=43	=43	=43	=43	=43	=43	=43	=43	=43	=43
4BB-/	.	4f\	.	8.d/L	.	8.f/L	.	4r	.	.	4r	.	.	4r	.	.	4r	.	.	4B-/	.	4f\	.	8.dd\L	.	8.ff\L	f
.	.	.	.	16B-/Jk	.	16d/K	.	.	.	.	.	.	.	.	.	.	.	.	.	.	.	.	.	16b-\Jk	f	16dd\Jk	.
*	*	*	*	*tremolo	*	*	*	*	*	*	*	*	*	*	*	*	*	*	*	*	*	*	*	*tremolo	*	*tremolo	*
!	!	!	!	!	!	!	!LO:DY:a:t=for&colon;	!	!	!	!	!	!	!	!	!	!	!	!	!	!	!	!	!	!	!	!
4r	.	4r	.	8d/L	f	8f/	f	4r	.	.	4r	.	.	4r	.	.	4r	.	.	4r	.	4r	.	8dd\L	.	8ff\L	.
.	.	.	.	8d/	.	8f/	.	.	.	.	.	.	.	.	.	.	.	.	.	.	.	.	.	8dd\	.	8ff\	.
4BB-/	.	4f\	f	8d/	.	8f/	.	8BB-/	in	.	8f\	in	.	8dd\	in	.	8ff\	in	.	4f\	.	4f\	.	8dd\	.	8ff\	.
.	.	.	.	8d/J	.	8f/J	.	8BB-/	viſ-	.	8f\	vis-	.	8dd\	vis-	.	8ff\	vi-	.	.	.	.	.	8dd\J	.	8ff\J	.
*	*	*	*	*Xtremolo	*	*	*	*	*	*	*	*	*	*	*	*	*	*	*	*	*	*	*	*Xtremolo	*	*Xtremolo	*
=44	=44	=44	=44	=44	=44	=44	=44	=44	=44	=44	=44	=44	=44	=44	=44	=44	=44	=44	=44	=44	=44	=44	=44	=44	=44	=44	=44
!LO:TX:t=P:problem:mixed beam	!	!	!	!	!	!	!	!	!	!	!	!	!	!	!	!	!	!	!	!	!	!	!	!	!	!	!
8E-\L	.	8g\L	.	(8d/L	.	(8f/L	.	(4E-\	-se-	.	4g\	-ce-	.	(4cc\	-ce-	.	(4ee-\	-sce-	.	8f\L	.	8f\L	.	(8dd\L	.	(8ff\L	.
8E-\	.	8g\J	.	8c/)	.	8e-/)	.	.	.	.	.	.	.	.	.	.	.	.	.	16f\L	.	16f\L	.	8cc\)	.	8ee-\)	.
.	.	.	.	.	.	.	.	.	.	.	.	.	.	.	.	.	.	.	.	16f\JJ	.	16f\JJ	.	.	.	.	.
*	*	*tremolo	*	*	*	*	*	*	*	*	*	*	*	*	*	*	*	*	*	*	*	*tremolo	*	*	*	*	*
8F\	.	8f\L	.	(8c/	.	(8e-/	.	4F\)	.	.	4f\	.	.	4b-\)	.	.	4dd\)	.	.	8f\L	.	8f\L	.	(8cc\	.	(8ee-\	.
8F\	.	8f\	.	8B-/)	.	8d/)	.	.	.	.	.	.	.	.	.	.	.	.	.	8f\	.	8f\	.	8b-\)	.	8dd\)	.
8FF/	.	8f\	.	(8B-/	.	(8d/	.	4FF/	-ri-	.	4e-\	-ri-	.	4f\	-ri-	.	4cc\	-ri-	.	8f\	.	8f\	.	(8b-\	.	(8dd\	.
8FF/J	.	8f\J	.	8A-/J)	.	8c/J)	.	.	.	.	.	.	.	.	.	.	.	.	.	8f\J	.	8f\J	.	8a-\J)	.	8cc\J)	.
*	*	*Xtremolo	*	*	*	*	*	*	*	*	*	*	*	*	*	*	*	*	*	*	*	*Xtremolo	*	*	*	*	*
!	!	!	!	!LO:LB:g=original	!	!	!	!	!	!	!	!	!	!	!	!	!	!	!	!	!	!	!	!	!	!	!
=45	=45	=45	=45	=45	=45	=45	=45	=45	=45	=45	=45	=45	=45	=45	=45	=45	=45	=45	=45	=45	=45	=45	=45	=45	=45	=45	=45
!	!	!	!	!	!LO:DY:rj	!	!LO:DY:a:t=p&colon;	!	!	!	!	!	!	!	!	!	!	!	!	!	!	!	!	!	!	!	!
4BB-/	.	4f\	p	8.B-/L	p	8.d/L	p	4BB-/	-bus	.	4f\	-bus	.	4d\	-bus	.	4b-\	-bus	.	4B-/	.	4f\	.	8.b-\L	p	8.dd\L	.
.	.	.	.	16c/Jk	.	16e-/Jk	.	.	.	.	.	.	.	.	.	.	.	.	.	.	.	.	.	16cc\Jk	.	16ee-\Jk	.
!	!	!	!	!	!	!	!	!	!	!	!	!	!	!	!	!	!LO:LB:g=original	!	!	!	!	!	!	!	!	!	!
*	*	*	*	*tremolo	*	*tremolo	*	*	*	*	*	*	*	*	*	*	*	*	*	*	*	*	*	*tremolo	*	*tremolo	*
4r	.	4r	.	8d/L	.	8f/L	.	4r	.	.	4r	.	.	4r	.	.	4r	.	.	4r	.	4r	.	8dd\L	.	8ff\L	p
.	.	.	.	8d/	.	8f/	.	.	.	.	.	.	.	.	.	.	.	.	.	.	.	.	.	8dd\	.	8ff\	.
4r	.	4r	.	8d/	.	8f/	.	4r	.	.	4r	.	.	4r	.	.	4r	.	.	4r	.	4r	.	8dd\	.	8ff\	.
.	.	.	.	8d/J	.	8f/J	.	.	.	.	.	.	.	.	.	.	.	.	.	.	.	.	.	8dd\J	.	8ff\J	.
*	*	*	*	*Xtremolo	*	*Xtremolo	*	*	*	*	*	*	*	*	*	*	*	*	*	*	*	*	*	*Xtremolo	*	*Xtremolo	*
!	!	!LO:LB:g=original	!	!	!	!	!	!	!	!	!	!	!	!	!	!	!	!	!	!	!	!	!	!LO:LB:g=original	!	!LO:LB:g=original	!
=46	=46	=46	=46	=46	=46	=46	=46	=46	=46	=46	=46	=46	=46	=46	=46	=46	=46	=46	=46	=46	=46	=46	=46	=46	=46	=46	=46
4BB-/	.	4e-\	.	8.e-/L	.	8.g/L	.	2.r	.	.	2.r	.	.	2.r	.	.	2.r	.	.	4e-\	.	4g\	.	8.ee-\L	.	8.gg\L	.
.	.	.	.	16f/Jk	.	16a-/Jk	.	.	.	.	.	.	.	.	.	.	.	.	.	.	.	.	.	16ff\Jk	.	16aa-\Jk	.
*	*	*	*	*tremolo	*	*tremolo	*	*	*	*	*	*	*	*	*	*	*	*	*	*	*	*	*	*tremolo	*	*tremolo	*
4r	.	4r	.	8g/L	.	8b-/L	.	.	.	.	.	.	.	.	.	.	.	.	.	4r	.	4r	.	8gg\L	.	8bb-\L	.
.	.	.	.	8g/	.	8b-/	.	.	.	.	.	.	.	.	.	.	.	.	.	.	.	.	.	8gg\	.	8bb-\	.
4r	.	4r	.	8g/	.	8b-/	.	.	.	.	.	.	.	.	.	.	.	.	.	4r	.	4r	.	8gg\	.	8bb-\	.
.	.	.	.	8g/J	.	8b-/J	.	.	.	.	.	.	.	.	.	.	.	.	.	.	.	.	.	8gg\J	.	8bb-\J	.
*	*	*	*	*Xtremolo	*	*Xtremolo	*	*	*	*	*	*	*	*	*	*	*	*	*	*	*	*	*	*Xtremolo	*	*Xtremolo	*
!LO:LB:g=original	!	!	!	!	!	!LO:LB:g=original	!	!	!	!	!LO:LB:g=original	!	!	!	!	!	!	!	!	!	!	!	!	!	!	!	!
=47	=47	=47	=47	=47	=47	=47	=47	=47	=47	=47	=47	=47	=47	=47	=47	=47	=47	=47	=47	=47	=47	=47	=47	=47	=47	=47	=47
4BB-/	.	4f\	.	8.d/L	.	8.f/L	.	4r	.	.	4r	.	.	4r	.	.	4r	.	.	4B-/	.	4f\	.	8.dd\L	.	8.ff\L	.
.	.	.	.	16B-/Jk	.	16d/Jk	.	.	.	.	.	.	.	.	.	.	.	.	.	.	.	.	.	16b-\Jk	.	16dd\Jk	.
*	*	*	*	*tremolo	*	*tremolo	*	*	*	*	*	*	*	*	*	*	*	*	*	*	*	*	*	*	*	*	*
4r	.	4r	.	8d/L	f	8f/L	.	4r	.	.	4r	.	.	4r	.	.	4r	.	.	4r	.	4r	.	8dd\L	f	8ff\L	f
.	.	.	.	8d/	.	8f/	.	.	.	.	.	.	.	.	.	.	.	.	.	.	.	.	.	8dd\	.	8ff\	.
4BB-/	.	4f\	f	8d/	.	8f/	.	(4BB-/	me-	.	4f\	me-	.	4dd\	me-	.	4ff\	me-	.	4f\	.	4f\	.	8dd\	.	8ff\	.
!	!	!	!	!	!	!	!LO:DY:a	!	!	!	!	!	!	!	!	!	!	!	!	!	!	!	!	!	!	!	!
.	.	.	.	8d/J	.	8f/J	f	.	.	.	.	.	.	.	.	.	.	.	.	.	.	.	.	8dd\J	.	8ff\J	.
*	*	*	*	*Xtremolo	*	*Xtremolo	*	*	*	*	*	*	*	*	*	*	*	*	*	*	*	*	*	*	*	*	*
!	!	!	!	!	!	!	!	!	!	!	!	!	!	!LO:LB:g=original	!	!	!	!	!	!	!	!	!	!	!	!	!
=48	=48	=48	=48	=48	=48	=48	=48	=48	=48	=48	=48	=48	=48	=48	=48	=48	=48	=48	=48	=48	=48	=48	=48	=48	=48	=48	=48
!LO:TX:t=P:problem:mixed beam	!	!	!	!	!	!	!	!	!	!	!	!	!	!	!	!	!	!	!	!	!	!	!	!	!	!	!
8E-\L	.	8g\L	.	(8d/L	.	(8f/L	.	4E-\)	.	.	(4g\	.	.	(4cc\	.	.	4ee-\	.	.	8f\L	.	8f\L	.	(8dd\L	.	(8ff\L	.
8E-\	.	8g\J	.	8c/)	.	8e-/)	.	.	.	.	.	.	.	.	.	.	.	.	.	16f\L	.	16f\L	.	8cc\)	.	8ee-\)	.
.	.	.	.	.	.	.	.	.	.	.	.	.	.	.	.	.	.	.	.	16f\JJ	.	16f\JJ	.	.	.	.	.
*	*	*tremolo	*	*	*	*	*	*	*	*	*	*	*	*	*	*	*	*	*	*	*	*tremolo	*	*	*	*	*
8F\	.	8f\L	.	(8c/	.	(8e-/	.	4F\	.	.	4f\	.	.	4b-\)	.	.	(4dd\	.	.	8f\L	.	8f\L	.	(8cc\	.	(8ee-\	.
8F\	.	8f\	.	8B-/)	.	8d/)	.	.	.	.	.	.	.	.	.	.	.	.	.	8f\	.	8f\	.	8b-\)	.	8dd\)	.
8FF/	.	8f\	.	(8B-/	.	(8d/	.	4FF/	.	.	4e-\)	.	.	4f\	.	.	4cc\)	.	.	8f\	.	8f\	.	(8b-\	.	(8dd\	.
8FF/J	.	8f\J	.	8A-/J)	.	8c/J)	.	.	.	.	.	.	.	.	.	.	.	.	.	8f\J	.	8f\J	.	8a-\J)	.	8cc\J)	.
*	*	*Xtremolo	*	*	*	*	*	*	*	*	*	*	*	*	*	*	*	*	*	*	*	*Xtremolo	*	*	*	*	*
=49	=49	=49	=49	=49	=49	=49	=49	=49	=49	=49	=49	=49	=49	=49	=49	=49	=49	=49	=49	=49	=49	=49	=49	=49	=49	=49	=49
4BB-/	.	4f\	.	4B-/	.	4d/	.	4BB-/	-is	.	4f\	-is	.	4d\	-is	.	4b-\	-is	.	4B-/	.	4f\	.	4b-\	.	4dd\	.
4BB-/	.	4f\	.	4d/	.	4b-\	.	2r	.	.	4r	.	.	4r	.	.	4r	.	.	4B-/	.	4f\	.	4dd\	.	4bb-\	.
4BB-/	.	4f\	.	4d/	.	4b-\	.	.	.	.	4r	.	.	4r	.	.	4r	.	.	4B-/	.	4f\	.	4dd\	.	4bb-\	.
=50	=50	=50	=50	=50	=50	=50	=50	=50	=50	=50	=50	=50	=50	=50	=50	=50	=50	=50	=50	=50	=50	=50	=50	=50	=50	=50	=50
*	*	*	*	*	*	*2\right	*	*	*	*	*	*	*	*	*	*	*	*	*	*	*	*	*	*	*	*	*
!	!	!	!	!	!	!	!	!	!	!	!	!	!	!	!	!	!	!	!	!	!	!LO:TX:a:t=Volt Cittſ Soli	!	!	!	!	!
2BB-/	.	2f\	.	2d/	.	2b-\	.	2.r	.	.	2.r	.	.	2.r	.	.	2.r	.	.	2B-/	.	2f\	.	2dd\	.	2bb-\	.
4r	.	4r	.	4r	.	4r	.	.	.	.	.	.	.	.	.	.	.	.	.	4r	.	4ryy	.	4r	.	4r	.
!	!	!	!	!	!	!	!	!	!	!	!	!	!	!	!	!	!	!	!	!	!	!LO:PB:g=original	!	!	!	!	!
=51:|!	=51:|!	=51:|!	=51:|!	=51:|!	=51:|!	=51:|!	=51:|!	=51:|!	=51:|!	=51:|!	=51:|!	=51:|!	=51:|!	=51:|!	=51:|!	=51:|!	=51:|!	=51:|!	=51:|!	=51:|!	=51:|!	=51:|!	=51:|!	=51:|!	=51:|!	=51:|!	=51:|!
*>C	*>C	*>C	*>C	*>C	*>C	*>C	*>C	*>C	*>C	*>C	*>C	*>C	*>C	*>C	*>C	*>C	*>C	*>C	*>C	*>C	*>C	*>C	*>C	*>C	*>C	*>C	*>C
!	!	!	!	!	!	!	!LO:DY:b:t=pia	!	!	!LO:DY:a	!	!	!LO:DY:a	!	!	!LO:DY:a:t=p&colon;	!	!	!LO:DY:a:t=pia&colon;	!LO:TX:a:t=Solo	!	!LO:TX:a:t=Solo	!LO:DY:rj	!LO:TX:a:t=7	!	!LO:TX:a:t=7	!
4E-\	p	8r	pp	8r	pp	8r	p	2E-\	ne	p	2e-\	ne	p	2g\	ne	p	2b-\	ne	p	2.g\	pp	2.b-\	p	0.r	.	0.r	.
.	.	8e-'\L	.	8g'/L	.	8b-'\L	.	.	.	.	.	.	.	.	.	.	.	.	.	.	.	.	.	.	.	.	.
4r	.	8e-'\	.	8g'/	.	8b-'\	.	.	.	.	.	.	.	.	.	.	.	.	.	.	.	.	.	.	.	.	.
.	.	8e-'\	.	8g'/	.	8b-'\	.	.	.	.	.	.	.	.	.	.	.	.	.	.	.	.	.	.	.	.	.
4r	.	8e-'\	.	8g'/	.	8b-'\	.	4E-\	pro-	.	4e-\	pro-	.	4g\	pro-	.	4b-\	pro-	.	.	.	.	.	.	.	.	.
.	.	8e-'\J	.	8g'/J	.	8b-'\J	.	.	.	.	.	.	.	.	.	.	.	.	.	.	.	.	.	.	.	.	.
=52	=52	=52	=52	=52	=52	=52	=52	=52	=52	=52	=52	=52	=52	=52	=52	=52	=52	=52	=52	=52	=52	=52	=52	=52	=52	=52	=52
4BB-/	.	8r	.	8r	.	8r	.	2BB-/	-ji-	.	2d\	-ji-	.	2f\	-ji-	.	2a-X\	-ji-	.	2.f\	.	2.a-\	.	.	.	.	.
.	.	8B-'/L	.	8f'/	.	8a-X'/L	.	.	.	.	.	.	.	.	.	.	.	.	.	.	.	.	.	.	.	.	.
*	*	*	*	*tremolo	*	*	*	*	*	*	*	*	*	*	*	*	*	*	*	*	*	*	*	*	*	*	*
!	!	!	!	!LO:TX:b:t=....	!	!	!	!	!	!	!	!	!	!	!	!	!	!	!	!	!	!	!	!	!	!	!
4r	.	8d'/	.	8f'/L	.	8a-'/	.	.	.	.	.	.	.	.	.	.	.	.	.	.	.	.	.	.	.	.	.
.	.	8B-'/	.	8f'/	.	8a-'/	.	.	.	.	.	.	.	.	.	.	.	.	.	.	.	.	.	.	.	.	.
4r	.	8d'/	.	8f'/	.	8a-'/	.	4BB-/	-ci-	.	4d\	-ci-	.	4f\	-ci-	.	4a-\	-ci-	.	.	.	.	.	.	.	.	.
.	.	8B-'/J	.	8f'/J	.	8a-'/J	.	.	.	.	.	.	.	.	.	.	.	.	.	.	.	.	.	.	.	.	.
*	*	*	*	*Xtremolo	*	*	*	*	*	*	*	*	*	*	*	*	*	*	*	*	*	*	*	*	*	*	*
=53	=53	=53	=53	=53	=53	=53	=53	=53	=53	=53	=53	=53	=53	=53	=53	=53	=53	=53	=53	=53	=53	=53	=53	=53	=53	=53	=53
4C/	.	8r	.	8r	.	8r	.	2.C/	-as	.	2.c\	-as	.	2.e-\	-as	.	2.g/	-as	.	2.e-\	.	2.g\	.	.	.	.	.
.	.	8c'\	.	8e-'/L	.	8g'/L	.	.	.	.	.	.	.	.	.	.	.	.	.	.	.	.	.	.	.	.	.
*	*	*tremolo	*	*	*	*	*	*	*	*	*	*	*	*	*	*	*	*	*	*	*	*	*	*	*	*	*
!	!	!LO:TX:t=....	!	!	!	!	!	!	!	!	!	!	!	!	!	!	!	!	!	!	!	!	!	!	!	!	!
4r	.	8c'\L	.	8e-'/	.	8g'/	.	.	.	.	.	.	.	.	.	.	.	.	.	.	.	.	.	.	.	.	.
.	.	8c'\	.	8e-'/	.	8g'/	.	.	.	.	.	.	.	.	.	.	.	.	.	.	.	.	.	.	.	.	.
4r	.	8c'\	.	8e-'/	.	8g'/	.	.	.	.	.	.	.	.	.	.	.	.	.	.	.	.	.	.	.	.	.
.	.	8c'\J	.	8e-'/J	.	8g'/J	.	.	.	.	.	.	.	.	.	.	.	.	.	.	.	.	.	.	.	.	.
*	*	*Xtremolo	*	*	*	*	*	*	*	*	*	*	*	*	*	*	*	*	*	*	*	*	*	*	*	*	*
=54	=54	=54	=54	=54	=54	=54	=54	=54	=54	=54	=54	=54	=54	=54	=54	=54	=54	=54	=54	=54	=54	=54	=54	=54	=54	=54	=54
4A-\	.	8r	.	8r	.	8r	.	2A-\	me	.	2e-\	me	.	2a-X\	me	.	2cc\	me	.	2.a-\	.	2.cc\	.	.	.	.	.
.	.	8e-'\	.	8a-'/	.	8cc'\L	.	.	.	.	.	.	.	.	.	.	.	.	.	.	.	.	.	.	.	.	.
*	*	*tremolo	*	*tremolo	*	*	*	*	*	*	*	*	*	*	*	*	*	*	*	*	*	*	*	*	*	*	*
!	!	!LO:TX:t=....	!	!LO:TX:b:t=....	!	!	!	!	!	!	!	!	!	!	!	!	!	!	!	!	!	!	!	!	!	!	!
4r	.	8e-'\L	.	8a-'/L	.	8cc'\	.	.	.	.	.	.	.	.	.	.	.	.	.	.	.	.	.	.	.	.	.
.	.	8e-'\	.	8a-'/	.	8cc'\	.	.	.	.	.	.	.	.	.	.	.	.	.	.	.	.	.	.	.	.	.
4r	.	8e-'\	.	8a-'/	.	8cc'\	.	4A-\	a	.	4e-\	a	.	4a-\	a	.	4cc\	a	.	.	.	.	.	.	.	.	.
.	.	8e-'\J	.	8a-'/J	.	8cc'\J	.	.	.	.	.	.	.	.	.	.	.	.	.	.	.	.	.	.	.	.	.
*	*	*Xtremolo	*	*Xtremolo	*	*	*	*	*	*	*	*	*	*	*	*	*	*	*	*	*	*	*	*	*	*	*
=55	=55	=55	=55	=55	=55	=55	=55	=55	=55	=55	=55	=55	=55	=55	=55	=55	=55	=55	=55	=55	=55	=55	=55	=55	=55	=55	=55
4B-\	.	8r	.	8r	.	8r	.	4.B-\	fa-	.	4.e-\	fa-	.	4.g\	fa-	.	4.b-\	fa-	.	2.g\	.	2.b-\	.	1.r	.	1.r	.
.	.	8e-'\	.	8g'/	.	8b-'\L	.	.	.	.	.	.	.	.	.	.	.	.	.	.	.	.	.	.	.	.	.
*	*	*tremolo	*	*tremolo	*	*	*	*	*	*	*	*	*	*	*	*	*	*	*	*	*	*	*	*	*	*	*
!	!	!LO:TX:t=....	!	!LO:TX:b:t=....	!	!	!	!	!	!	!	!	!	!	!	!	!	!	!	!	!	!	!	!	!	!	!
4r	.	8e-'\L	.	8g'/L	.	8b-'\	.	.	.	.	.	.	.	.	.	.	.	.	.	.	.	.	.	.	.	.	.
.	.	8e-'\	.	8g'/	.	8b-'\	.	8B-\	-ci-	.	8e-\	-ci-	.	8g\	-ci-	.	8b-\	-ci-	.	.	.	.	.	.	.	.	.
4r	.	8e-'\	.	8g'/	.	8b-'\	.	4B-\	-e	.	4e-\	-e	.	4g\	-e	.	4b-\	-e	.	.	.	.	.	.	.	.	.
.	.	8e-'\J	.	8g'/J	.	8b-'\J	.	.	.	.	.	.	.	.	.	.	.	.	.	.	.	.	.	.	.	.	.
*	*	*Xtremolo	*	*Xtremolo	*	*	*	*	*	*	*	*	*	*	*	*	*	*	*	*	*	*	*	*	*	*	*
=56	=56	=56	=56	=56	=56	=56	=56	=56	=56	=56	=56	=56	=56	=56	=56	=56	=56	=56	=56	=56	=56	=56	=56	=56	=56	=56	=56
4GG/	.	8r	.	8r	.	8r	.	2.BB-/	tu-	.	2.d\	tu-	.	2.d\	tu-	.	2.a-\	tu-	.	2.B-/	.	2.f\	.	.	.	.	.
.	.	8B-'/	.	8A-'/	.	8d'/L	.	.	.	.	.	.	.	.	.	.	.	.	.	.	.	.	.	.	.	.	.
*	*	*tremolo	*	*tremolo	*	*	*	*	*	*	*	*	*	*	*	*	*	*	*	*	*	*	*	*	*	*	*
!	!	!LO:TX:b:t=....	!	!LO:TX:b:t=....	!	!	!	!	!	!	!	!	!	!	!	!	!	!	!	!	!	!	!	!	!	!	!
4r	.	8B-'/L	.	8A-'/L	.	8d'/	.	.	.	.	.	.	.	.	.	.	.	.	.	.	.	.	.	.	.	.	.
.	.	8B-'/	.	8A-'/	.	8d'/	.	.	.	.	.	.	.	.	.	.	.	.	.	.	.	.	.	.	.	.	.
4r	.	8B-'/	.	8A-'/	.	8d'/	.	.	.	.	.	.	.	.	.	.	.	.	.	.	.	.	.	.	.	.	.
.	.	8B-'/J	.	8A-'/J	.	8d'/J	.	.	.	.	.	.	.	.	.	.	.	.	.	.	.	.	.	.	.	.	.
*	*	*Xtremolo	*	*Xtremolo	*	*	*	*	*	*	*	*	*	*	*	*	*	*	*	*	*	*	*	*	*	*	*
!	!	!	!	!LO:LB:g=original	!	!LO:LB:g=original	!	!	!	!	!	!	!	!	!	!	!LO:LB:g=original	!	!	!	!	!	!	!	!	!	!
=57	=57	=57	=57	=57	=57	=57	=57	=57	=57	=57	=57	=57	=57	=57	=57	=57	=57	=57	=57	=57	=57	=57	=57	=57	=57	=57	=57
4E-\	.	8r	.	8r	.	8r	.	2.E-\	-a	.	2.B-\	-a	.	2.e-\	-a	.	2.g\	-a	.	2.G/	.	2.e-\	f	2.r	.	2.r	.
.	.	8B-'/	.	8G'/	.	8e-'/L	.	.	.	.	.	.	.	.	.	.	.	.	.	.	.	.	.	.	.	.	.
*	*	*tremolo	*	*tremolo	*	*	*	*	*	*	*	*	*	*	*	*	*	*	*	*	*	*	*	*	*	*	*
!	!	!LO:TX:b:t=....	!	!LO:TX:b:t=....	!	!	!	!	!	!	!	!	!	!	!	!	!	!	!	!	!	!	!	!	!	!	!
4r	.	8B-'/L	.	8G'/L	.	8e-'/	.	.	.	.	.	.	.	.	.	.	.	.	.	.	.	.	.	.	.	.	.
.	.	8B-'/	.	8G'/	.	8e-'/	.	.	.	.	.	.	.	.	.	.	.	.	.	.	.	.	.	.	.	.	.
4r	.	8B-'/	.	8G'/	.	8e-'/	.	.	.	.	.	.	.	.	.	.	.	.	.	.	.	.	.	.	.	.	.
.	.	8B-'/J	.	8G'/J	.	8e-'/J	.	.	.	.	.	.	.	.	.	.	.	.	.	.	.	.	.	.	.	.	.
*	*	*Xtremolo	*	*Xtremolo	*	*	*	*	*	*	*	*	*	*	*	*	*	*	*	*	*	*	*	*	*	*	*
!	!	!LO:LB:g=original	!	!	!	!	!	!LO:LB:g=original	!	!	!	!	!	!	!	!	!	!	!	!LO:LB:g=original	!	!	!	!	!	!	!
=58	=58	=58	=58	=58	=58	=58	=58	=58	=58	=58	=58	=58	=58	=58	=58	=58	=58	=58	=58	=58	=58	=58	=58	=58	=58	=58	=58
!	!LO:DY:rj	!LO:TX:t=P:problem:mixed beam	!	!	!LO:DY:rj	!	!LO:DY:b:rj:t=f&colon;	!LO:TX:a:t=1	!	!	!LO:TX:a:t=1	!	!	!	!	!	!	!	!	!	!LO:DY:rj	!	!	!	!	!	!
4E-\	f	8e-\L	f	8e-/L	f	(8e-/L	f	2.r	.	.	2.r	.	.	2.r	.	.	2.r	.	.	4G/	f	4e-\	.	4g/	.	4ee-\	.
.	.	8G/	.	8e-/	.	8g/)	.	.	.	.	.	.	.	.	.	.	.	.	.	.	.	.	.	.	.	.	.
4GG/	.	(8G/	.	8e-/	.	(8g/	.	.	.	.	.	.	.	.	.	.	.	.	.	4G/	.	4e-\	.	4g/	.	4ee-\	.
.	.	8B-/)	.	8g/	.	8b-/)	.	.	.	.	.	.	.	.	.	.	.	.	.	.	.	.	.	.	.	.	.
4BB-/	.	(8B-/	.	8g/	.	(8b-/	.	.	.	.	.	.	.	.	.	.	.	.	.	4G/	.	4e-\	.	4g/	.	4ee-\	.
.	.	8e-/J)	.	8g/J	.	8ee-/J)	.	.	.	.	.	.	.	.	.	.	.	.	.	.	.	.	.	.	.	.	.
=59	=59	=59	=59	=59	=59	=59	=59	=59	=59	=59	=59	=59	=59	=59	=59	=59	=59	=59	=59	=59	=59	=59	=59	=59	=59	=59	=59
!	!	!	!	!	!	!	!	!	!	!	!	!	!	!	!	!	!	!	!	!	!	!	!LO:DY:rj	!	!	!	!
4E-\	p	8r	.	8r	p	8r	.	2E-\	ne	.	2c\	ne	.	2g\	ne	.	2ee-\	ne	.	2.e-\	p	2.g\	p	4g/	.	4ee-\	.
!	!	!	!	!	!	!	!LO:DY:b:t=p&colon;	!	!	!	!	!	!	!	!	!	!	!	!	!	!	!	!	!	!	!	!
.	.	8c'/	p	8g'/	.	8ee-'\L	p	.	.	.	.	.	.	.	.	.	.	.	.	.	.	.	.	.	.	.	.
*	*	*tremolo	*	*tremolo	*	*	*	*	*	*	*	*	*	*	*	*	*	*	*	*	*	*	*	*	*	*	*
!	!	!LO:TX:b:t=....	!	!LO:TX:b:t=....	!	!	!	!	!	!	!	!	!	!	!	!	!	!	!	!	!	!	!	!	!	!	!
4r	.	8c'/L	.	8g'/L	.	8ee-'\	.	.	.	.	.	.	.	.	.	.	.	.	.	.	.	.	.	4r	.	4r	.
.	.	8c'/	.	8g'/	.	8ee-'\	.	.	.	.	.	.	.	.	.	.	.	.	.	.	.	.	.	.	.	.	.
4r	.	8c'/	.	8g'/	.	8ee-'\	.	4E-\	pro-	.	4c\	pro-	.	4g\	pro-	.	4ee-\	pro-	.	.	.	.	.	4r	.	4r	.
.	.	8c'/J	.	8g'/J	.	8ee-'\J	.	.	.	.	.	.	.	.	.	.	.	.	.	.	.	.	.	.	.	.	.
*	*	*Xtremolo	*	*Xtremolo	*	*	*	*	*	*	*	*	*	*	*	*	*	*	*	*	*	*	*	*	*	*	*
=60	=60	=60	=60	=60	=60	=60	=60	=60	=60	=60	=60	=60	=60	=60	=60	=60	=60	=60	=60	=60	=60	=60	=60	=60	=60	=60	=60
!	!	!	!	!	!	!	!	!	!	!	!	!	!	!	!	!	!	!	!	!	!	!	!	!LO:TX:a:t=6	!	!LO:TX:a:t=6	!
4F\	.	8r	.	8r	.	8r	.	2F\	-ji-	.	2c\	-ji-	.	2an\	-ji-	.	2ee-\	-ji-	.	2.e-\	.	2.aX\	.	0.r	.	0.r	.
.	.	8f'\	.	8an'/	.	8ee-'\L	.	.	.	.	.	.	.	.	.	.	.	.	.	.	.	.	.	.	.	.	.
*	*	*tremolo	*	*tremolo	*	*	*	*	*	*	*	*	*	*	*	*	*	*	*	*	*	*	*	*	*	*	*
!	!	!LO:TX:t=....	!	!LO:TX:b:t=....	!	!	!	!	!	!	!	!	!	!	!	!	!	!	!	!	!	!	!	!	!	!	!
4r	.	8f'\L	.	8a'/L	.	8ee-'\	.	.	.	.	.	.	.	.	.	.	.	.	.	.	.	.	.	.	.	.	.
.	.	8f'\	.	8a'/	.	8ee-'\	.	.	.	.	.	.	.	.	.	.	.	.	.	.	.	.	.	.	.	.	.
4r	.	8f'\	.	8a'/	.	8ee-'\	.	4F\	-ci-	.	4c\	-ci-	.	4a\	-ci-	.	4ee-\	-ci-	.	.	.	.	.	.	.	.	.
.	.	8f'\J	.	8a'/J	.	8ee-'\J	.	.	.	.	.	.	.	.	.	.	.	.	.	.	.	.	.	.	.	.	.
*	*	*Xtremolo	*	*Xtremolo	*	*	*	*	*	*	*	*	*	*	*	*	*	*	*	*	*	*	*	*	*	*	*
!LO:LB:g=original	!	!	!	!	!	!	!	!	!	!	!	!	!	!LO:LB:g=original	!	!	!	!	!	!	!	!	!	!	!	!	!
=61	=61	=61	=61	=61	=61	=61	=61	=61	=61	=61	=61	=61	=61	=61	=61	=61	=61	=61	=61	=61	=61	=61	=61	=61	=61	=61	=61
4BB-/	.	8r	.	8r	.	8r	.	2.BB-/	-as	.	2.f\	-as	.	2.b-\	-as	.	2.dd\	-as	.	2.f\	.	2.b-\	.	.	.	.	.
.	.	8f'\	.	8b-'\	.	8dd'\L	.	.	.	.	.	.	.	.	.	.	.	.	.	.	.	.	.	.	.	.	.
*	*	*	*	*2\right	*	*	*	*	*	*	*	*	*	*	*	*	*	*	*	*	*	*	*	*	*	*	*
*	*	*tremolo	*	*tremolo	*	*	*	*	*	*	*	*	*	*	*	*	*	*	*	*	*	*	*	*	*	*	*
!	!	!LO:TX:t=....	!	!LO:TX:t=....	!	!	!	!	!	!	!	!	!	!	!	!	!	!	!	!	!	!	!	!	!	!	!
4r	.	8f'\L	.	8b-'\L	.	8dd'\	.	.	.	.	.	.	.	.	.	.	.	.	.	.	.	.	.	.	.	.	.
.	.	8f'\	.	8b-'\	.	8dd'\	.	.	.	.	.	.	.	.	.	.	.	.	.	.	.	.	.	.	.	.	.
4r	.	8f'\	.	8b-'\	.	8dd'\	.	.	.	.	.	.	.	.	.	.	.	.	.	.	.	.	.	.	.	.	.
.	.	8f'\J	.	8b-'\J	.	8dd'\J	.	.	.	.	.	.	.	.	.	.	.	.	.	.	.	.	.	.	.	.	.
*	*	*Xtremolo	*	*Xtremolo	*	*	*	*	*	*	*	*	*	*	*	*	*	*	*	*	*	*	*	*	*	*	*
!	!	!	!	!	!	!	!	!	!	!	!LO:LB:g=original	!	!	!	!	!	!	!	!	!	!	!	!	!	!	!	!
=62	=62	=62	=62	=62	=62	=62	=62	=62	=62	=62	=62	=62	=62	=62	=62	=62	=62	=62	=62	=62	=62	=62	=62	=62	=62	=62	=62
4E-\	.	8r	.	8r	.	8r	.	2E-\	me	.	2g\	me	.	2e-\	me	.	2cc\	me	.	2.e-\	.	2.g\	.	.	.	.	.
.	.	8g'\	.	8e-'/	.	8cc'\L	.	.	.	.	.	.	.	.	.	.	.	.	.	.	.	.	.	.	.	.	.
*	*	*tremolo	*	*tremolo	*	*	*	*	*	*	*	*	*	*	*	*	*	*	*	*	*	*	*	*	*	*	*
!	!	!LO:TX:t=....	!	!LO:TX:b:t=....	!	!	!	!	!	!	!	!	!	!	!	!	!	!	!	!	!	!	!	!	!	!	!
4r	.	8g'\L	.	8e-'/L	.	8cc'\	.	.	.	.	.	.	.	.	.	.	.	.	.	.	.	.	.	.	.	.	.
.	.	8g'\	.	8e-'/	.	8cc'\	.	.	.	.	.	.	.	.	.	.	.	.	.	.	.	.	.	.	.	.	.
4r	.	8g'\	.	8e-'/	.	8cc'\	.	4E-\	a	.	4g\	a	.	4e-\	a	.	4cc\	a	.	.	.	.	.	.	.	.	.
.	.	8g'\J	.	8e-'/J	.	8cc'\J	.	.	.	.	.	.	.	.	.	.	.	.	.	.	.	.	.	.	.	.	.
*	*	*Xtremolo	*	*Xtremolo	*	*	*	*	*	*	*	*	*	*	*	*	*	*	*	*	*	*	*	*	*	*	*
=63	=63	=63	=63	=63	=63	=63	=63	=63	=63	=63	=63	=63	=63	=63	=63	=63	=63	=63	=63	=63	=63	=63	=63	=63	=63	=63	=63
4F\	.	8r	.	8r	.	8r	.	4.F\	fa-	.	4.f\	fa-	.	4.d\	fa-	.	4.b-\	fa-	.	2.f\	.	2.f\	.	.	.	.	.
.	.	8f'\	.	8d'/L	.	8b-'\L	.	.	.	.	.	.	.	.	.	.	.	.	.	.	.	.	.	.	.	.	.
*	*	*tremolo	*	*	*	*	*	*	*	*	*	*	*	*	*	*	*	*	*	*	*	*	*	*	*	*	*
!	!	!LO:TX:t=....	!	!	!	!	!	!	!	!	!	!	!	!	!	!	!	!	!	!	!	!	!	!	!	!	!
4r	.	8f'\L	.	8d'/	.	8b-'\	.	.	.	.	.	.	.	.	.	.	.	.	.	.	.	.	.	.	.	.	.
.	.	8f'\	.	8d'/	.	8b-'\	.	8F\	-ci-	.	8f\	-ci-	.	8d\	-ci-	.	8b-\	-ci-	.	.	.	.	.	.	.	.	.
4r	.	8f'\	.	8d'/	.	8b-'\	.	4F\	-e	.	4f\	-e	.	4d\	-e	.	4b-\	-e	.	.	.	.	.	.	.	.	.
.	.	8f'\J	.	8d'/J	.	8b-'\J	.	.	.	.	.	.	.	.	.	.	.	.	.	.	.	.	.	.	.	.	.
*	*	*Xtremolo	*	*	*	*	*	*	*	*	*	*	*	*	*	*	*	*	*	*	*	*	*	*	*	*	*
=64	=64	=64	=64	=64	=64	=64	=64	=64	=64	=64	=64	=64	=64	=64	=64	=64	=64	=64	=64	=64	=64	=64	=64	=64	=64	=64	=64
4FF/	.	8r	.	8r	.	8r	.	2.FF/	tu-	.	2.f\	tu-	.	2.c\	tu-	.	2.an\	tu-	.	2.f\	.	2.f\	.	1.r	.	1.r	.
.	.	8f'\	.	8c'/	.	8an'/L	.	.	.	.	.	.	.	.	.	.	.	.	.	.	.	.	.	.	.	.	.
*	*	*tremolo	*	*tremolo	*	*	*	*	*	*	*	*	*	*	*	*	*	*	*	*	*	*	*	*	*	*	*
!	!	!LO:TX:t=....	!	!LO:TX:b:t=....	!	!	!	!	!	!	!	!	!	!	!	!	!	!	!	!	!	!	!	!	!	!	!
4r	.	8f'\L	.	8c'/L	.	8a'/	.	.	.	.	.	.	.	.	.	.	.	.	.	.	.	.	.	.	.	.	.
.	.	8f'\	.	8c'/	.	8a'/	.	.	.	.	.	.	.	.	.	.	.	.	.	.	.	.	.	.	.	.	.
4r	.	8f'\	.	8c'/	.	8a'/	.	.	.	.	.	.	.	.	.	.	.	.	.	.	.	.	.	.	.	.	.
.	.	8f'\J	.	8c'/J	.	8a'/J	.	.	.	.	.	.	.	.	.	.	.	.	.	.	.	.	.	.	.	.	.
*	*	*Xtremolo	*	*Xtremolo	*	*	*	*	*	*	*	*	*	*	*	*	*	*	*	*	*	*	*	*	*	*	*
=65	=65	=65	=65	=65	=65	=65	=65	=65	=65	=65	=65	=65	=65	=65	=65	=65	=65	=65	=65	=65	=65	=65	=65	=65	=65	=65	=65
4BB-/	.	8r	.	8r	.	8r	.	2.BB-/	-a	.	2.f\	-a	.	2.d\	-a	.	2.b-\	-a	.	2.B-/	.	2.f\	.	.	.	.	.
.	.	8f'\	.	8d'/	.	8b-'/L	.	.	.	.	.	.	.	.	.	.	.	.	.	.	.	.	.	.	.	.	.
*	*	*tremolo	*	*tremolo	*	*	*	*	*	*	*	*	*	*	*	*	*	*	*	*	*	*	*	*	*	*	*
!	!	!LO:TX:t=....	!	!LO:TX:b:t=....	!	!	!	!	!	!	!	!	!	!	!	!	!	!	!	!	!	!	!	!	!	!	!
4r	.	8f'\L	.	8d'/L	.	8b-'/	.	.	.	.	.	.	.	.	.	.	.	.	.	.	.	.	.	.	.	.	.
.	.	8f'\	.	8d'/	.	8b-'/	.	.	.	.	.	.	.	.	.	.	.	.	.	.	.	.	.	.	.	.	.
4r	.	8f'\	.	8d'/	.	8b-'/	.	.	.	.	.	.	.	.	.	.	.	.	.	.	.	.	.	.	.	.	.
.	.	8f'\J	.	8d'/J	.	8b-'/J	.	.	.	.	.	.	.	.	.	.	.	.	.	.	.	.	.	.	.	.	.
*	*	*Xtremolo	*	*Xtremolo	*	*	*	*	*	*	*	*	*	*	*	*	*	*	*	*	*	*	*	*	*	*	*
!	!	!	!	!	!	!	!	!	!	!	!	!	!	!	!	!	!	!	!	!	!	!LO:LB:g=original	!	!	!	!	!
=66	=66	=66	=66	=66	=66	=66	=66	=66	=66	=66	=66	=66	=66	=66	=66	=66	=66	=66	=66	=66	=66	=66	=66	=66	=66	=66	=66
!	!	!	!	!	!LO:DY:rj	!	!LO:DY:b:rj:t=for	!	!	!	!LO:TX:a:t=1	!	!	!	!	!	!	!	!	!	!LO:DY:rj	!	!LO:DY:rj	!	!	!	!
4BB-/	.	8B-/L	f	(8d/L	f	(8b-/L	f	2.r	.	.	2.r	.	.	2.r	.	.	2.r	.	.	4B-/	f	4f\	f	4b-/	.	4dd\	.
.	.	8D/J	.	8B-/)	.	8d/J)	.	.	.	.	.	.	.	.	.	.	.	.	.	.	.	.	.	.	.	.	.
4DD/	.	(8D/L	.	(8B-/	.	(8d/L	.	.	.	.	.	.	.	.	.	.	.	.	.	4B-/	.	4f\	.	4b-/	.	4dd\	.
.	.	8F/)	.	8d/)	.	8f/)	.	.	.	.	.	.	.	.	.	.	.	.	.	.	.	.	.	.	.	.	.
4FF/	.	(8F/	.	(8d/	.	(8f/	.	.	.	.	.	.	.	.	.	.	.	.	.	4B-/	.	4f\	.	4b-/	.	4dd\	.
!	!	!	!	!	!	!LO:TX:b:t=Volti&colon;	!	!	!	!	!	!	!	!	!	!	!	!	!	!	!	!	!	!	!	!	!
.	.	8B-/J)	.	8f/J)	.	8b-/J)	.	.	.	.	.	.	.	.	.	.	.	.	.	.	.	.	.	.	.	.	.
!	!	!	!	!	!	!LO:PB:g=original	!	!	!	!	!	!	!	!	!	!	!	!	!	!	!	!	!	!	!	!	!
=67	=67	=67	=67	=67	=67	=67	=67	=67	=67	=67	=67	=67	=67	=67	=67	=67	=67	=67	=67	=67	=67	=67	=67	=67	=67	=67	=67
4BB-/	.	8r	.	8r	p	8r	.	2.BB-/	et	.	2.f\	et	.	2.a-X\	et	.	2.dd\	et	.	2.B-/	p	2.f\	p	4b-/	.	4dd\	.
!	!	!	!	!	!	!	!LO:DY:b:t=p&colon;	!	!	!	!	!	!	!	!	!	!	!	!	!	!	!	!	!	!	!	!
.	.	8f'\	p	8a-X'/	.	8dd'\L	p	.	.	.	.	.	.	.	.	.	.	.	.	.	.	.	.	.	.	.	.
*	*	*tremolo	*	*tremolo	*	*	*	*	*	*	*	*	*	*	*	*	*	*	*	*	*	*	*	*	*	*	*
!	!	!LO:TX:t=....	!	!LO:TX:b:t=....	!	!	!	!	!	!	!	!	!	!	!	!	!	!	!	!	!	!	!	!	!	!	!
4r	.	8f'\L	.	8a-'/L	.	8dd'\	.	.	.	.	.	.	.	.	.	.	.	.	.	.	.	.	.	4r	.	4r	.
.	.	8f'\	.	8a-'/	.	8dd'\	.	.	.	.	.	.	.	.	.	.	.	.	.	.	.	.	.	.	.	.	.
4r	.	8f'\	.	8a-'/	.	8dd'\	.	.	.	.	.	.	.	.	.	.	.	.	.	.	.	.	.	4r	.	4r	.
.	.	8f'\J	.	8a-'/J	.	8dd'\J	.	.	.	.	.	.	.	.	.	.	.	.	.	.	.	.	.	.	.	.	.
*	*	*Xtremolo	*	*Xtremolo	*	*	*	*	*	*	*	*	*	*	*	*	*	*	*	*	*	*	*	*	*	*	*
!	!	!	!	!LO:LB:g=original	!	!	!	!	!	!	!	!	!	!	!	!	!	!	!	!	!	!	!	!	!	!	!
=68	=68	=68	=68	=68	=68	=68	=68	=68	=68	=68	=68	=68	=68	=68	=68	=68	=68	=68	=68	=68	=68	=68	=68	=68	=68	=68	=68
!	!	!	!	!	!	!	!	!	!	!	!	!	!	!	!	!	!	!	!	!	!	!	!	!LO:TX:a:t=15	!	!LO:TX:a:t=15	!
4E-\	.	8r	.	8r	.	8r	.	4.E-\	Spi-	.	4.g\	Spi-	.	4.b-\	Spi-	.	4.ee-\	Spi-	.	2.e-\	.	2.g\	.	0.r	.	0.r	.
.	.	8g'\	.	8b-'/	.	8ee-'\L	.	.	.	.	.	.	.	.	.	.	.	.	.	.	.	.	.	.	.	.	.
!	!	!LO:LB:g=original	!	!	!	!	!	!	!	!	!	!	!	!	!	!	!	!	!	!	!	!	!	!	!	!	!
*	*	*	*	*tremolo	*	*	*	*	*	*	*	*	*	*	*	*	*	*	*	*	*	*	*	*	*	*	*
!	!	!	!	!LO:TX:b:t=....	!	!	!	!	!	!	!	!	!	!	!	!	!	!	!	!	!	!	!	!	!	!	!
4r	.	8g'\L	.	8b-'/L	.	8ee-'\	.	.	.	.	.	.	.	.	.	.	.	.	.	.	.	.	.	.	.	.	.
.	.	8g'\	.	8b-'/	.	8ee-'\	.	8E-\	-ei-	.	8g\	-ri-	.	8b-\	-ri-	.	8ee-\	-ri-	.	.	.	.	.	.	.	.	.
4r	.	8g'\	.	8b-'/	.	8ee-'\	.	4E-\	-rum	.	4g\	-tum	.	4b-\	-tum	.	4ee-\	-tum	.	.	.	.	.	.	.	.	.
.	.	8g'\J	.	8b-'/J	.	8ee-'\J	.	.	.	.	.	.	.	.	.	.	.	.	.	.	.	.	.	.	.	.	.
*	*	*	*	*Xtremolo	*	*	*	*	*	*	*	*	*	*	*	*	*	*	*	*	*	*	*	*	*	*	*
=69	=69	=69	=69	=69	=69	=69	=69	=69	=69	=69	=69	=69	=69	=69	=69	=69	=69	=69	=69	=69	=69	=69	=69	=69	=69	=69	=69
4B-\	.	8r	.	8r	.	8r	.	2.B-\	San-	.	2.d\	San-	.	2.f\	San-	.	2.a-\	San-	.	2.f\	.	2.a-\	.	.	.	.	.
.	.	8d'\	.	8ff'\	.	8aa-X'\L	.	.	.	.	.	.	.	.	.	.	.	.	.	.	.	.	.	.	.	.	.
*	*	*tremolo	*	*tremolo	*	*	*	*	*	*	*	*	*	*	*	*	*	*	*	*	*	*	*	*	*	*	*
!	!	!LO:TX:t=....	!	!LO:TX:t=....	!	!	!	!	!	!	!	!	!	!	!	!	!	!	!	!	!	!	!	!	!	!	!
4r	.	8d'\L	.	8ff'\L	.	8aa-'\	.	.	.	.	.	.	.	.	.	.	.	.	.	.	.	.	.	.	.	.	.
.	.	8d'\	.	8ff'\	.	8aa-'\	.	.	.	.	.	.	.	.	.	.	.	.	.	.	.	.	.	.	.	.	.
4r	.	8d'\	.	8ff'\	.	8aa-'\	.	.	.	.	.	.	.	.	.	.	.	.	.	.	.	.	.	.	.	.	.
.	.	8d'\J	.	8ff'\J	.	8aa-'\J	.	.	.	.	.	.	.	.	.	.	.	.	.	.	.	.	.	.	.	.	.
*	*	*Xtremolo	*	*Xtremolo	*	*	*	*	*	*	*	*	*	*	*	*	*	*	*	*	*	*	*	*	*	*	*
!	!	!	!	!X	!	!	!	!	!	!	!	!	!	!	!	!	!LO:LB:g=original	!	!	!	!	!	!	!	!	!	!
=70	=70	=70	=70	=70	=70	=70	=70	=70	=70	=70	=70	=70	=70	=70	=70	=70	=70	=70	=70	=70	=70	=70	=70	=70	=70	=70	=70
4E-\	.	8r	.	8r	.	8r	.	2.E-\	-ctum	.	2.B-\	-ctum	.	2.e-\	-ctum	.	2.g\	-ctum	.	2.e-\	.	2.g\	.	.	.	.	.
.	.	8B-'/	.	8ee-'\	.	8gg'\L	.	.	.	.	.	.	.	.	.	.	.	.	.	.	.	.	.	.	.	.	.
*	*	*tremolo	*	*tremolo	*	*	*	*	*	*	*	*	*	*	*	*	*	*	*	*	*	*	*	*	*	*	*
!	!	!LO:TX:b:t=....	!	!LO:TX:t=....	!	!	!	!	!	!	!	!	!	!	!	!	!	!	!	!	!	!	!	!	!	!	!
4r	.	8B-'/L	.	8ee-'\L	.	8gg'\	.	.	.	.	.	.	.	.	.	.	.	.	.	.	.	.	.	.	.	.	.
.	.	8B-'/	.	8ee-'\	.	8gg'\	.	.	.	.	.	.	.	.	.	.	.	.	.	.	.	.	.	.	.	.	.
4r	.	8B-'/	.	8ee-'\	.	8gg'\	.	.	.	.	.	.	.	.	.	.	.	.	.	.	.	.	.	.	.	.	.
.	.	8B-'/J	.	8ee-'\J	.	8gg'\J	.	.	.	.	.	.	.	.	.	.	.	.	.	.	.	.	.	.	.	.	.
*	*	*Xtremolo	*	*Xtremolo	*	*	*	*	*	*	*	*	*	*	*	*	*	*	*	*	*	*	*	*	*	*	*
=71	=71	=71	=71	=71	=71	=71	=71	=71	=71	=71	=71	=71	=71	=71	=71	=71	=71	=71	=71	=71	=71	=71	=71	=71	=71	=71	=71
*	*	*	*	*	*	*	*	*	*ij	*	*	*ij	*	*	*	*	*	*	*	*	*	*	*	*	*	*	*
4BB-/	.	8r	.	8r	.	8r	.	2.BB-/	San-	.	2.f\	San-	.	2.a-\	San-	.	2.dd\	San-	.	2.B-/	.	2.f\	.	.	.	.	.
.	.	8f'\	.	8a-'/	.	8dd'\L	.	.	.	.	.	.	.	.	.	.	.	.	.	.	.	.	.	.	.	.	.
*	*	*tremolo	*	*tremolo	*	*	*	*	*	*	*	*	*	*	*	*	*	*	*	*	*	*	*	*	*	*	*
!	!	!LO:TX:t=....	!	!LO:TX:b:t=....	!	!	!	!	!	!	!	!	!	!	!	!	!	!	!	!	!	!	!	!	!	!	!
4r	.	8f'\L	.	8a-'/L	.	8dd'\	.	.	.	.	.	.	.	.	.	.	.	.	.	.	.	.	.	.	.	.	.
.	.	8f'\	.	8a-'/	.	8dd'\	.	.	.	.	.	.	.	.	.	.	.	.	.	.	.	.	.	.	.	.	.
4r	.	8f'\	.	8a-'/	.	8dd'\	.	.	.	.	.	.	.	.	.	.	.	.	.	.	.	.	.	.	.	.	.
.	.	8f'\J	.	8a-'/J	.	8dd'\J	.	.	.	.	.	.	.	.	.	.	.	.	.	.	.	.	.	.	.	.	.
*	*	*Xtremolo	*	*Xtremolo	*	*	*	*	*	*	*	*	*	*	*	*	*	*	*	*	*	*	*	*	*	*	*
=72	=72	=72	=72	=72	=72	=72	=72	=72	=72	=72	=72	=72	=72	=72	=72	=72	=72	=72	=72	=72	=72	=72	=72	=72	=72	=72	=72
4E-\	.	8r	.	8r	.	8r	.	2.E-\	-ctum	.	2.g\	-ctum	.	2.b-\	-ctum	.	2.ee-\	-ctum	.	2.e-\	.	2.g\	.	0.r	.	0.r	.
*	*	*	*	*	*	*	*	*	*Xij	*	*	*Xij	*	*	*	*	*	*	*	*	*	*	*	*	*	*	*
.	.	8g'\	.	8b-'/	.	8ee-'\L	.	.	.	.	.	.	.	.	.	.	.	.	.	.	.	.	.	.	.	.	.
*	*	*tremolo	*	*tremolo	*	*	*	*	*	*	*	*	*	*	*	*	*	*	*	*	*	*	*	*	*	*	*
!	!	!LO:TX:t=....	!	!LO:TX:b:t=....	!	!	!	!	!	!	!	!	!	!	!	!	!	!	!	!	!	!	!	!	!	!	!
4r	.	8g'\L	.	8b-'/L	.	8ee-'\	.	.	.	.	.	.	.	.	.	.	.	.	.	.	.	.	.	.	.	.	.
.	.	8g'\	.	8b-'/	.	8ee-'\	.	.	.	.	.	.	.	.	.	.	.	.	.	.	.	.	.	.	.	.	.
4r	.	8g'\	.	8b-'/	.	8ee-'\	.	.	.	.	.	.	.	.	.	.	.	.	.	.	.	.	.	.	.	.	.
.	.	8g'\J	.	8b-'/J	.	8ee-'\J	.	.	.	.	.	.	.	.	.	.	.	.	.	.	.	.	.	.	.	.	.
*	*	*Xtremolo	*	*Xtremolo	*	*	*	*	*	*	*	*	*	*	*	*	*	*	*	*	*	*	*	*	*	*	*
!	!	!	!	!	!	!	!	!LO:PB:g=original	!	!	!	!	!	!	!	!	!	!	!	!	!	!	!	!	!	!	!
=73	=73	=73	=73	=73	=73	=73	=73	=73	=73	=73	=73	=73	=73	=73	=73	=73	=73	=73	=73	=73	=73	=73	=73	=73	=73	=73	=73
4B-\	.	8r	.	8r	.	8r	.	2.B-\	tu-	.	2.d\	tu-	.	2.f\	tu-	.	2.a-\	tu-	.	2.f\	.	2.a-\	.	.	.	.	.
.	.	8d'\	.	8f'/	.	8a-'/L	.	.	.	.	.	.	.	.	.	.	.	.	.	.	.	.	.	.	.	.	.
*	*	*tremolo	*	*tremolo	*	*	*	*	*	*	*	*	*	*	*	*	*	*	*	*	*	*	*	*	*	*	*
!	!	!LO:TX:t=....	!	!LO:TX:b:t=....	!	!	!	!	!	!	!	!	!	!	!	!	!	!	!	!	!	!	!	!	!	!	!
4r	.	8d'\L	.	8f'/L	.	8a-'/	.	.	.	.	.	.	.	.	.	.	.	.	.	.	.	.	.	.	.	.	.
.	.	8d'\	.	8f'/	.	8a-'/	.	.	.	.	.	.	.	.	.	.	.	.	.	.	.	.	.	.	.	.	.
4r	.	8d'\	.	8f'/	.	8a-'/	.	.	.	.	.	.	.	.	.	.	.	.	.	.	.	.	.	.	.	.	.
.	.	8d'\J	.	8f'/J	.	8a-'/J	.	.	.	.	.	.	.	.	.	.	.	.	.	.	.	.	.	.	.	.	.
*	*	*Xtremolo	*	*Xtremolo	*	*	*	*	*	*	*	*	*	*	*	*	*	*	*	*	*	*	*	*	*	*	*
=74	=74	=74	=74	=74	=74	=74	=74	=74	=74	=74	=74	=74	=74	=74	=74	=74	=74	=74	=74	=74	=74	=74	=74	=74	=74	=74	=74
4E-\	.	8r	.	8r	.	8r	.	2.E-\	-um	.	2.B-\	-um	.	2.e-\	-um	.	2.g\	-um	.	2.e-\	.	2.g\	.	.	.	.	.
.	.	8B-'/	.	8e-'/	.	8g'/L	.	.	.	.	.	.	.	.	.	.	.	.	.	.	.	.	.	.	.	.	.
*	*	*tremolo	*	*tremolo	*	*	*	*	*	*	*	*	*	*	*	*	*	*	*	*	*	*	*	*	*	*	*
!	!	!LO:TX:b:t=....	!	!LO:TX:b:t=....	!	!	!	!	!	!	!	!	!	!	!	!	!	!	!	!	!	!	!	!	!	!	!
4r	.	8B-'/L	.	8e-'/L	.	8g'/	.	.	.	.	.	.	.	.	.	.	.	.	.	.	.	.	.	.	.	.	.
.	.	8B-'/	.	8e-'/	.	8g'/	.	.	.	.	.	.	.	.	.	.	.	.	.	.	.	.	.	.	.	.	.
4r	.	8B-'/	.	8e-'/	.	8g'/	.	.	.	.	.	.	.	.	.	.	.	.	.	.	.	.	.	.	.	.	.
.	.	8B-'/J	.	8e-'/J	.	8g'/J	.	.	.	.	.	.	.	.	.	.	.	.	.	.	.	.	.	.	.	.	.
*	*	*Xtremolo	*	*Xtremolo	*	*	*	*	*	*	*	*	*	*	*	*	*	*	*	*	*	*	*	*	*	*	*
!	!	!	!	!	!	!	!	!	!	!	!	!	!	!LO:LB:g=original	!	!	!	!	!	!	!	!	!	!	!	!	!
=75	=75	=75	=75	=75	=75	=75	=75	=75	=75	=75	=75	=75	=75	=75	=75	=75	=75	=75	=75	=75	=75	=75	=75	=75	=75	=75	=75
4A-\	.	8r	.	8r	.	8r	.	2.A-\	ne	.	2.e-\	ne	.	2.a-\	ne	.	2.cc\	ne	.	2.e-\	.	2.a-\	.	.	.	.	.
.	.	8e-'\	.	8a-'/	.	8cc'\L	.	.	.	.	.	.	.	.	.	.	.	.	.	.	.	.	.	.	.	.	.
*	*	*tremolo	*	*tremolo	*	*	*	*	*	*	*	*	*	*	*	*	*	*	*	*	*	*	*	*	*	*	*
!	!	!LO:TX:t=....	!	!LO:TX:b:t=....	!	!	!	!	!	!	!	!	!	!	!	!	!	!	!	!	!	!	!	!	!	!	!
4r	.	8e-'\L	.	8a-'/L	.	8cc'\	.	.	.	.	.	.	.	.	.	.	.	.	.	.	.	.	.	.	.	.	.
.	.	8e-'\	.	8a-'/	.	8cc'\	.	.	.	.	.	.	.	.	.	.	.	.	.	.	.	.	.	.	.	.	.
4r	.	8e-'\	.	8a-'/	.	8cc'\	.	.	.	.	.	.	.	.	.	.	.	.	.	.	.	.	.	.	.	.	.
.	.	8e-'\J	.	8a-'/J	.	8cc'\J	.	.	.	.	.	.	.	.	.	.	.	.	.	.	.	.	.	.	.	.	.
*	*	*Xtremolo	*	*Xtremolo	*	*	*	*	*	*	*	*	*	*	*	*	*	*	*	*	*	*	*	*	*	*	*
!	!	!	!	!	!	!LO:LB:g=original	!	!	!	!	!	!	!	!	!	!	!	!	!	!	!	!	!	!	!	!	!
=76	=76	=76	=76	=76	=76	=76	=76	=76	=76	=76	=76	=76	=76	=76	=76	=76	=76	=76	=76	=76	=76	=76	=76	=76	=76	=76	=76
*	*	*	*	*	*	*	*	*	*	*	*	*ij	*	*	*	*	*	*	*	*	*	*	*	*	*	*	*
4F\	.	8r	.	8r	.	8r	.	2.F\	ne	.	2.f\	ne	.	2.a-\	ne	.	2.dd\	ne	.	2.f\	.	2.a-\	.	0.r	.	0.r	.
*	*	*	*	*	*	*	*	*	*	*	*	*Xij	*	*	*	*	*	*	*	*	*	*	*	*	*	*	*
.	.	8f'\	.	8a-'/	.	8dd'\	.	.	.	.	.	.	.	.	.	.	.	.	.	.	.	.	.	.	.	.	.
*	*	*tremolo	*	*tremolo	*	*tremolo	*	*	*	*	*	*	*	*	*	*	*	*	*	*	*	*	*	*	*	*	*
!	!	!LO:TX:t=....	!	!LO:TX:b:t=....	!	!LO:TX:t=....	!	!	!	!	!	!	!	!	!	!	!	!	!	!	!	!	!	!	!	!	!
4r	.	8f'\L	.	8a-'/L	.	8dd'\L	.	.	.	.	.	.	.	.	.	.	.	.	.	.	.	.	.	.	.	.	.
.	.	8f'\	.	8a-'/	.	8dd'\	.	.	.	.	.	.	.	.	.	.	.	.	.	.	.	.	.	.	.	.	.
4r	.	8f'\	.	8a-'/	.	8dd'\	.	.	.	.	.	.	.	.	.	.	.	.	.	.	.	.	.	.	.	.	.
.	.	8f'\J	.	8a-'/J	.	8dd'\J	.	.	.	.	.	.	.	.	.	.	.	.	.	.	.	.	.	.	.	.	.
*	*	*Xtremolo	*	*Xtremolo	*	*Xtremolo	*	*	*	*	*	*	*	*	*	*	*	*	*	*	*	*	*	*	*	*	*
!LO:LB:g=original	!	!	!	!	!	!	!	!	!	!	!	!	!	!	!	!	!	!	!	!LO:LB:g=original	!	!	!	!	!	!	!
=77	=77	=77	=77	=77	=77	=77	=77	=77	=77	=77	=77	=77	=77	=77	=77	=77	=77	=77	=77	=77	=77	=77	=77	=77	=77	=77	=77
4G\	.	8r	.	8r	.	8r	.	2.G\	au-	.	2.B-\	au-	.	2.g\	au-	.	2.ee-\	au-	.	2.g\	.	2.b-\	.	.	.	.	.
.	.	8b-'\	.	8g'/	.	8ee-'\	.	.	.	.	.	.	.	.	.	.	.	.	.	.	.	.	.	.	.	.	.
*	*	*tremolo	*	*tremolo	*	*tremolo	*	*	*	*	*	*	*	*	*	*	*	*	*	*	*	*	*	*	*	*	*
!	!	!LO:TX:t=....	!	!LO:TX:b:t=....	!	!LO:TX:t=....	!	!	!	!	!	!	!	!	!	!	!	!	!	!	!	!	!	!	!	!	!
4r	.	8b-'\L	.	8g'/L	.	8ee-'\L	.	.	.	.	.	.	.	.	.	.	.	.	.	.	.	.	.	.	.	.	.
.	.	8b-'\	.	8g'/	.	8ee-'\	.	.	.	.	.	.	.	.	.	.	.	.	.	.	.	.	.	.	.	.	.
4r	.	8b-'\	.	8g'/	.	8ee-'\	.	.	.	.	.	.	.	.	.	.	.	.	.	.	.	.	.	.	.	.	.
.	.	8b-'\J	.	8g'/J	.	8ee-'\J	.	.	.	.	.	.	.	.	.	.	.	.	.	.	.	.	.	.	.	.	.
*	*	*Xtremolo	*	*Xtremolo	*	*Xtremolo	*	*	*	*	*	*	*	*	*	*	*	*	*	*	*	*	*	*	*	*	*
!	!	!	!	!	!	!	!	!	!	!	!LO:LB:g=original	!	!	!	!	!	!	!	!	!	!	!	!	!	!	!	!
=78	=78	=78	=78	=78	=78	=78	=78	=78	=78	=78	=78	=78	=78	=78	=78	=78	=78	=78	=78	=78	=78	=78	=78	=78	=78	=78	=78
4A-\	.	8r	.	8r	.	8r	.	2.A-\	-fe-	.	2.c\	-fe-	.	2.f\	-fe-	.	2.a-\	-fe-	.	2.f\	.	2.a-\	.	.	.	.	.
.	.	8cc'\	.	8f'/	.	8a-'/L	.	.	.	.	.	.	.	.	.	.	.	.	.	.	.	.	.	.	.	.	.
*	*	*tremolo	*	*tremolo	*	*	*	*	*	*	*	*	*	*	*	*	*	*	*	*	*	*	*	*	*	*	*
!	!	!LO:TX:t=....	!	!LO:TX:b:t=....	!	!	!	!	!	!	!	!	!	!	!	!	!	!	!	!	!	!	!	!	!	!	!
4r	.	8cc'\L	.	8f'/L	.	8a-'/	.	.	.	.	.	.	.	.	.	.	.	.	.	.	.	.	.	.	.	.	.
.	.	8cc'\	.	8f'/	.	8a-'/	.	.	.	.	.	.	.	.	.	.	.	.	.	.	.	.	.	.	.	.	.
4r	.	8cc'\	.	8f'/	.	8a-'/	.	.	.	.	.	.	.	.	.	.	.	.	.	.	.	.	.	.	.	.	.
.	.	8cc'\J	.	8f'/J	.	8a-'/J	.	.	.	.	.	.	.	.	.	.	.	.	.	.	.	.	.	.	.	.	.
*	*	*Xtremolo	*	*Xtremolo	*	*	*	*	*	*	*	*	*	*	*	*	*	*	*	*	*	*	*	*	*	*	*
=79	=79	=79	=79	=79	=79	=79	=79	=79	=79	=79	=79	=79	=79	=79	=79	=79	=79	=79	=79	=79	=79	=79	=79	=79	=79	=79	=79
4B-\	.	8r	.	8r	.	8r	.	2B-\	-raſs	.	2B-\	-ras	.	2e-\	-ras	.	2g\	-ras	.	2.e-\	.	2.g\	.	.	.	.	.
!	!	!LO:LB:g=original	!	!	!	!	!	!	!	!	!	!	!	!	!	!	!	!	!	!	!	!	!	!	!	!	!
!	!	!LO:TX:t=P:problem:mixed beam	!	!	!	!	!	!	!	!	!	!	!	!	!	!	!	!	!	!	!	!	!	!	!	!	!
.	.	8b-'\L	.	8e-'/	.	8g'/L	.	.	.	.	.	.	.	.	.	.	.	.	.	.	.	.	.	.	.	.	.
*	*	*	*	*tremolo	*	*	*	*	*	*	*	*	*	*	*	*	*	*	*	*	*	*	*	*	*	*	*
!	!	!	!	!LO:TX:b:t=....	!	!	!	!	!	!	!	!	!	!	!	!	!	!	!	!	!	!	!	!	!	!	!
4r	.	8b-'\	.	8e-'/L	.	8g'/	.	.	.	.	.	.	.	.	.	.	.	.	.	.	.	.	.	.	.	.	.
.	.	8b-'\	.	8e-'/	.	8g'/	.	.	.	.	.	.	.	.	.	.	.	.	.	.	.	.	.	.	.	.	.
4r	.	8B-'/	.	8e-'/	.	8g'/	.	4B-\	a	.	4B-\	a	.	4e-\	a	.	4g\	a	.	.	.	.	.	.	.	.	.
.	.	8B-'/J	.	8e-'/J	.	8g'/J	.	.	.	.	.	.	.	.	.	.	.	.	.	.	.	.	.	.	.	.	.
*	*	*	*	*Xtremolo	*	*	*	*	*	*	*	*	*	*	*	*	*	*	*	*	*	*	*	*	*	*	*
=80	=80	=80	=80	=80	=80	=80	=80	=80	=80	=80	=80	=80	=80	=80	=80	=80	=80	=80	=80	=80	=80	=80	=80	=80	=80	=80	=80
4BB-/	.	8r	.	8r	.	8r	.	2BB-/	me	.	2d\	me	.	2A-/	me	.	2f/	me	.	2.B-/	.	2.f\	.	1.r	.	1.r	.
.	.	8A-'/	.	8B-'/	.	8f'/L	.	.	.	.	.	.	.	.	.	.	.	.	.	.	.	.	.	.	.	.	.
*	*	*tremolo	*	*tremolo	*	*	*	*	*	*	*	*	*	*	*	*	*	*	*	*	*	*	*	*	*	*	*
!	!	!LO:TX:b:t=....	!	!LO:TX:b:t=....	!	!	!	!	!	!	!	!	!	!	!	!	!	!	!	!	!	!	!	!	!	!	!
4r	.	8A-'/L	.	8B-'/L	.	8f'/	.	.	.	.	.	.	.	.	.	.	.	.	.	.	.	.	.	.	.	.	.
.	.	8A-'/	.	8B-'/	.	8f'/	.	.	.	.	.	.	.	.	.	.	.	.	.	.	.	.	.	.	.	.	.
4r	.	8A-'/	.	8B-'/	.	8f'/	.	4BB-/	a	.	4d\	a	.	4A-/	a	.	4f/	a	.	.	.	.	.	.	.	.	.
.	.	8A-'/J	.	8B-'/J	.	8f'/J	.	.	.	.	.	.	.	.	.	.	.	.	.	.	.	.	.	.	.	.	.
*	*	*Xtremolo	*	*Xtremolo	*	*	*	*	*	*	*	*	*	*	*	*	*	*	*	*	*	*	*	*	*	*	*
!	!	!	!	!LO:LB:g=original	!	!	!	!	!	!	!	!	!	!	!	!	!	!	!	!	!	!	!	!	!	!	!
=81	=81	=81	=81	=81	=81	=81	=81	=81	=81	=81	=81	=81	=81	=81	=81	=81	=81	=81	=81	=81	=81	=81	=81	=81	=81	=81	=81
!	!	!	!	!	!	!	!LO:DY:a	!	!	!	!	!	!	!	!	!	!	!	!	!	!LO:DY:rj	!	!LO:DY:rj	!	!	!	!
4E-\	.	4B-/	.	4G/	.	4e-/	f	2E-\	me	.	2B-\	me	.	2G/	me	.	2e-/	me	.	4G/	f	4e-\	f	.	.	.	.
4E-\	.	4B-/	.	4G/	.	4e-/	.	.	.	.	.	.	.	.	.	.	.	.	.	4G/	.	4e-\	.	.	.	.	.
4E-\	.	4B-/	.	4G/	.	4e-/	.	4r	.	.	4r	.	.	4r	.	.	4r	.	.	4G/	.	4e-\	.	.	.	.	.
!	!	!	!	!	!	!	!	!	!	!	!	!	!	!	!	!	!	!	!	!	!	!LO:LB:g=original	!	!	!	!	!
=82	=82	=82	=82	=82	=82	=82	=82	=82	=82	=82	=82	=82	=82	=82	=82	=82	=82	=82	=82	=82	=82	=82	=82	=82	=82	=82	=82
!	!	!	!	!	!	!	!	!LO:TX:a:t=1	!	!	!LO:TX:a:t=1	!	!	!	!	!	!LO:TX:a:t=1	!	!	!	!	!	!	!	!	!	!
2E-\	.	2B-/	.	2G/	.	2e-/	.	2.r	.	.	2.r	.	.	2.r	.	.	2.r	.	.	2G/	.	2e-\	.	2.r	.	2.r	.
!	!	!	!	!	!LO:DY:t=fort	!	!	!	!	!	!	!	!	!	!	!	!	!	!	!	!	!	!	!	!	!	!
4r	.	4r	.	4r	f	4r	.	.	.	.	.	.	.	.	.	.	.	.	.	4r	.	4r	.	.	.	.	.
!	!	!	!	!	!	!	!	!	!	!	!	!	!	!	!	!	!LO:LB:g=original	!	!	!	!	!	!	!	!	!	!
=83	=83	=83	=83	=83	=83	=83	=83	=83	=83	=83	=83	=83	=83	=83	=83	=83	=83	=83	=83	=83	=83	=83	=83	=83	=83	=83	=83
*	*	*tremolo	*	*	*	*	*	*	*	*	*	*	*	*	*	*	*	*	*	*	*	*	*	*	*	*	*
!	!	!	!	!	!	!LO:TX:t=P:problem:mixed beam	!	!	!	!LO:DY:a	!	!	!LO:DY:a	!	!	!	!LO:TX:t=P:problem:mixed beam	!	!LO:DY:a:t=f&colon;	!	!	!	!LO:DY:rj:t=fort	!	!	!	!
4B-\	.	8b-\L	ff	8B-/L	.	8d/L	.	4D\	Red-	f	(4F/	Red-	f	8B-/L	Red-	.	8d/L	Red-	f	8B-/L	f	4f\	f	4dd\	f	4ff\	f
.	.	8b-\	.	8d/J	.	8b-\J	.	.	.	.	.	.	.	8d/J	.	.	8b-\J	.	.	16B-/L	.	.	.	.	.	.	.
.	.	.	.	.	.	.	.	.	.	.	.	.	.	.	.	.	.	.	.	16B-/JJ	.	.	.	.	.	.	.
4BB-/	.	8b-\	.	4d/	.	4b-\	.	4E-\	.	.	4G/)	.	.	4d/	-de	.	4b-\	-de	.	4B-/	.	4g\	.	4ee-\	.	4gg\	.
.	.	8b-\	.	.	.	.	.	.	.	.	.	.	.	.	.	.	.	.	.	.	.	.	.	.	.	.	.
4r	.	8b-\	.	4r	.	4r	.	4C/	-de	.	4E-/	-de	.	4r	.	.	4r	.	.	4B-/	.	4e-\	.	4cc\	.	4ee-\	.
.	.	8b-\J	.	.	.	.	.	.	.	.	.	.	.	.	.	.	.	.	.	.	.	.	.	.	.	.	.
=84	=84	=84	=84	=84	=84	=84	=84	=84	=84	=84	=84	=84	=84	=84	=84	=84	=84	=84	=84	=84	=84	=84	=84	=84	=84	=84	=84
!	!	!	!	!	!	!	!	!	!	!	!LO:TX:t=P:problem:mixed beam	!	!	!	!	!	!	!	!	!	!	!	!	!	!	!	!
4BB-/	.	8b-\L	.	4d/	.	4f/	.	8BB-/L	mi-	.	8D/L	mi-	.	(4d\	red-	.	(4f/	red-	.	2.B-/	.	8f\L	.	8b-\L	.	8dd\L	.
.	.	8b-\	.	.	.	.	.	8D/J	.	.	8B-\J	.	.	.	.	.	.	.	.	.	.	8b-\J	.	8dd\J	.	8bb-\J	.
!	!	!	!	!	!	!	!	!	!	!	!	!	!	!	!	!	!	!	!	!	!	!	!	!LO:LB:g=original	!	!	!
4E-\	.	8b-\	.	4e-/	.	4g/	.	4D/	-hi	.	4B-\	-hi	.	4e-\)	.	.	4g/)	.	.	.	.	4b-\	.	4dd\	.	4bb-\	.
.	.	8b-\	.	.	.	.	.	.	.	.	.	.	.	.	.	.	.	.	.	.	.	.	.	.	.	.	.
4F\	.	8b-\	.	4c/	.	4e-/	.	4r	.	.	4r	.	.	4c\	-de	.	4e-/	-de	.	.	.	4r	.	4r	.	4r	.
.	.	8b-\J	.	.	.	.	.	.	.	.	.	.	.	.	.	.	.	.	.	.	.	.	.	.	.	.	.
!	!	!	!	!	!	!	!	!	!	!	!	!	!	!	!	!	!	!	!	!	!	!	!	!	!	!LO:LB:g=original	!
=85	=85	=85	=85	=85	=85	=85	=85	=85	=85	=85	=85	=85	=85	=85	=85	=85	=85	=85	=85	=85	=85	=85	=85	=85	=85	=85	=85
!	!	!	!	!	!	!LO:TX:t=P:problem:mixed beam	!	!	!	!	!	!	!	!	!	!	!LO:TX:t=P:problem:mixed beam	!	!	!	!	!	!	!	!	!	!
4B-\	.	8b-\L	.	8B-/L	.	8d/L	.	(4D\	Red-	.	(4F/	red-	.	8B-/L	mi-	.	8d/L	mi-	.	2.B-/	.	4f\	.	4dd\	.	4ff\	.
.	.	8b-\	.	8d/J	.	8b-\J	.	.	.	.	.	.	.	8d/J	.	.	8b-\J	.	.	.	.	.	.	.	.	.	.
4BB-/	.	8b-\	.	4d/	.	4b-\	.	4E-\)	.	.	4G/)	.	.	4d\	-hi	.	4b-\	-hi	.	.	.	4g\	.	4ee-\	.	4gg\	.
.	.	8b-\	.	.	.	.	.	.	.	.	.	.	.	.	.	.	.	.	.	.	.	.	.	.	.	.	.
4r	.	8b-\	.	4r	.	4r	.	4C/	-de	.	4E-/	-de	.	4r	.	.	4r	.	.	.	.	4e-\	.	4cc\	.	4ee-\	.
.	.	8b-\J	.	.	.	.	.	.	.	.	.	.	.	.	.	.	.	.	.	.	.	.	.	.	.	.	.
=86	=86	=86	=86	=86	=86	=86	=86	=86	=86	=86	=86	=86	=86	=86	=86	=86	=86	=86	=86	=86	=86	=86	=86	=86	=86	=86	=86
!	!	!	!	!	!	!	!	!	!	!	!LO:TX:t=P:problem:mixed beam	!	!	!	!	!	!	!	!	!	!	!	!	!	!	!	!
4BB-/	.	8b-\L	.	4d/	.	4f/	.	8BB-/L	mi-	.	8D/L	mi-	.	(4d\	red-	.	(4f/	red-	.	2.B-/	.	8f\L	.	8b-\L	.	8dd\L	.
.	.	8b-\	.	.	.	.	.	8D/J	.	.	8B-\J	.	.	.	.	.	.	.	.	.	.	8b-\J	.	8dd\J	.	8bb-\J	.
4E-\	.	8b-\	.	4e-/	.	4g/	.	4D/	-hi	.	4B-\	-hi	.	4e-\)	.	.	4g/)	.	.	.	.	4b-\	.	4dd\	.	4bb-\	.
.	.	8b-\	.	.	.	.	.	.	.	.	.	.	.	.	.	.	.	.	.	.	.	.	.	.	.	.	.
4F\	.	8b-\	.	4c/	.	4e-/	.	4r	.	.	4r	.	.	4c\	-de	.	4e-/	-de	.	.	.	4r	.	4r	.	4r	.
.	.	8b-\J	.	.	.	.	.	.	.	.	.	.	.	.	.	.	.	.	.	.	.	.	.	.	.	.	.
*	*	*Xtremolo	*	*	*	*	*	*	*	*	*	*	*	*	*	*	*	*	*	*	*	*	*	*	*	*	*
!	!	!	!	!	!	!LO:LB:g=original	!	!	!	!	!	!	!	!	!	!	!	!	!	!	!	!	!	!	!	!	!
=87	=87	=87	=87	=87	=87	=87	=87	=87	=87	=87	=87	=87	=87	=87	=87	=87	=87	=87	=87	=87	=87	=87	=87	=87	=87	=87	=87
!	!	!	!	!	!	!	!	!	!	!	!	!	!	!LO:TX:t=P:problem:mixed beam	!	!	!LO:TX:t=P:problem:mixed beam	!	!	!	!	!	!	!	!	!	!
4B-\	.	8b-\L	.	8B-/L	.	8d/L	.	4BB-/	mi-	.	8F/L	mi-	.	8B-/L	mi-	.	8d/L	mi-	.	8B-/L	.	8f\L	.	8dd\L	.	8ff\L	.
.	.	8b-\J	.	8f/J	.	8a-X/J	.	.	.	.	8G/J	.	.	8f\J	.	.	8a-X\J	.	.	8B-/J	.	8f\J	.	8ee-\J	.	8gg\J	.
4BB-/	.	4b-\	.	4f/	.	4a-/	.	4B-\	-hi	.	4A-/	-hi	.	4f\	-hi	.	4a-\	-hi	.	4B-/	.	4f\	.	4ff\	.	4aa-X\	.
4r	.	4r	.	4r	f	8r	.	4r	.	.	4r	.	.	4r	.	.	4r	.	.	4r	.	4r	.	4r	.	4r	.
!	!	!	!	!	!	!	!LO:DY:a:t=f&colon;	!	!	!	!	!	!	!	!	!	!	!	!	!	!	!	!	!	!	!	!
.	.	.	.	.	.	16f/LL	f	.	.	.	.	.	.	.	.	.	.	.	.	.	.	.	.	.	.	.	.
.	.	.	.	.	.	16g/JJ	.	.	.	.	.	.	.	.	.	.	.	.	.	.	.	.	f	.	.	.	.
!	!	!	!	!	!	!	!	!LO:LB:g=original	!	!	!	!	!	!LO:LB:g=original	!	!	!	!	!	!	!	!	!	!	!	!	!
=88	=88	=88	=88	=88	=88	=88	=88	=88	=88	=88	=88	=88	=88	=88	=88	=88	=88	=88	=88	=88	=88	=88	=88	=88	=88	=88	=88
!	!LO:DY:rj	!	!LO:DY:rj	!	!	!	!	!	!	!	!	!	!	!	!	!	!	!	!	!	!LO:DY:rj	!	!	!	!	!	!
8BB-/L	f	(8A-X/L	f	(8d/L	.	8a-/L	.	2.BB-/	lae-	.	2.A-\	lae-	.	2.f\	lae-	.	2.dd\	lae-	.	4f\	f	4a-\	.	4a-/	f	4ff\	f
8BB-/	.	8B-/)	.	8f/)	.	8f/	.	.	.	.	.	.	.	.	.	.	.	.	.	.	.	.	.	.	.	.	.
8D/	.	(8A-/	.	(8d/	.	(8d/	.	.	.	.	.	.	.	.	.	.	.	.	.	4B-/	.	4f\	.	8r	.	8r	.
8D/	.	8B-/)	.	8f/)	.	8B-/	.	.	.	.	.	.	.	.	.	.	.	.	.	.	.	.	.	8a-/L	.	8ff\L	.
8BB-/	.	(8A-/	.	(8d/	.	8An/)	.	.	.	.	.	.	.	.	.	.	.	.	.	4f\	.	4a-\	.	8f/	.	8dd\	.
8BB-/J	.	8B-/J)	.	8f/J)	.	8B-/J	.	.	.	.	.	.	.	.	.	.	.	.	.	.	.	.	.	8a-/J	.	8ff\J	.
=89	=89	=89	=89	=89	=89	=89	=89	=89	=89	=89	=89	=89	=89	=89	=89	=89	=89	=89	=89	=89	=89	=89	=89	=89	=89	=89	=89
!	!	!	!	!	!LO:DY:rj	!	!LO:DY:a:t=p&colon;	!	!	!	!	!	!	!	!	!	!	!	!	!	!	!	!	!	!	!	!
8E-\L	p	(8G/L	p	(8e-/L	p	8G/L	p	4.E-\	-ti-	.	4.B-\	-ti-	.	4.g\	-ti-	.	4.ee-\	-ti-	.	4e-\	p	4g\	p	4g/	p	4ee-\	p
8E-\	.	8B-/)	.	8g/)	.	(8B-/	.	.	.	.	.	.	.	.	.	.	.	.	.	.	.	.	.	.	.	.	.
8BB-\	.	(8G/	.	(8e-/	.	8e-/	.	.	.	.	.	.	.	.	.	.	.	.	.	8r	.	8r	.	8r	.	8r	.
8BB-\	.	8B-/)	.	8g/)	.	8g/	.	8E-\	-ti-	.	8B-\	-ti-	.	8g\	-ti-	.	8ee-\	-ti-	.	8g\L	.	8b-\L	.	8b-/L	.	8gg\L	.
8E-\	.	(8G/	.	(8e-/	.	8b-/)	.	4E-\	-am	.	4B-\	-am	.	4g\	-am	.	4ee-\	-am	.	8f\	.	8a-\	.	8a-/	.	8ff\	.
8E-\J	.	8B-/J)	.	8g/J)	.	8ee-/J	.	.	.	.	.	.	.	.	.	.	.	.	.	8e-\J	.	8g\J	.	8g/J	.	8ee-\J	.
!LO:LB:g=original	!	!	!	!	!	!	!	!	!	!	!	!	!	!	!	!	!	!	!	!	!	!	!	!	!	!	!
=90	=90	=90	=90	=90	=90	=90	=90	=90	=90	=90	=90	=90	=90	=90	=90	=90	=90	=90	=90	=90	=90	=90	=90	=90	=90	=90	=90
!	!	!	!LO:DY:rj	!	!LO:DY:rj	!	!LO:DY:a:t=f&colon;	!	!	!	!	!	!	!	!	!	!	!	!	!	!LO:DY:rj	!	!	!	!	!	!
8BB-/L	f	8A-/L	f	(8d/L	f	8a-X/L	f	2B-\	Sa-	.	2A-\	Sa-	.	2f\	Sa-	.	2dd\	Sa-	.	4f\	f	4a-\	f	4a-/	f	4ff\	f
8BB-/	.	8B-/	.	8f/)	.	8f/	.	.	.	.	.	.	.	.	.	.	.	.	.	.	.	.	.	.	.	.	.
8D/	.	8A-/	.	(8d/	.	(8d/	.	.	.	.	.	.	.	.	.	.	.	.	.	4B-/	.	4f\	.	8r	.	8r	.
8D/	.	8B-/	.	8f/)	.	8B-/	.	.	.	.	.	.	.	.	.	.	.	.	.	.	.	.	.	8a-/L	.	8ff\L	.
8BB-/	.	8A-/	.	(8d/	.	8An/)	.	4B-\	-lu-	.	4A-\	-lu-	.	4f\	-lu-	.	4dd\	-lu-	.	4f\	.	4a-\	.	8f/	.	8dd\	.
8BB-/J	.	8B-/J	.	8f/J)	.	8B-/J	.	.	.	.	.	.	.	.	.	.	.	.	.	.	.	.	.	8a-/J	.	8ff\J	.
!	!	!LO:LB:g=original	!	!	!	!	!	!	!	!	!LO:LB:g=original	!	!	!	!	!	!	!	!	!	!	!	!	!	!	!	!
=91	=91	=91	=91	=91	=91	=91	=91	=91	=91	=91	=91	=91	=91	=91	=91	=91	=91	=91	=91	=91	=91	=91	=91	=91	=91	=91	=91
!	!	!	!	!	!LO:DY:rj	!	!LO:DY:a:t=p&colon;	!	!	!	!	!	!	!	!	!	!	!	!	!	!	!	!	!	!	!	!
8E-\L	p	8G/L	p	(8e-/L	p	8G/L	p	2E-\	-ta-	.	2B-\	-ta-	.	2g\	-ta-	.	2ee-\	-ta-	.	4e-\	p	4g\	p	4g/	.	4ee-\	p
8E-\	.	8B-/	.	8g/)	.	(8B-/	.	.	.	.	.	.	.	.	.	.	.	.	.	.	.	.	.	.	.	.	.
8BB-\	.	8G/	.	(8e-/	.	8e-/	.	.	.	.	.	.	.	.	.	.	.	.	.	8r	.	8r	.	8r	.	8r	.
8BB-\	.	8B-/	.	8g/)	.	8g/	.	.	.	.	.	.	.	.	.	.	.	.	.	8g\L	.	8b-\L	.	8e-/L	.	8g/L	.
8E-\	.	8G/	.	(8e-/	.	8b-/	.	4E-\	-ris	.	4B-\	-ris	.	4g\	-ris	.	4ee-\	-ris	.	8f\	.	8a-\	.	8f/	.	8a-/	.
8E-\J	.	8B-/J	.	8g/J)	.	8ee-/J)	.	.	.	.	.	.	.	.	.	.	.	.	.	8e-\J	.	8g\J	.	8g/J	.	8b-/J	.
!	!	!	!	!LO:LB:g=original	!	!	!	!	!	!	!	!	!	!	!	!	!	!	!	!LO:LB:g=original	!	!	!	!	!	!	!
=92	=92	=92	=92	=92	=92	=92	=92	=92	=92	=92	=92	=92	=92	=92	=92	=92	=92	=92	=92	=92	=92	=92	=92	=92	=92	=92	=92
!	!	!	!	!	!LO:DY:rj	!	!LO:DY:a:t=f&colon;	!	!	!	!	!	!	!	!	!	!	!	!	!	!	!	!	!	!	!	!
8A-\L	f	(8e-\L	f	(8A-/L	f	(8cc/L	f	(4A-\	tu-	.	2.e-\	tu-	.	(4a-\	tu-	.	(4cc\	tu-	.	8e-\L	f	8a-\L	f	4a-/	f	4cc\	f
8A-\	.	8a-\)	.	8c/)	.	8e-/)	.	.	.	.	.	.	.	.	.	.	.	.	.	16e-\L	.	16a-\L	.	.	.	.	.
.	.	.	.	.	.	.	.	.	.	.	.	.	.	.	.	.	.	.	.	16e-\JJ	.	16a-\JJ	.	.	.	.	.
8c\	.	(8e-\	.	(8A-/	.	(8a-X/	.	4c\	.	.	.	.	.	4cc\)	.	.	4a-\	.	.	8e-\L	.	8a-\L	.	4cc/	.	4ee-\	.
8c\	.	8a-\)	.	8c/)	.	8e-/)	.	.	.	.	.	.	.	.	.	.	.	.	.	8e-\	.	8a-\	.	.	.	.	.
8A-\	.	(8e-\	.	(8A-/	.	(8cc/	.	4A-\)	.	.	.	.	.	4a-\	.	.	4cc\)	.	.	8e-\	.	8a-\	.	4a-/	.	4cc\	.
8A-\J	.	8a-\J)	.	8c/J)	.	8e-/J)	.	.	.	.	.	.	.	.	.	.	.	.	.	8e-\J	.	8a-\J	.	.	.	.	.
!	!	!	!	!	!	!	!	!	!	!	!	!	!	!	!	!	!LO:LB:g=original	!	!	!	!	!	!	!	!	!	!
=93	=93	=93	=93	=93	=93	=93	=93	=93	=93	=93	=93	=93	=93	=93	=93	=93	=93	=93	=93	=93	=93	=93	=93	=93	=93	=93	=93
!	!	!	!	!	!LO:DY:rj	!LO:TX:t=P:problem:mixed beam	!LO:DY:a:t=p&colon;	!	!	!	!	!	!	!	!	!	!	!	!	!	!	!	!	!	!	!	!
4E-\	p	(8g\L	p	(8G/L	p	(8b-/L	p	4G\	-i	.	4e-\	-i	.	4g\	-i	.	4b-\	-i	.	4e-\	p	4g\	p	4g/	p	4b-/	p
.	.	8b-\)	.	8B-/)	.	8e-/)	.	.	.	.	.	.	.	.	.	.	.	.	.	.	.	.	.	.	.	.	.
8r	.	(8f\	.	(8A-/	.	(8d/	.	4r	.	.	4r	.	.	4r	.	.	4r	.	.	4r	.	4r	.	8r	.	8r	.
8E-\L	.	8a-\)	.	8B-/)	.	8a-/)	.	.	.	.	.	.	.	.	.	.	.	.	.	.	.	.	.	8f/L	.	8a-/L	.
8F\	.	(8e-\	.	(8G/	.	(8g/	.	4E-\	et	.	4e-\	Et	.	8e-\L	et	.	8g\L	et	.	4e-\	.	4g\	.	8e-/	.	8g/	.
8G\J	.	8g\J)	.	8B-/J)	.	8ee-\J)	.	.	.	.	.	.	.	8g\J	.	.	8b-\J	.	.	.	.	.	.	8g/J	.	8b-/J	.
=94	=94	=94	=94	=94	=94	=94	=94	=94	=94	=94	=94	=94	=94	=94	=94	=94	=94	=94	=94	=94	=94	=94	=94	=94	=94	=94	=94
!	!	!	!	!	!LO:DY:rj	!	!LO:DY:a:t=f&colon;	!	!	!	!	!	!	!	!	!	!	!	!	!	!LO:DY:rj	!	!	!	!	!	!
8A-\L	f	(8e-\L	f	(8A-/L	f	(8cc/L	f	(4A-\	Spi-	.	2e-\	Spi-	.	(4a-\	Spi-	.	(4cc\	Spi-	.	8.e-\L	f	8a-\L	f	4a-/	f	4cc\	f
8A-\	.	8a-\)	.	8c/)	.	8e-/)	.	.	.	.	.	.	.	.	.	.	.	.	.	.	.	16a-\L	.	.	.	.	.
.	.	.	.	.	.	.	.	.	.	.	.	.	.	.	.	.	.	.	.	16e-\Jk	.	16a-\JJ	.	.	.	.	.
!	!	!	!	!	!	!	!	!	!	!	!	!	!	!	!	!	!	!	!	!	!	!LO:LB:g=original	!	!	!	!	!
8c\	.	(8e-\	.	(8A-/	.	(8a-/	.	4c\)	.	.	.	.	.	4cc\)	.	.	4a-\)	.	.	8e-\L	.	8a-\L	.	4cc/	.	4ee-\	.
8c\	.	8a-\)	.	8c/)	.	8e-/)	.	.	.	.	.	.	.	.	.	.	.	.	.	8e-\	.	8a-\	.	.	.	.	.
8A-\	.	(8e-\	.	(8A-/	.	(8cc/	.	4A-\	-ri-	.	4e-\	-ri-	.	4a-\	-ri-	.	4cc\|	-ri-	.	8e-\	.	8a-\	.	4a-/	.	4cc\	.
8A-\J	.	8a-\J)	.	8c/J)	.	8e-/J)	.	.	.	.	.	.	.	.	.	.	.	.	.	8e-\J	.	8a-\J	.	.	.	.	.
=95	=95	=95	=95	=95	=95	=95	=95	=95	=95	=95	=95	=95	=95	=95	=95	=95	=95	=95	=95	=95	=95	=95	=95	=95	=95	=95	=95
!	!	!	!	!	!LO:DY:rj	!	!LO:DY:a:t=p&colon;	!	!	!	!	!	!	!	!	!	!	!	!	!	!	!	!	!	!	!	!
4E-\	p	(8g\L	p	(8G/L	p	(8b-/L	p	4G\	-tu	.	4e-\	-tu	.	4g\	-tu	.	4b-\	-tu	.	4e-\	p	4g\	p	4g/	p	4b-/	p
.	.	8b-\)	.	8B-/)	.	8e-/)	.	.	.	.	.	.	.	.	.	.	.	.	.	.	.	.	.	.	.	.	.
8r	.	(8f\	.	(8A-/	.	(8d/	.	4r	.	.	4r	.	.	4r	.	.	4r	.	.	4r	.	4r	.	8r	.	8r	.
8E-\L	.	8a-\)	.	8B-/)	.	8a-/)	.	.	.	.	.	.	.	.	.	.	.	.	.	.	.	.	.	8f/L	.	8a-/L	.
*	*	*	*	*	*	*	*	*	*	*	*	*ij	*	*	*	*	*	*	*	*	*	*	*	*	*	*	*
8F\	.	(8e-\	.	(8G/	.	(8g/	.	4E-\	et	.	4e-\	Et	.	4g\	et	.	4b-\	et	.	4e-\	.	4g\	.	8e-/	.	8g/	.
8G\J	.	8g\J)	.	8B-/J)	.	8b-/J)	.	.	.	.	.	.	.	.	.	.	.	.	.	.	.	.	.	8g/J	.	8b-/J	.
!	!	!	!	!	!	!LO:LB:g=original	!	!	!	!	!	!	!	!	!	!	!	!	!	!	!	!	!	!LO:PB:g=original	!	!LO:PB:g=original	!
=96	=96	=96	=96	=96	=96	=96	=96	=96	=96	=96	=96	=96	=96	=96	=96	=96	=96	=96	=96	=96	=96	=96	=96	=96	=96	=96	=96
!	!	!	!LO:DY:rj	!	!LO:DY:rj	!	!LO:DY:a:t=f&colon;	!	!	!	!	!	!	!	!	!	!	!	!	!	!LO:DY:rj	!	!LO:DY:rj	!	!	!	!
8F\L	f	(8B-\L	f	(8d/L	f	(8a-/L	f	2D\	Spi-	.	2B-\	Spi-	.	(4f\	Spi-	.	4a-\	spi-	.	4f\	f	4a-\	f	(8a-/L	f	(8dd\L	f
8F\	.	8d\	.	8f/)	.	8B-/)	.	.	.	.	.	.	.	.	.	.	.	.	.	.	.	.	.	8b-/)	.	8ff\)	.
8D\	.	8f\)	.	(8B-/	.	(8f/	.	.	.	.	.	.	.	4d\)	.	.	12f/L	.	.	4B-/	.	4f\	.	(8a-/	.	(8dd\	.
.	.	.	.	.	.	.	.	.	.	.	.	.	.	.	.	.	12g/	.	.	.	.	.	.	.	.	.	.
8D\	.	8d\	.	8f/)	.	8B-/)	.	.	.	.	.	.	.	.	.	.	.	.	.	.	.	.	.	8b-/)	.	8ff\)	.
.	.	.	.	.	.	.	.	.	.	.	.	.	.	.	.	.	12f/J	.	.	.	.	.	.	.	.	.	.
8BB-\	.	(8B-\	.	(8d/	.	(8a-/	.	4D\	-ri-	.	4B-\	-ri-	.	4f\	-ri-	.	12a-\L	-ri-	.	4f\	.	4a-\	.	(8a-/	.	(8dd\	.
.	.	.	.	.	.	.	.	.	.	.	.	.	.	.	.	.	12b-\	.	.	.	.	.	.	.	.	.	.
8BB-\J	.	8d\J)	.	8f/J)	.	8B-/J)	.	.	.	.	.	.	.	.	.	.	.	.	.	.	.	.	.	8b-/J)	.	8ff\J)	.
.	.	.	.	.	.	.	.	.	.	.	.	.	.	.	.	.	12a-\J	.	.	.	.	.	.	.	.	.	.
=97	=97	=97	=97	=97	=97	=97	=97	=97	=97	=97	=97	=97	=97	=97	=97	=97	=97	=97	=97	=97	=97	=97	=97	=97	=97	=97	=97
!	!	!	!	!	!LO:DY:rj	!	!LO:DY:a:t=p&colon;	!	!	!	!	!	!	!	!	!	!	!	!	!	!	!	!	!	!	!	!
4E-\	p	(8B-\L	p	(8e-/L	p	8g/L	p	4E-\	-tu	.	4B-\	-tu	.	4e-\	-tu	.	4g\	-tu	.	4e-\	p	4g\	p	(8g/L	p	(8ee-\L	p
*	*	*	*	*	*	*	*	*	*	*	*	*Xij	*	*	*	*	*	*	*	*	*	*	*	*	*	*	*
.	.	8e-\	.	8g/)	.	16b-/L	.	.	.	.	.	.	.	.	.	.	.	.	.	.	.	.	.	8b-/)	.	8gg\)	.
.	.	.	.	.	.	16dd/JJ	.	.	.	.	.	.	.	.	.	.	.	.	.	.	.	.	.	.	.	.	.
4r	.	8g\	.	(8B-/	.	8ee-\L	.	4r	.	.	4r	.	.	4r	.	.	4r	.	.	8r	.	4r	.	(8g/	.	(8ee-\	.
.	.	8e-\)	.	8g/)	.	(8b-\	.	.	.	.	.	.	.	.	.	.	.	.	.	8e-\L	.	.	.	8b-/)	.	8gg\)	.
4E-\	.	(8B-\	.	(8e-/	.	8g\	.	8E-\	Prin-	.	8B-\	Prin-	.	8g\	prin-	.	8b-\	prin-	.	8B-\	.	4g\	.	(8g/	.	(8ee-\	.
.	.	8e-\J)	.	8g/J)	.	8e-\J)	.	8E-\	-ci-	.	8B-\	-ci-	.	8e-\	-ci-	.	8g\	-ci-	.	8e-\J	.	.	.	8b-/J)	.	8gg\J)	.
=98	=98	=98	=98	=98	=98	=98	=98	=98	=98	=98	=98	=98	=98	=98	=98	=98	=98	=98	=98	=98	=98	=98	=98	=98	=98	=98	=98
!	!	!	!LO:DY:rj	!	!LO:DY:rj	!	!LO:DY:a:t=f&colon;	!	!	!	!	!	!	!	!	!	!	!	!	!	!	!	!LO:DY:rj	!	!	!	!
8F\L	f	(8B-\L	f	(8d/L	f	(8a-/L	f	[2D\	-pa-	.	2.B-\	-pa-	.	(4f\	-pa-	.	4a-\	-pa-	.	4f\	f	4a-\	f	(8a-/L	f	(8dd\L	f
8F\	.	8d\	.	8f/)	.	8B-/)	.	.	.	.	.	.	.	.	.	.	.	.	.	.	.	.	.	8b-/)	.	8ff\)	.
8D\	.	8f\)	.	(8B-/	.	(8f/	.	.	.	.	.	.	.	4d\)	.	.	12f/L	.	.	4B-/	.	4f\	.	(8a-/	.	(8dd\	.
.	.	.	.	.	.	.	.	.	.	.	.	.	.	.	.	.	12g/	.	.	.	.	.	.	.	.	.	.
8D\	.	(8d\	.	8f/)	.	8B-/)	.	.	.	.	.	.	.	.	.	.	.	.	.	.	.	.	.	8b-/)	.	8ff\)	.
.	.	.	.	.	.	.	.	.	.	.	.	.	.	.	.	.	12f/J	.	.	.	.	.	.	.	.	.	.
8BB-\	.	8B-\	.	(8d/	.	(8a-/	.	4D\]	.	.	.	.	.	4f\	.	.	12a-\L	.	.	4f\	.	4a-\	.	(8a-/	.	(8dd\	.
.	.	.	.	.	.	.	.	.	.	.	.	.	.	.	.	.	12b-\	.	.	.	.	.	.	.	.	.	.
8BB-\J	.	8d\J)	.	8f/J)	.	8B-/J)	.	.	.	.	.	.	.	.	.	.	.	.	.	.	.	.	.	8b-/J)	.	8ff\J)	.
.	.	.	.	.	.	.	.	.	.	.	.	.	.	.	.	.	12a-\J	.	.	.	.	.	.	.	.	.	.
!	!	!	!	!	!	!	!	!	!	!	!	!	!	!LO:LB:g=original	!	!	!	!	!	!	!	!	!	!	!	!	!
=99	=99	=99	=99	=99	=99	=99	=99	=99	=99	=99	=99	=99	=99	=99	=99	=99	=99	=99	=99	=99	=99	=99	=99	=99	=99	=99	=99
!	!	!	!	!	!LO:DY:rj	!	!LO:DY:a:t=p&colon;	!	!	!	!	!	!	!	!	!	!	!	!	!	!	!	!	!	!	!	!
4E-\	p	(8B-\L	p	(8e-/L	p	8g/L	p	4E-\	-li	.	4B-\	-li	.	4e-\	-li	.	4g\	-li	.	4e-\	p	4g\	p	(8g/L	p	(8ee-\L	p
.	.	8e-\	.	8g/)	.	16b-/L	.	.	.	.	.	.	.	.	.	.	.	.	.	.	.	.	.	8b-/)	.	8gg\)	.
.	.	.	.	.	.	16dd/JJ	.	.	.	.	.	.	.	.	.	.	.	.	.	.	.	.	.	.	.	.	.
4r	.	8g\	.	(8B-/	.	8ee-\L	.	4r	.	.	4r	.	.	4r	.	.	4r	.	.	8r	.	8r	.	(8g/	.	(8ee-\	.
.	.	8e-\)	.	8g/)	.	(8b-\	.	.	.	.	.	.	.	.	.	.	.	.	.	8e-\L	.	8g\L	.	8b-/)	.	8gg\)	.
4E-\	.	(8B-\	.	(8e-/	.	8g\	.	4E-\	et	.	4e-\	et	.	4g\	et	.	4b-\	et	.	8B-\	.	8f\	.	(8g/	.	(8ee-\	.
.	.	8e-\J)	.	8g/J)	.	8e-\J)	.	.	.	.	.	.	.	.	.	.	.	.	.	8e-\J	.	8g\J	.	8b-/J)	.	8gg\J)	.
!LO:LB:g=original	!	!	!	!	!	!	!	!	!	!	!	!	!	!	!	!	!LO:LB:g=original	!	!	!	!	!	!	!	!	!	!
=100	=100	=100	=100	=100	=100	=100	=100	=100	=100	=100	=100	=100	=100	=100	=100	=100	=100	=100	=100	=100	=100	=100	=100	=100	=100	=100	=100
*tremolo	*	*tremolo	*	*	*	*	*	*	*	*	*	*	*	*	*	*	*	*	*	*	*	*	*	*	*	*	*
!	!	!	!LO:DY:rj	!	!	!	!LO:DY:a:t=for	!	!	!	!	!	!	!	!	!	!	!	!	!	!	!	!	!	!	!	!
8A-\L	f	8e-\L	f	8a-/	f	8cc\	f	2.A-\	Spi-	.	2e-\	Spi-	.	2a-\	Spi-	.	2cc\	Spi-	.	4e-\	f	4a-\	f	8a-/	f	8cc\	f
8A-\	.	8e-\	.	4a-/	.	4cc\	.	.	.	.	.	.	.	.	.	.	.	.	.	.	.	.	.	4cc\	.	4aa-\	.
8A-\	.	8e-\	.	.	.	.	.	.	.	.	.	.	.	.	.	.	.	.	.	4r	.	4r	.	.	.	.	.
8A-\	.	8e-\	.	4a-/	.	4cc\	.	.	.	.	.	.	.	.	.	.	.	.	.	.	.	.	.	4cc\	.	4aa-\	.
8A-\	.	8e-\	.	.	.	.	.	.	.	.	4e-\	-ri-	.	4a-\	-ri-	.	4cc\	-ri-	.	4r	.	4r	.	.	.	.	.
8A-\J	.	8e-\J	.	8a-/	.	8cc\	.	.	.	.	.	.	.	.	.	.	.	.	.	.	.	.	.	8cc\	.	8aa-\	.
!	!	!	!	!LO:LB:g=original	!	!	!	!	!	!	!	!	!	!	!	!	!	!	!	!	!	!	!	!	!	!	!
=101	=101	=101	=101	=101	=101	=101	=101	=101	=101	=101	=101	=101	=101	=101	=101	=101	=101	=101	=101	=101	=101	=101	=101	=101	=101	=101	=101
8F\L	.	8b-\L	.	8a-/	.	8dd\	.	2.F\	-ri-	.	2.f\	-tu	.	2.a-\	-tu	.	2.dd\	-tu	.	4B-/	.	4f\	.	8dd\	.	8aa-\	.
8F\	.	8b-\	.	4a-/	.	4dd\	.	.	.	.	.	.	.	.	.	.	.	.	.	.	.	.	.	4dd\	.	4aa-\	.
8F\	.	8b-\	.	.	.	.	.	.	.	.	.	.	.	.	.	.	.	.	.	4r	.	4r	.	.	.	.	.
8F\	.	8b-\	.	4a-/	.	4dd\	.	.	.	.	.	.	.	.	.	.	.	.	.	.	.	.	.	4dd\	.	4aa-\	.
8F\	.	8b-\	.	.	.	.	.	.	.	.	.	.	.	.	.	.	.	.	.	4r	.	4r	.	.	.	.	.
8F\J	.	8b-\J	.	8a-/	.	8dd\	.	.	.	.	.	.	.	.	.	.	.	.	.	.	.	.	.	8dd\	.	8aa-\	.
*Xtremolo	*	*Xtremolo	*	*	*	*	*	*	*	*	*	*	*	*	*	*	*	*	*	*	*	*	*	*	*	*	*
!	!	!LO:LB:g=original	!	!	!	!	!	!	!	!	!	!	!	!	!	!	!	!	!	!	!	!	!	!	!	!	!
=102	=102	=102	=102	=102	=102	=102	=102	=102	=102	=102	=102	=102	=102	=102	=102	=102	=102	=102	=102	=102	=102	=102	=102	=102	=102	=102	=102
4G\	.	4b-\	.	4g/	.	4ee-\	.	4G\	-tu	.	(4g\	prin-	.	(4g\	prin-	.	(4ee-\	prin-	.	4e-\	.	4g\	.	4ee-\	.	4gg\	.
4r	.	4b-\	.	4f/	.	4a-/	.	4r	.	.	4f\)	.	.	4b-\)	.	.	4aa-\)	.	.	4f\	.	4a-\	.	4ff\	.	4aa-\	.
4r	.	4b-\	.	4e-/	.	4g/	.	4r	.	.	4e-\	-ci-	.	4b-\	-ci-	.	4gg\	-ci-	.	4e-\	.	4g\	.	4ee-\	.	4gg\	.
!	!	!	!	!	!	!	!	!LO:LB:g=original	!	!	!LO:PB:g=original	!	!	!	!	!	!	!	!	!	!	!	!	!	!	!	!
=103	=103	=103	=103	=103	=103	=103	=103	=103	=103	=103	=103	=103	=103	=103	=103	=103	=103	=103	=103	=103	=103	=103	=103	=103	=103	=103	=103
!LO:TX:t=P:problem:mixed beam	!	!LO:TX:t=P:problem:mixed beam	!	!	!	!	!	!	!	!	!	!	!	!	!	!	!	!	!	!	!	!	!	!	!	!	!
8A-\L	.	8cc\L	.	16A-/LL	.	16f/LL	.	8A-\	Prin-	.	(4c\	-pa-	.	(4a-\	-pa-	.	(4ff\	-pa-	.	4B-/	.	4f\	.	4a-/	.	4ff\	.
.	.	.	.	16A-/	.	16f/	.	.	.	.	.	.	.	.	.	.	.	.	.	.	.	.	.	.	.	.	.
8A-\	.	8cc\	.	16A-/	.	16f/	.	8A-\	-ci-	.	.	.	.	.	.	.	.	.	.	.	.	.	.	.	.	.	.
.	.	.	.	16A-/JJ	.	16f/JJ	.	.	.	.	.	.	.	.	.	.	.	.	.	.	.	.	.	.	.	.	.
*	*	*	*	*tremolo	*	*tremolo	*	*	*	*	*	*	*	*	*	*	*	*	*	*	*	*	*	*	*	*	*
8B-\	.	8b-\	.	16G/LL	.	16e-/LL	.	4B-\	-pa-	.	4B-\	.	.	4g\)	.	.	4ee-\)	.	.	4G/	.	4e-\	.	4g/	.	4ee-\	.
.	.	.	.	16G/	.	16e-/	.	.	.	.	.	.	.	.	.	.	.	.	.	.	.	.	.	.	.	.	.
8B-\	.	8b-\	.	16G/	.	16e-/	.	.	.	.	.	.	.	.	.	.	.	.	.	.	.	.	.	.	.	.	.
.	.	.	.	16G/JJ	.	16e-/JJ	.	.	.	.	.	.	.	.	.	.	.	.	.	.	.	.	.	.	.	.	.
8BB-/	.	8B-/	.	16A-/LL	.	16d/LL	.	4BB-/	.	.	4B-\)	.	.	4f\	.	.	4dd\	.	.	4B-/	.	4f\	.	4f/	.	4dd\	.
.	.	.	.	16A-/	.	16d/	.	.	.	.	.	.	.	.	.	.	.	.	.	.	.	.	.	.	.	.	.
8BB-/J	.	8B-/J	.	16A-/	.	16d/	.	.	.	.	.	.	.	.	.	.	.	.	.	.	.	.	.	.	.	.	.
.	.	.	.	16A-/JJ	.	16d/JJ	.	.	.	.	.	.	.	.	.	.	.	.	.	.	.	.	.	.	.	.	.
*	*	*	*	*Xtremolo	*	*Xtremolo	*	*	*	*	*	*	*	*	*	*	*	*	*	*	*	*	*	*	*	*	*
!	!	!	!	!	!	!	!	!	!	!	!	!	!	!	!	!	!	!	!	!LO:LB:g=original	!	!	!	!	!	!	!
=104	=104	=104	=104	=104	=104	=104	=104	=104	=104	=104	=104	=104	=104	=104	=104	=104	=104	=104	=104	=104	=104	=104	=104	=104	=104	=104	=104
!	!	!	!	!LO:TX:a:t=Dolce	!	!LO:TX:b:i:t=dolce	!LO:DY:a:t=p&colon;	!	!	!	!	!	!	!	!	!	!	!	!	!	!	!	!	!	!	!	!
4E-\	p	8.G/L	p	8.e-/L	p	8g/L	p	4E-\	-li	.	4B-\	-li	.	4g\	-li	.	4ee-\	-li	.	4G/	p	4e-\	p	4g/	.	4ee-\	.
.	.	.	.	.	.	16a-/L	.	.	.	.	.	.	.	.	.	.	.	.	.	.	.	.	.	.	.	.	.
.	.	16A-/Jk	.	16f/Jk	.	16b-/JJ	.	.	.	.	.	.	.	.	.	.	.	.	.	.	.	.	.	.	.	.	.
*	*	*tremolo	*	*tremolo	*	*tremolo	*	*	*	*	*	*	*	*	*	*	*	*	*	*	*	*	*	*	*	*	*
4r	.	8B-/L	.	8g/L	.	8b-/L	.	4r	.	.	4r	.	.	4r	.	.	4r	.	.	4r	.	4r	.	4r	.	4r	.
.	.	8B-/	.	8g/	.	8b-/	.	.	.	.	.	.	.	.	.	.	.	.	.	.	.	.	.	.	.	.	.
4r	.	8B-/	.	8g/	.	8b-/	.	4r	.	.	4r	.	.	4r	.	.	4r	.	.	4r	.	4r	.	4r	.	4r	.
.	.	8B-/J	.	8g/J	.	8b-/J	.	.	.	.	.	.	.	.	.	.	.	.	.	.	.	.	.	.	.	.	.
*	*	*Xtremolo	*	*Xtremolo	*	*Xtremolo	*	*	*	*	*	*	*	*	*	*	*	*	*	*	*	*	*	*	*	*	*
=105	=105	=105	=105	=105	=105	=105	=105	=105	=105	=105	=105	=105	=105	=105	=105	=105	=105	=105	=105	=105	=105	=105	=105	=105	=105	=105	=105
!	!	!	!	!	!	!	!	!LO:TX:a:t=2	!	!	!LO:TX:a:t=2	!	!	!LO:TX:a:t=2	!	!	!	!	!	!	!	!	!	!	!	!	!
4E-\	.	8.c\L	.	8.a-\L	.	8.cc\L	.	1.r	.	.	1.r	.	.	1.r	.	.	1.r	.	.	4e-\	.	4a-\	.	4a-/	.	4ee-\	.
.	.	16d\Jk	.	16b-\Jk	.	16dd\Jk	.	.	.	.	.	.	.	.	.	.	.	.	.	.	.	.	.	.	.	.	.
*	*	*tremolo	*	*	*	*	*	*	*	*	*	*	*	*	*	*	*	*	*	*	*	*	*	*	*	*	*
!	!	!	!	!	!	!LO:LB:g=original	!	!	!	!	!	!	!	!	!	!	!	!	!	!	!	!	!	!	!	!	!
4r	.	8e-\L	.	8cc\L	.	8ee-\L	.	.	.	.	.	.	.	.	.	.	.	.	.	4r	.	4r	.	4r	.	4r	.
.	.	8e-\	.	8cc\	.	8ee-\	.	.	.	.	.	.	.	.	.	.	.	.	.	.	.	.	.	.	.	.	.
4r	.	8e-\	.	8cc\	.	8ee-\	.	.	.	.	.	.	.	.	.	.	.	.	.	4r	.	4r	.	4r	.	4r	.
.	.	8e-\J	.	8cc\J	.	8ee-\J	.	.	.	.	.	.	.	.	.	.	.	.	.	.	.	.	.	.	.	.	.
*	*	*Xtremolo	*	*	*	*	*	*	*	*	*	*	*	*	*	*	*	*	*	*	*	*	*	*	*	*	*
=106	=106	=106	=106	=106	=106	=106	=106	=106	=106	=106	=106	=106	=106	=106	=106	=106	=106	=106	=106	=106	=106	=106	=106	=106	=106	=106	=106
4E-\	.	4b-\	.	8.g/L	.	8.b-/L	.	.	.	.	.	.	.	.	.	.	.	.	.	4e-\	.	4b-\	.	8.gg\L	.	8.bb-\L	.
!	!	!	!	!	!	!	!LO:DY:a:t=f&colon;	!	!	!	!	!	!	!	!	!	!	!	!	!	!	!	!	!	!	!	!
.	.	.	.	16e-/Jk	.	16g/Jk	f	.	.	.	.	.	.	.	.	.	.	.	.	.	.	.	.	16ee-\Jk	.	16gg\Jk	.
*	*	*	*	*tremolo	*	*	*	*	*	*	*	*	*	*	*	*	*	*	*	*	*	*	*	*	*	*	*
!	!	!	!	!	!	!	!	!	!	!	!	!	!	!	!	!	!	!	!	!	!	!	!	!LO:LB:g=original	!	!LO:LB:g=original	!
4r	.	4r	.	8g/L	f	8b-/L	.	.	.	.	.	.	.	.	.	.	.	.	.	4r	.	4r	.	8gg\L	.	8bb-\L	.
.	.	.	.	8g/	.	8b-/	.	.	.	.	.	.	.	.	.	.	.	.	.	.	.	.	.	8gg\	.	8bb-\	.
4E-\	.	4r	.	8g/	.	8b-/	.	.	.	.	.	.	.	.	.	.	.	.	.	4r	.	4r	.	8gg\	.	8bb-\	.
.	.	.	.	8g/J	.	8b-/J	.	.	.	.	.	.	.	.	.	.	.	.	.	.	.	.	.	8gg\J	.	8bb-\J	.
*	*	*	*	*Xtremolo	*	*	*	*	*	*	*	*	*	*	*	*	*	*	*	*	*	*	*	*	*	*	*
=107	=107	=107	=107	=107	=107	=107	=107	=107	=107	=107	=107	=107	=107	=107	=107	=107	=107	=107	=107	=107	=107	=107	=107	=107	=107	=107	=107
!	!	!LO:TX:t=P:problem:mixed beam	!	!	!	!	!	!	!	!	!	!	!	!	!	!	!	!	!	!	!	!	!	!	!	!	!
8A-\L	f	8cc\L	f	(8g/L	.	(8b-/L	.	4A-\	Con-	.	4c\	Con-	.	4a-\	con-	.	4ff\	con-	.	4f\	f	4a-\	f	(8gg\L	.	8bb-\L	.
8A-\	.	8cc\	.	8f/)	.	8a-/)	.	.	.	.	.	.	.	.	.	.	.	.	.	.	.	.	.	8ff\)	.	8aa-\	.
8B-\	.	8b-\	.	(8f/	.	(8a-/	.	4B-\	-fir-	.	4B-\	-fir-	.	4g\	-fir-	.	4ee-\	-fir-	.	4e-\	.	4g\	.	(8ff\	.	8aa-\	.
8B-\	.	8b-\	.	8e-/)	.	8g/)	.	.	.	.	.	.	.	.	.	.	.	.	.	.	.	.	.	8ee-\)	.	8gg\	.
8BB-/	.	8B-/	.	(8e-/	.	(8g/	.	4BB-/	-ma	.	4B-\	-ma	.	4f\	-ma	.	4dd\	-ma	.	4B-/	.	4f\	.	(8ee-\	.	8gg\	.
8BB-/J	.	8B-/J	.	8d/J)	.	8f/J)	.	.	.	.	.	.	.	.	.	.	.	.	.	.	.	.	.	8b-\J)	.	8ff\J	.
!	!	!	!	!	!	!	!	!	!	!	!	!	!	!	!	!	!	!	!	!	!	!LO:LB:g=original	!	!	!	!	!
=108	=108	=108	=108	=108	=108	=108	=108	=108	=108	=108	=108	=108	=108	=108	=108	=108	=108	=108	=108	=108	=108	=108	=108	=108	=108	=108	=108
!	!	!	!	!	!	!	!LO:DY:a:t=pp&colon;	!	!	!	!	!	!	!	!	!	!	!	!	!LO:TX:a:t=Solo	!	!LO:TX:a:t=Solo	!	!	!	!	!
4E-\	pp	8.G/L	p	8.e-/L	pp	8.g/L	pp	4E-\	me	.	4B-\	me	.	4g\	me	.	4ee-\	me	.	8.e-\L	p	8.g\L	p	4g/	p	4ee-\	.
.	.	16A-/Jk	.	16f/Jk	.	16a-/Jk	.	.	.	.	.	.	.	.	.	.	.	.	.	16f\Jk	.	16a-\Jk	.	.	.	.	.
*	*	*tremolo	*	*	*	*	*	*	*	*	*	*	*	*	*	*	*	*	*	*	*	*	*	*	*	*	*
4r	.	8B-/L	.	8g/L	.	8b-/L	.	4r	.	.	4r	.	.	4r	.	.	4r	.	.	8g\L	.	8b-\L	.	4r	.	4r	.
.	.	8B-/	.	8g/	.	8b-/	.	.	.	.	.	.	.	.	.	.	.	.	.	8g\	.	8b-\	.	.	.	.	.
4r	.	8B-/	.	8g/	.	8b-/	.	4r	.	.	4r	.	.	4r	.	.	4r	.	.	8g\	.	8b-\	.	4r	.	4r	.
.	.	8B-/J	.	8g/J	.	8b-/J	.	.	.	.	.	.	.	.	.	.	.	.	.	8g\J	.	8b-\J	.	.	.	.	.
*	*	*Xtremolo	*	*	*	*	*	*	*	*	*	*	*	*	*	*	*	*	*	*	*	*	*	*	*	*	*
=109	=109	=109	=109	=109	=109	=109	=109	=109	=109	=109	=109	=109	=109	=109	=109	=109	=109	=109	=109	=109	=109	=109	=109	=109	=109	=109	=109
!	!	!	!	!	!	!	!	!LO:TX:a:t=2	!	!	!LO:TX:a:t=2	!	!	!LO:TX:a:t=2	!	!	!	!	!	!	!	!	!	!	!	!	!
4E-\	.	8.c\L	.	8.a-/L	.	8.cc\L	.	1.r	.	.	1.r	.	.	1.r	.	.	1.r	.	.	8.a-\L	.	8.cc\L	.	4a-/	.	4ee-\	.
.	.	16d\Jk	.	16b-/Jk	.	16dd\Jk	.	.	.	.	.	.	.	.	.	.	.	.	.	16b-\Jk	.	16dd\Jk	.	.	.	.	.
*	*	*tremolo	*	*	*	*	*	*	*	*	*	*	*	*	*	*	*	*	*	*	*	*	*	*	*	*	*
4r	.	8e-\L	.	8cc\L	.	8ee-\L	.	.	.	.	.	.	.	.	.	.	.	.	.	8cc\L	.	8ee-\L	.	4r	.	4r	.
.	.	8e-\	.	8cc\	.	8ee-\	.	.	.	.	.	.	.	.	.	.	.	.	.	8cc\	.	8ee-\	.	.	.	.	.
4r	.	8e-\	.	8cc\	.	8ee-\	.	.	.	.	.	.	.	.	.	.	.	.	.	8cc\	.	8ee-\	.	4r	.	4r	.
.	.	8e-\J	.	8cc\J	.	8ee-\J	.	.	.	.	.	.	.	.	.	.	.	.	.	8cc\J	.	8ee-\J	.	.	.	.	.
*	*	*Xtremolo	*	*	*	*	*	*	*	*	*	*	*	*	*	*	*	*	*	*	*	*	*	*	*	*	*
=110	=110	=110	=110	=110	=110	=110	=110	=110	=110	=110	=110	=110	=110	=110	=110	=110	=110	=110	=110	=110	=110	=110	=110	=110	=110	=110	=110
4E-\	.	4b-\	.	8.g/L	.	8.b-\L	.	.	.	.	.	.	.	.	.	.	.	.	.	8.g\L	.	8.b-\L	.	8.gg\L	.	8.bb-\L	.
.	.	.	.	16e-/Jk	.	16g\Jk	.	.	.	.	.	.	.	.	.	.	.	.	.	16e-\Jk	.	16g\Jk	.	16ee-\Jk	.	16gg\Jk	.
*	*	*	*	*tremolo	*	*	*	*	*	*	*	*	*	*	*	*	*	*	*	*tremolo	*	*	*	*tremolo	*	*	*
4r	.	4r	.	8g/L	f	8b-\L	.	.	.	.	.	.	.	.	.	.	.	.	.	8g\L	.	8b-\L	.	8gg\L	.	8bb-\L	.
.	.	.	.	8g/	.	8b-\	.	.	.	.	.	.	.	.	.	.	.	.	.	8g\	.	8b-\	.	8gg\	.	8bb-\	.
4E-\	.	4r	.	8g/	.	8b-\	.	.	.	.	.	.	.	.	.	.	.	.	.	8g\	.	8b-\	.	8gg\	.	8bb-\	.
.	.	.	.	8g/J	.	8b-\J	.	.	.	.	.	.	.	.	.	.	.	.	.	8g\J	.	8b-\J	.	8gg\J	.	8bb-\J	.
*	*	*	*	*Xtremolo	*	*	*	*	*	*	*	*	*	*	*	*	*	*	*	*Xtremolo	*	*	*	*Xtremolo	*	*	*
!	!	!	!	!LO:LB:g=original	!	!	!	!	!	!	!	!	!	!	!	!	!	!	!	!	!	!	!	!	!	!	!
=111	=111	=111	=111	=111	=111	=111	=111	=111	=111	=111	=111	=111	=111	=111	=111	=111	=111	=111	=111	=111	=111	=111	=111	=111	=111	=111	=111
!	!	!	!	!	!	!	!	!	!	!	!	!	!	!	!	!	!	!	!	!	!	!	!LO:DY:rj	!	!	!	!
4A-\	.	8cc\L	f	(8g/L	.	(8b-/L	.	4A-\	con-	.	4c\	Con-	.	4a-\	Con-	.	4ff\	con-	.	4f\	.	4a-\	f	(8gg\L	.	(8bb-\L	.
.	.	8cc\	.	8f/)	.	8a-/)	.	.	.	.	.	.	.	.	.	.	.	.	.	.	.	.	.	8ff\)	.	8aa-\)	.
4B-\	.	8b-\	.	(8f/	.	(8a-/	.	4B-\	-fir-	.	4B-\	-fir-	.	4g\	-fir-	.	4ee-\	-fir-	.	4e-\	.	4g\	.	(8ff\	.	(8aa-\	.
.	.	8b-\	.	8e-/)	.	8g/)	.	.	.	.	.	.	.	.	.	.	.	.	.	.	.	.	.	8ee-\)	.	8gg\)	.
4BB-/	.	8B-/	.	(8e-/	.	(8g/	.	4BB-/	-ma-	.	4B-\	-ma	.	4f\	-ma	.	4dd\	-ma	.	4B-/	.	4f\	.	(8ee-\	.	(8gg\	.
.	.	8B-/J	.	8d/J)	.	8f/J)	.	.	.	.	.	.	.	.	.	.	.	.	.	.	.	.	.	8b-\J)	.	8ff\J)	.
=112	=112	=112	=112	=112	=112	=112	=112	=112	=112	=112	=112	=112	=112	=112	=112	=112	=112	=112	=112	=112	=112	=112	=112	=112	=112	=112	=112
4E-\	.	4B-/	.	4e-/	.	4g/	.	2E-\	-me	.	2B-\	me	.	2g\	me	.	2ee-\	me	.	4G/	.	4e-\	.	4g/	.	4ee-\	.
4E-\	.	4b-\	.	4G/	.	4e-/	.	.	.	.	.	.	.	.	.	.	.	.	.	4G/	.	4e-\	.	4g/	.	4ee-\	.
4E-\	.	4B-/	.	4G/	.	4e-/	.	4r	.	.	4r	.	.	4r	.	.	4r	.	.	4G/	.	4e-\	.	4g/	.	4ee-\	.
!	!	!LO:LB:g=original	!	!	!	!	!	!	!	!	!	!	!	!LO:LB:g=original	!	!	!	!	!	!	!	!	!	!	!	!	!
=113	=113	=113	=113	=113	=113	=113	=113	=113	=113	=113	=113	=113	=113	=113	=113	=113	=113	=113	=113	=113	=113	=113	=113	=113	=113	=113	=113
2E-\	.	2B-/	.	2G/	.	2e-/	.	2.r	.	.	2.r	.	.	2.r	.	.	2.r	.	.	2G/	.	2e-\	.	2g/	.	2ee-\	.
4r	.	4r	.	4r	.	4r	.	.	.	.	.	.	.	.	.	.	.	.	.	4r	.	4r	.	4r	.	4r	.
==	==	==	==	==	==	==	==	==	==	==	==	==	==	==	==	==	==	==	==	==	==	==	==	==	==	==	==
*-	*-	*-	*-	*-	*-	*-	*-	*-	*-	*-	*-	*-	*-	*-	*-	*-	*-	*-	*-	*-	*-	*-	*-	*-	*-	*-	*-
!!!system-decoration: [(g1)][(g2)][(g3)][(g4)]s12
!!!RDF**kern: | = vertical stroke
!!!ENC: Marcin Jachim
!!!END: 2020-11-03
!!!ENC: Marta Lawrence
!!!END: 2022-04-11
!!!YEC: Copyright 2022 Narodowy Instytut Fryderyka Chopina (https://polishscores.org)
!!!YEM: License CC-BY-4.0 (https://creativecommons.org/licenses/by/4.0)
